/* XPM */
static char *c3be4b0e7fc14168f6bbf92daa66a4b5x07fjbeiFTv2I9yZ[] = {
/* columns rows colors chars-per-pixel */
"512 512 256 2 ",
"   c #393416",
".  c #3B3829",
"X  c #3B3A33",
"o  c #271F11",
"O  c #433D16",
"+  c #443C29",
"@  c #443D34",
"#  c #503E34",
"$  c #3E412F",
"%  c #4A4808",
"&  c #58570A",
"*  c #4D4B1C",
"=  c #4A4618",
"-  c #524D1C",
";  c #534D15",
":  c #5C5B14",
">  c #55531C",
",  c #5A551C",
"<  c #5C5B1C",
"1  c #575414",
"2  c #514E0C",
"3  c #625D1C",
"4  c #625C15",
"5  c #615E0B",
"6  c #5E6114",
"7  c #67660B",
"8  c #646314",
"9  c #64631C",
"0  c #6C6B1C",
"q  c #6A6818",
"w  c #716D1A",
"e  c #76761A",
"r  c #717312",
"t  c #4D4A24",
"y  c #4B452C",
"u  c #4D4A2C",
"i  c #474427",
"p  c #524D24",
"a  c #534D2C",
"s  c #564A29",
"d  c #555223",
"f  c #5A5524",
"g  c #5D5B23",
"h  c #55522B",
"j  c #5A542C",
"k  c #5D5A2B",
"l  c #565928",
"z  c #454334",
"x  c #4B4434",
"c  c #4D4A34",
"v  c #4B453B",
"b  c #4D4A3B",
"n  c #45443B",
"m  c #534C34",
"M  c #534C3B",
"N  c #574A38",
"B  c #555233",
"V  c #5B5434",
"C  c #5D5A33",
"Z  c #55523C",
"A  c #5B543B",
"S  c #5D5A3B",
"D  c #565934",
"F  c #4E512D",
"G  c #625D24",
"H  c #625C2C",
"J  c #655929",
"K  c #635C34",
"L  c #635C3C",
"P  c #665939",
"I  c #6C5838",
"U  c #5E612C",
"Y  c #646323",
"T  c #6A6524",
"R  c #6C6B23",
"E  c #65622B",
"W  c #6A642C",
"Q  c #6C6A2B",
"!  c #666926",
"~  c #726D2C",
"^  c #726B25",
"/  c #747324",
"(  c #74732B",
")  c #7B7928",
"_  c #656233",
"`  c #6B6434",
"'  c #6D6A33",
"]  c #65623B",
"[  c #6B643C",
"{  c #6D6A3B",
"}  c #656A36",
"|  c #726C34",
" . c #736C3C",
".. c #756839",
"X. c #747233",
"o. c #75723B",
"O. c #7B743C",
"+. c #7C7836",
"@. c #6E7128",
"#. c #4B4A42",
"$. c #534D42",
"%. c #574D45",
"&. c #555243",
"*. c #5B5443",
"=. c #5D5A44",
"-. c #5C554A",
";. c #5D5A4B",
":. c #55544A",
">. c #57574F",
",. c #635C44",
"<. c #635C4B",
"1. c #685A47",
"2. c #655D52",
"3. c #725C48",
"4. c #656143",
"5. c #6B6444",
"6. c #6D6A43",
"7. c #6B634B",
"8. c #69654C",
"9. c #736C44",
"0. c #72654C",
"q. c #736C4C",
"w. c #7A6D4C",
"e. c #766745",
"r. c #757243",
"t. c #7B7444",
"y. c #76714B",
"u. c #7B734C",
"i. c #7D7A47",
"p. c #6C6453",
"a. c #6E6A5B",
"s. c #6A6656",
"d. c #736553",
"f. c #736B54",
"g. c #7B6D54",
"h. c #736C5B",
"j. c #7A6D5B",
"k. c #756658",
"l. c #7C7354",
"z. c #7E7A54",
"x. c #7C735C",
"c. c #7E795B",
"v. c #767158",
"b. c #6E7250",
"n. c #756D62",
"m. c #7C7463",
"M. c #7B7666",
"N. c #716E66",
"B. c #5E614D",
"V. c #443F40",
"C. c #827D29",
"Z. c #837B39",
"A. c #846F3A",
"S. c #817D18",
"D. c #837C44",
"F. c #837C4C",
"G. c #867749",
"H. c #827454",
"J. c #837B54",
"K. c #82755C",
"L. c #837B5C",
"P. c #8A7C5C",
"I. c #8A7955",
"U. c #947C58",
"Y. c #856F4F",
"T. c #827563",
"R. c #847B64",
"E. c #8A7D64",
"W. c #857C6A",
"Q. c #8A7D6B",
"!. c #847669",
"~. c #877D72",
"^. c #917C67",
"/. c #A07E5B",
"(. c #7E812B",
"). c #7E8118",
"_. c #7E8148",
"`. c #85871B",
"'. c #868628",
"]. c #888538",
"[. c #929033",
"{. c #898448",
"}. c #938949",
"|. c #8B8354",
" X c #8B835C",
".X c #888458",
"XX c #958859",
"oX c #999458",
"OX c #979448",
"+X c #868163",
"@X c #8B8364",
"#X c #8C826C",
"$X c #8B866A",
"%X c #938464",
"&X c #938B64",
"*X c #92846C",
"=X c #948B6C",
"-X c #9B8C6C",
";X c #9B8865",
":X c #9A9369",
">X c #8C8472",
",X c #8E8974",
"<X c #8B8578",
"1X c #928573",
"2X c #948B74",
"3X c #9B8D73",
"4X c #948C7A",
"5X c #9A8D7B",
"6X c #938679",
"7X c #9C9274",
"8X c #9C937C",
"9X c #999479",
"0X c #A38C6A",
"qX c #A5956B",
"wX c #A39374",
"eX c #AB9474",
"rX c #A3947C",
"tX c #A49A7C",
"yX c #AC9B7C",
"uX c #A99977",
"iX c #B39C79",
"pX c #A48F73",
"aX c #AAA27A",
"sX c #B5A47B",
"dX c #ACA56B",
"fX c #A39859",
"gX c #C1A57F",
"hX c #958D82",
"jX c #9C9483",
"kX c #9C9688",
"lX c #928D87",
"zX c #A29582",
"xX c #A49B84",
"cX c #AB9D83",
"vX c #A49C8B",
"bX c #AA9E8A",
"nX c #A29689",
"mX c #B19E83",
"MX c #A49D92",
"NX c #A9978A",
"BX c #ACA285",
"VX c #ACA28C",
"CX c #A7A389",
"ZX c #B3A284",
"AX c #B3A48B",
"SX c #B7A98A",
"DX c #ACA492",
"FX c #A9A395",
"GX c #B5AA94",
"HX c #BAB399",
"JX c #B9B28B",
"KX c #BBB4A5",
"LX c #C3B495",
"PX c #C4BBA7",
"IX c #CBC5AC",
"UX c #E7DFD4",
/* pixels */
"G ^ ) `.`.e e './ ) e (.(.Y ] S ] _ } o.X.@.@.@.6 6 3 Q o.E k K A M c c A ] _ k G g Y Q X.( ^ Q | I.F.|.t.O.W O.Q ^ R q q q 8 5 9 ! o.z. X=X=X+X Xz.u.J..Xi.l.z.L.x.R.@XE.#X*X@XE.%X%X%X%X;X@XK.K.#X2X#XW.#X#XR.R.W.#X#XE.E.E.#XR.R.E.E.E.T.T.T.j.#X#Xl.q.y.z.l.] C h u m Z &.$.&.*.A S K _ ` ` { _ K C L 4.4.8.=.8.8.8.8.6.8.6.{ } ] 5.C u d U < < < 1 > > d F b &.;.s.a.s.8.B.B.B.=.B.8.=.b c D D } } U U } } E U ! @.X.X.+.X.O.O.O.O.(.(.(.+.O.O.i.J..Xz.v.b.s.a.N.>.#.n c c i } } r.L.v.s.s.a.s.-.@ . @ v @ @ @ n X n n X #.X X . X @ <X>XhX4X,X2X9X5X3X*X-X*X%XE.E.L.c.z.z.q.,.,.A 1.*.1.<.,.L ,.L P j j j j j V V K A A V C k f g g H k k C C C C C K [ { W ! o.O.' ' | E g > H ' E E E , - ' | ' ' E G ' E > < Q o.X.! | E ` ' ' ! Y T X.].( +.: < < | o.+.X.X.! ; > k p B V A ,.] ] H g E E E }  .r.r.q.C A S ,.,.<.<.=.C K L L A V A S L K ] ` X.X.X.X.o. .r.t. .r.t.` { ` H H _ ` _ K K ,.5.7.5.L L 1.V m a B B a a V u m V L C f k ` d f - k K j L K k g H E G < Y ~ X.( Y < E t.i.r.t.` g E o.o.X.X.R 9 0 ) (.) / e r e ) ) ^ 9 T / q r e w ) Z.W - ",
"G +.'.e e `.'.(./ (.) (.( < h F _  .i._._.+.R & 9 ( X.| o.} j t i + + O i h k k , Y ~ +.X.~ ^ X.o.G.O.D.F.F.' ~ ^ ~ ^ / w 0 q q 9 3 g g j 6. X=XL.y.9.u..X.Xz.z.l.l.L.#X@XL.E.*X-X*X%XE.E.P.P.E.3X9X2X#XW.+XW.T.W.#X#X#XE.T.E.#XR.E.R.K.K.E.Q.T.R.1X*Xl.l.L.y.V h h h V A Z &.&.&.Z Z B j k k H H _ ] ] 4.4.4.4.4.8.8.4.4.4.6.] _ U } ] C h h U g < < 6 < > d D =.B.s.s.s.s.b.b.b.b.8.B.=.c c D D U } } } } } } } g ! X.X.@.@.@.o.o.O._.(.X.X.X._._._.J..X.Xc.c.b.M.a.#.X #.Z y D 6.6.r.z.v.a.a.2.a.a.-.v @ n n n n @ X X X X X . . X X X s.s.m.$.=.7.v.R.@X*X*XK.K.l.q.g.l.q.L V ,.7.Z ,.,.1.m ,.L P P V j j K j V K K L L ,.L L K H H E E _ _ ] K V V K ] [ { ' Y E ' | O.O.E H g ` o.' ` H - g {  .' ' ' ` o.E g g , G ' G f ` ` _ f , G ~ +.Q < Y 1 < < Q +.X.X.+.o.E H k = s m m A L L K H _ ` { r.r.y.r.9.] 4.,.,.1.,.<.,.L K L L L ,.4.4.6.5.] _ ' ' X.X.t.{ _ _ _ { 9. .9. .{ { { { { 6.5.5.7.4.5.5.q.z.5.5.5.5.5.5.5.q.S ,.,.L V h p f d j f K K C C h j k H E E g , , < < g g H _ {  ._ k f k E ' ' Q 9 : 9 / ) ) ) ) ) ) ) ( T < 9 ^ 0 q / '.+.R , G ",
"3 ) '.'.).e ).(.) (.e 0 6 > C ] o.O.o.R Y ! 6 2 : Q | ' _ C p = m A L L L _ _ E g ! O.{.Z.X.X.+.O.i.o.D.{.XXO.| O.~ ^ ^ 0 8 7 8 & : Y g * t d * 9.6.{ _ K [ z.@X:XL.u.L.@X@XP.E.7X*X@X*X*XR.*X5XrX2XQ.R.T.K.x.v.d.x.Q.#X#XE.E.E.E.R.K.T.Q.Q.E.T.zX2X#X$XE.q.S h h h B V B Z Z Z =.=.A V V C H _ _ ] [ 4.] 4.8.0.0.p.0.8.4.5.6.] } } } C D D k U g > 1 < g > d S 8.s.s.B.4.b.v.c.8.b.8.S F i i D l U } U l g E } U 1 < @.X.! Y Y E E W o._.(.(.{._._._._.|.|.J.z.b.s.;.b #.>.;.D C 6.{ { y.v.M.n.N.a.;.v @ X @ X @ n @ n n #.#.#.X X X n n :.#.&.*.*.=.=.,.3.0.0.3.1.1.L L ,.A m A V L A 1.,.3.d.1.,.L L P K V V K K L L A A A P C j j f f f j j j a m V L 5.] K _ E ` H > > f > H k H _ _ { [ H d K K K _ _ K _ K k H f H { H j p j K K H K H H o.E ' E E g Y X.o.X.o.o.'  .6.C ,.1.,.,.,.4.] ] [ 6.6.9.6.5.5.5.6.6.4.4.,.,.1.4.L L C L ,.4.7.q.q.5.K k E ` '  .[ 6.y.z..Xz.y.y.y.u.z.u.y.9.u.z.K.l.g.q.0.f.L.#XK.L.L.L.L.K.L.E.E.+XE.l.l.q.9.{ {  .K k K ] y.q.u.u.u.z.F.F.t.| i.o.o.t.z.r.6.[ 6.6.[ _ _ { o.o.Q T Q X.+.+.+.+.) / ( ( ~ Q Q Q ) 0 ) ].( : 2 G ",
"].) e '.[.[.'.(.& q w 0 9 g k k ' ~ ~ ~ X.( ! < Y Q ' } _ h h L ] 6.q.y.9.{ E E < < Y ~ X.( R T ~ +.+.D.{.{.D.D.Z.T : 8 q 8 & & : : : < g _ _ d = k { { _ k _ [ z. X&X@XL.J. X7X3X=X=X3X3X*X2X5X1XR.x.x.x.v.g.l.0.f.l.L.E.@X#XE.E.T.R.#XQ.x.R.5XVX2XR.R.q.a t C h h h h B B A A A A A C C C k k h k C ] ] 8.0.f.8.8.8.4.] ] ] _ } } C h h D k k g < < g g k C 6.b.b.4.D S 5.6.5.] 6.5.D h h h h d } o.} g l g < < 2 : ! ! Y 9 G g d > g | (.(.+.+.(.{.{.{.{.i.y.4.F $ n #.c i i C 6.{ { y.x.W.N.M.s.#.X X n n n n n n #.X X X . X . @ n #.v v M *.*.*.N N ,.1.1.1.,.,.,.L V A 4.,.A L 7.7.N N A A A A L L L K K j V V V A A ,.,.V V j j k K ] ] S A A A A L L L ` { 9.` k k _ { { [ K K ] 6.6.[ K ] ] L C V V V C p h h h p O = a L 6.6.y. X@X.X.Xu.z.r. .E f E ' ' ' '  .r.y.6.7.7.<.<.,.,.L L 6.8.6.4.,.,.4.6.6.8.6.4.,.4.8.q.7.4.L L 5.7.q.q.q.5.] [ [  .t.t.z.@X+Xl.l.q.5.5.5.q.q.q.6.5.q.y.L.L.L.z.l.l.K.E.@X@X#X@XE.E.@X*X>X2X#X+XE.@X XJ.J.&X X@X@X=X7X@XL. X XL..X X X|..X|..X&X7X7X:X*X=X&X Xy.q.u.|..X{.F.{.{.{.{.{.{.+.( Q Q O.+.+.o.( R ^ R / ) ( ( ",
"'.'.(.r r '.]./ & 8 ) ) ) X.{ } T 9 T +.D.D.O.O.o.t.r.` k p h 6.{ { ` ` ` ' ' ' o.Q Q X.Z.+.X.R R R ( X.X.o.O.o.E , 1 9 q 8 5 5 8 & 2 : E t.F.o.r.{ ' E } r.r.r.t.i.|.:XaXaX7XtXtXxXxXrX5X6X1XQ.#XR.T.#X#XE.E.E.#XE.l.f.v.R.#X@XR.R.T.x.j.x.5XDX*X#Xl.L a s B h D h h h B D V V S S L ] ] L C j C K L ] 4.L S V L ,.4.] ] ] _ k l k d t t l k d g g U < g } r.y.y.z.y.] C C C l _  .} l k { _ l } } W g g E Q Q 3 3 Y R ! @.~ ! o.9._ f g ' ( R : 9 Q Q Q E g > F     z b z i u l _ _ K C S <.$.v #.#.n X X X n @ n X #.X X #.X @ n b b v @ x M x c N A =.,.,.,.*.,.,.,.A A A A A L Z m N ,.,.N <.,.L V V B a s K K V V m a x x L V h p t t t s m N N m u m ,.q.5.6.] C K ] [ 5.] 5.] ] 4.L B a Z A Z m i i m m A V 4.q.l.@X#X7Xp.x.W.W.#X4X4X,Xc.L.L.y.y.r.k E k _ ` {  .6.] ,.1.<.<.2.2.<.<.1.<.<.<.<.,.8.7.f.7.7.8.4.4.6.q.y.d.0.1.1.7.q.q.q.q.q.q.u.J.J.P.L.E.9X2Xv.f.f.f.f.c.T.R.R.T.T.E.E.K.L.L.K.x.l.v.l.E.@X#XE.R.L.E.#XW.#XW.T.E.#X=X+XL.=X=X&X&X@X#Xl.L.+X@XL.L..X X.Xy. X=X=X=X9XxXCX8X8X2X@XL.@X&X&X:X&X&X&X&XXXXXXXoX|.i.o.o.O.i.i.O.| | T ( [.].'.",
"'.(.'.[.(.(.].(.: 9 ( ( ( +.O.D.X.T T +.D.D.D.F.t.|.t.j t j _ { { ' W ' ' ' Q Q Q ! Y T T T Y 9 R q R Y E E ` f * > g E 9 & & 5 8 5 6 R ' o.t.o.' E Q ' o. ._ C f H { F.J.[ u.aXcXBXxX8X5X8X5X1X2X#X*X3X8X2X=X=X*X#XE.K.L.E.R.x.T.R.j.f.#XbXbX2Xx.f.,.V B V C V ] K C K ] C V a K L L L L C V B a t = i u B V A a a h h h h d * * d d d l k l > * g g > l } y.y.y.z..Xz.{ U E ' ' o.E , E o.' E ' < 2 2 , ! ~ Q Q ~ X.~ R ( +.X._ { _ - % ; 3 9 T ( +.+.X.| W E l F i i y c B h d j j j t i c . . . X n n n @ z v n X n X @ >.n v x + v b b b x *.$.M M M N M A N <.,.N M 1.=.y m y + y y m y x y x y a A 5.l.l.l.l.l.K.T.E.Q.#XT.T.l.l.q.q.q.q.<.k.h.h.p.7.f.x.f.l.f.4.4.4.4.q.0.x.l.f.v.x.f.j.p.1.7.<.,.k.W.#X>X2X5XR.R.8XjXjX#X4X5X4X<X<X>XM.<X4X#Xc.l.l.k k j _ _ _ { 6.5.q.<.<.2.s.s.p.p.7.<.<.<.<.<.<.<.<.8.7.4.4.,.4.8.0.7.3.1.,.4.7.q.q.5.q.K.E.@X%X%X*X#X8X8XW.R.#X#X#XR.R.M.R.!.R.!.R.R.R.T.L.K.x.T.L.T.E.E.T.T.R.E.#X#X#X#XW.W.$X#X$X7XtX9X7X9X7XxX9X,X9X8X9X#X+X+X+X@X7X9X$XE.>X5X2X9X9X9X2X2X2X2X=X:X=X=X:X:X:X:X:X&X:XqX:X{.i.O.t. .` | X.+.].) '.",
"(.& & (.'.(.0 & 1 1 R ^ R T G ~ X.~ X.G.}.|.G.t.9.z. .j k { r.o.Q ! Q Q ~ R Y Y X.Q T T T Y Y Y R 8 R < G k K * d k _ E g < : 8 ) q 9 R Q ' {.XX{.i.t.t.t.r.u..Xz.r.H K 9.6.9.&X=X=X*X2X9X8X8X8XrX7X3X7XrX8X3X*XE.#X=X#X#X#XR.v.T.m.T.>XvXDX2X7.k.A m L 5.S V ] ] ] ] [ [ [ ] K [ ] K V V L ,.1.z.9.K s i = i i a a a p p d p * f f l k k k g d * < g g k ] r.y.o.r.{.{.o.W ' O.Q ! Y Y Q Q Q X.< 1 < ! Q Y 1 2 Q X.+.X.R R ( X.|  ...` W ! +.].^ +.Z.+.o.o.| ' y.6.D u u B S S ] ] [ 9.L m ,.M -.n X v -.:.$.v b v . @ . . v   . x . M c *.*.M =.$.$.;.;.*.=.<.-.<.-.*.*.<.p.k.m m 1.8XxXzX2XnXbXvXxX9X5X8XxXxXBXxX9X2X#XR.x.j.*.,.7.7.q.q.f.f.x.T.W.W.n.1.=.N ,.f.f.1.1.,.7.v.<.v.v.k.x.M.M.W.h.h.n.M.m.>XkXhX4XhXjXW.>XbXbXkXkXjXlX<X<XlXkXMXlXkX<XW.c.y.t l C _ H H  .9.9.l.1.<.2.2.2.2.<.<.<.<.<.<.<.<.=.*.7.8.<.,.1.4.4.7.1.1.1.1.1.5.7.5.5.q.L.#X*X*X3X5XbX8X>Xm.h.m.W.!.>X#X>X>X>X>X>X#XQ.Q.W.R.R.R.Q.Q.R.E.R.T.T.E.Q.Q.>XW.!.W.!.T.E.#XR.=X2XxXxX8XjX5XjXkXxXjX2X#X+X$X2X2X#X#X5XxXjX5X8X5X9X8X9X2X2X2X2X2X2X=X=X7X7X9X*XtXaXaXqXoXF.r.f * f Q +.'.`.'.",
"e r e '.e w Z.+.].( +.T 1 1 3 Z.| W J J ..Y.G.Y.[ K d d E ' E Q X.@.Q @.Q Q Q X.| Y < G Y Y g , : : Q g g d C i 4.] C C _ ' ' Q ) 6 1 G g g E { i.{ } t.J.i.9.6.6.J.9.h K ] L ] H.q.g.@X2X=X=X2XBXtX3X3XrXtX7X#X=X7X7X*XE.#X#X#Xm.M.5XVXjXx.7.8.L A V A S S V C h D C ] { r.z.|..XJ.u.q.q.K.#X2X@X@X*X*X&X@X+X+Xz.l.u.9.r.i.t.r._ k l f d d d g > g E } { { y.z.t.o.o.O.o.Q Q ( Y < 9 X.+.Q Q {.{.O.O.+.! 1 : ! Q Q X.+.Q Y Q o.| H g Q | Q Q +.~ +.+.o.'  . .9.r.] V 4.v.+X9XAXy.9.u.J.5.Z 1.,.*.b b &.Z z + + + @ + $.v M p.@ ,.#XR.W.c @ x M M M <.m.m.2.$.&.$.@ x $.c @ p.jXKXHXDXGXbXGXVXGXbXDXDXVXCXCXVXCXDXBXxXjXjXjX8X6X5XjXvXxX8X2X#X#XW.~.~.>X6X4X,X>X#X,X!.h.m.j.p.h.W.kXvXjXjX4X~.~.4X>XhXhXhXhXhX~.~.W.~.~.4XnXjXhXkXjXkXkXlXlXlXlXlX<XM.m.v.8.= D k _ H _ t.r._ L 7.7.p.h.h.h.p.s.<.<.<.<.2.p.p.p.p.7.<.7.p.p.p.p.d.d.p.7.0.0.7.7.7.l.E.*X2X5XnXbX>Xh.m.,X,X>X>XR.W.W.#X#XW.W.W.W.Q.Q.Q.Q.W.R.R.R.Q.#XQ.R.R.Q.Q.Q.>XW.W.W.W.R.W.2X,X2X#X2X2X>X8XjXvXkXjX8X2X#X=X9X2X2X2X2X9X5X8XjXjX8X5X5X2X>X>X8X9X9X2X2X$X2X2X7XxXtXtXqXdXqXXXt.` j f Y ( '.e r ",
"e '.'.'.C.}.}.Z.Z.D.G.G.}.}.}.G.G.U.G.....- I J p H H G < < R T R @.Q ~ X.Q Q X.E g g E E f f E Y < ' > j V O 2XxX2XL.l.9._ _ ' ( T < , E - j p = f k j h V L L L L L B u a L y.q.] V t i h 6. X2X2X2X=X=X#X@X@X=X=X=X2X#XW.>X8XkXFXvX>Xf.8.,.Z A m V S L V u t t K y.J..X&XXX|.J.J.@X7XtXzXnXxX8X7X7X2X=X=X3X7X=X@XL.J..X X|.z.K C d d g g > > g E ` k j z.] j > < Y T T T R R +.].}.].X.{.oXD.O.i.{.{.X.Y , g o.i.+.Q Y Q | | W | +.{.D.| T ! | | ' H :XuXuXJXaX=X7XtX@X9XJXSXJXJXSXBXrX2X2X8X5X2XVXR.p.=.A k.8XnX5XrXPXAXcXPXKX8X#XjX2X,X,XM x + + @ $.&.%.$.#.#.$.  @ s.p.jXvXbXbXbXbXbXbXbXbXVXDXbXvXxXbXDXDXVXxX8X5X5XjXvXhXjXvXDXGXGXCXkXkXhXhXhXkXkXvXkXbXjX~.n.h.M.~.<XhXhXMXkXhXkXhX6XhXhXhXhX4X4XhXjX<X~.~.hXkXjXhXjXkXhXlXlXlXlXlXlX<X<Xn.M.v.b.h t K K _ E t.t.t.k V ,.p.p.2.s.p.h.p.<.,.<.p.p.7.<.p.p.p.p.p.p.s.p.d.d.1.<.7.d.7.0.L L.Q.zXvXDXjX1XT.k.W.#X2X#X,XR.#XR.#XW.W.W.R.>X>XQ.R.T.W.Q.Q.Q.Q.W.W.R.T.m.m.T.~.~.W.~.>X>X>X#X>X>X#X>X>X>X1X2X5X5X2X2X>X#X#X$X2X7X9X8XjX8X8X8X9X5X2X5X5X2X5X8X8X9X2X2X8X8X8X9X8XxXaXqX:XoX|.r.9.d G ( +.e r `.",
"C.C.].}.Z.X.A.Z.~ D.XXXXU.G.Z.U.G.U.XXXXG...K I J ` G G < : R @.@.R Y Y Q E g H f f g H G f f H g g t.z.7XxX$XHXCXkX8XxXBXaX:X.Xi.i.o._ ] h V = d d h d p a u y m m V L S A S 4.V C K V h t p h 4.,.B m V 4.l.+X=X2X7X9X2X#X#X>XM.j.s.7.8.8.,.Z V S S a i u V L L.@X&X&X&X&X&X X:X:X7X8XrX5X5X5X8X7X7X7X7X7X8XtX7X-X&X&X&X&X X.X&X.X6.k > ; > , d d H 9.K k * k g T R ( X.].}.OX}.}.{.{.oXdXdXoXoX.X{..XoX:X:X:XXXoXXX|.|.XX|.{.XX}.{.+.| ! O.XXsX:XaXuXtXyXcX7XBX:X7X9X=X8XSXZXBXSXSXSXAXVXVXDXDXzXGXCXHXPXGXHXbXAXbXtXGX3X*XrXrX#X#X2X#X2XVX4X4X6X>X4Xn . v b v #.. $.2.h.kX5XjXnXnXxXnXnXvXvXvXkXkXnXbXbXkX4X,X1X4X8XnXvXkXhXs.M.4XkXbXbXDXGXFXMXMXMXMXFXDXbX6X<X~.W.>XhXkXkXhXhXkXhXhXkXhXhXhXhXhXhXhXhXjXkXkXhXhXkXkXhXhXjXjX4XlXlXlXlXlX<XlXM.M.W.>XS u S ] j k E E O.t.` k ] 7.p.p.s.p.p.p.8.<.8.8.7.<.<.p.p.s.s.s.s.s.s.d.k.d.p.d.p.8.8.1.x.>XbXvXnX1X!.8X2X5X>X#X#X>X#XW.x.R.R.R.E.x.m.m.x.m.T.Q.>X>X>XQ.W.W.Q.W.R.Q.1X6X,X>X>X>X,X,X>X,X>X>X#X#X>X>X>X2X>X>X#X#X#X$X#X$X=X2X2X5X5X2X2X2X2X2X5X5X2X2X5X9X9X2X2X9X8XjXjXrXtXtXqX:XoX|.F.F...O.+.) e r r ",
"].) Z.D.D.A.A.X.}.XXXXXXXXXXoXoXfXU.XX0X;X0X` ` J J G T 9 : 9 9 Y E Y E ' E g k j k K K k K 9.J.wX:X7X7XxXvX2XjXHXDX5X>X9XVXGXZXaXaX:Xz.z.c.=Xz.5.C h p a t u u m x N 7.f.0.8.8.V C K K C k k D i u m B A S S A c.R.$X#XR.h.p.p.m.s.4.4.=.B m B B S B i a 6.c.R.=X*X&X@X@X=X&X&X-X=X=X2X2X2X6X5X5X8X5X3X2X2X2X=X2X=X*X=X&X-X&X&X&X X XJ.` g g ; f k d K d p p k R @.( X.].}.oXoX{.{.' X.:X:X.X|..X|.|..X&X&X&XXX&XXX.XXX&X:XXXXX|.|.XXXX{.G.F.XXqXXXZXSXBXAXGXbXtX7X=X=X=X7X8X8X9XxXCXBXBXCXvXjXAXcXGXAXAXHXxXcX3XrXtX3XcX3X3XrXrX9XCX8X$X+X#X>X>X>XMXIXKXPX@ v >.. . M.M.2.kXjX5X5XjXjXkXzXnXnXkXkXkXvXvXkXjX5XkX5X4XhXvXMXvXkX~.hXMXFXvXjXkXMXFXFXFXFXFXFXMXvXhXhXhXhXhXkXkXkXkXhXkXlXlXkXlXhXjXhX4X4X4X4XhX4XjXkXvXkXhXhXhXlXjX4XlXhX<X<XlX<X<XM.M.W.#XS A 8.5.j { i.o.|.O.{ [ 6.q.p.p.h.h.h.f.0.8.8.7.8.<.7.7.p.s.s.s.s.s.s.p.k.2.,.<.<.p.h.h.h.W.jX6XzXnXnX#X5X2X#XE.E.T.T.E.v.v.v.x.T.f.f.j.x.T.Q.>X1X#XQ.#XW.W.Q.W.m.W.2X5X4X,X,X,X2X4X4X4X2X>X>X#X#X>X>X#X#X#X#X#X$X#X#X$X#X#X#X>X>X>X>X2X>X2X2X2X2X2X2X2X2X2X2X7X9X8XxXrX8XtXtXqXXX|.|.i. .O.+.) '.'.'.",
"].Z.D.O.O.G.D.~ }.}.U.U.U.XXoXoXfXG.G.0XiXsX|.D., G 3 Q R : : : E ' E k g d h K j L 9.q.J.&XtXBX7X7X7X8X8XjXVXVX5XvXGXGXDXCXxX9X7XtX9XL.+X+X8X2X=XL.y.6.5.C B m N u y N =.A B V 4.L D h a h d t i y c m m V S S 4.4.7.8.<.M b c Z Z Z B c u u B B B i A c.9XjX#X+X@X#X=X7XrX8X3X#X#X#XQ.Q.Q.6X5X5X5X6X1X#XQ.E.E.E.E.@X#X*X*X*X*XE.z. X.Xo.| O.' E H O d j K [ E R / ( +.].{.{.{.oX|.{..X:X&X.X@X&X7XaXZXBXaXaXaX9X=X X X X@X&X:X&XXX|.XX&X&X&X&XBXaXSXcXbXzX6XjXvXCX9X2XtXxX8XtX8XvXCXxXxXvXjX2Xx.Q.rXcXrXZXzXGXcXtXtX=X3X3XtX7XBX9X9Xx.f.v.h.W.4X>X4XkXFXPXo @ X . 2.a.2.<XnXhXhXhXjXkXnXnXkXnXkXkXkXkXkXkXvXMXMXjX<X>X4XhXhXlXhXlXjXkXkXjXhXhXkXnXMXnXkXkXkXkXkXkXjXhXhXhXhXhXkXhXkXlXhXkXkXkXjX5X6X6X4X5XhX4X4XjXkXkXhXjXhXlXjXlXhXlX<X<X<X<XM.<XM.>XM.>Xm.x.c.L [ k ' D.' i.t.u.q.7.p.h.m.m.m.v.k.7.7.8.8.p.7.p.p.p.p.p.s.s.k.j.1.*.=.<.s.a.p.8.>XvX5X8X8X5X#XxX2X2X#X2XE.#X#Xx.v.f.j.T.v.x.T.R.Q.1X2X1XQ.W.>XW.Q.#XW.x.T.>X4X2X2X2X2X4X5X5X5X5X4X2X,X,X,X,X>X#X#X#X>X>X>X,X2X,X#X#X#X>X>X>X>X#X,X2X2X,X2X2X2X2X5X2X2X9X8XxXrXrXxXBXaX:X|.i.XXt.O.Z.( ].'.[.",
"Z.{.XXJ.[ ` | W | G.XXI...I ^ ^ A.O.A.}.fX}.}.{.~ Q Y ~ Q < 9 Y g _ K k C V V L l.@X=X7XtXBXBXtX8XcXBXVXzX8XVXzXVXVXVXbX8X5XrXBX9XxXCXxXvX9XxX9X&X X.X&X Xz.q.q.,.Z m Z A A S S B B a u u u t i u c m c u u S 4.A S A M x z z z z i i i u B B u B B B x.8XxXjX#X$X#X2X7X8X8X5X1X>X>X^.Q.!.Q.Q.1X>X>X1X>X>XQ.~.#XQ.#X#X#XE.E.E.E.E.l. XXXF.{.{.O.t._ = ] 9.{ { W Q @.( +.].{.{.{.{.i..X:X=X@X#X#X9XjXCXjX2X2X9XtXCX9X=X@XL.c.@X9XtX7X=X&X:X7X7X7X7X2X7X9XjXvXjXDXjXCXxX9XvXxX9X8X8XkXkX8XjXxXjX2X8XzXnXVXvXDXxXcXGXvXvX=X2X3XrX#Xc.c.$XR.+X+Xp.a.M.4X<XGXGXGXs.. X #.M.>.2.MXhXhXkXzXnXnXnXnXkXkXvXhX<X4XkXMXMXkXkXkXkXvXMXMXvXkXhXhX<X6XhXkXkXjXkXkXkXkXkXjXjXkXhXlXhXhXhXlXkXkXkX6XkXlXlXkXkXkXlX6X<X6XhXkXkXkXhXhXhXhXhXlXkXhXhXlXhXhX6X<X<X~.M.<X~.M.h.,X~.M.m.7.6.= i.t.E i.r.y.q.7.f.j.h.j.x.j.f.f.p.8.7.8.8.8.8.7.8.7.p.p.<.p.,.M $.&.n z v x M.4X2X2X2X2X2X8XE.m.x.+Xm.W.#Xm.T.j.v.R.m.E.T.R.Q.1X1X1X>X#X#XQ.#X1X#XR.Q.2X>X>X2X2X5X5X5X5X5X5X2X2X2X2X2X5X2X2X,X>X>X2X5X5X5X5X2X,X>X>X>X>X2X>X,X2X2X,X2X5X5X5X9X2X2X2X9X8X8XxXcXvXcXtX@Xq.|.i.o.O.X.}.{.].",
"i.t.J.@Xl.[ J T O.G. XP.Y.G.G.Z.A.Z.Z.].oXZ.{.~ X.( R X.| 3 < g _ K h a 6.L.2XxXvXCXvXzXtXxXrX7XzXzXxXcXcXbXAXtXrX8X8XxXzX5X2X2X2X9XjXjXkX#X9X2XL.z.z.z.J..X@X=XtX8X2XE.l.q.6.4.S S B u u c u i y b *.*.B u u u A Z Z c z n v b z F B F u F u u u 4.f.2X8X>XjX5X#X*X=X1X1X1X>XQ.1X<X~.Q.!.!.Q.T.Q.Q.Q.Q.Q.Q.>X1X1X*X#X#X#X#X#XQ.W.c.@X:XoXoX}.+.{.i._ 6.[ { { ' X./ ( ].{.{.{.|.oX|.=XtX9XjXvX5XkXkXjX4X,X,X,X,X2X,X,X$XR.R.$XxX2X9X8X8X8X7X7X7X8X+X2XjX#X4X5X,X2XxXjX2X8X9X2X5X2X4X4X,X,X5X5X,X5X5XjXvXCXDXVXVXCXjXjX2X8X9X8X+X$X+X$XM.W.W.m.#XjXCX<X4XMXMX<.. :.#.2.s.~.lX<XkXnXnXnXnXnXnXkXkXjXhXhXhXhXkXhXhX6XhXhXkXjXhXhXhXMXMXkXhX4X5XjXkXkXkXkXkXkXkXkXkXhXhXjXkXkXjXjXkXkX6XkXkXlXkXkXkXlX6X<X<XhXhXkXkXMXkXlX~.<XlXlXhXlXhXlXlX<X>X>X~.~.~.<XM.n.a.M.n.p.0.y.p &Xi.W o.9.y.y.f.v.j.h.k.s.p.p.h.j.p.7.<.7.7.6.4.4.4.4.7.g.j.p.*.-.;.$.n n z n.M.W.#X*X2X2X5X#X#X>X>X#X>XM.m.W.T.m.R.m.W.R.R.Q.#X>X>X#X#X#X#X#X1X#XQ.W.#X+X#X2X2X2X5X5X5X2X2X2X2X2X5X5X5X5X4X,X>X,X2X5X5X5X5X4X2X,X,X,X,X2X,X,X2X2X,X4X8X5X8X8X9X2X2X2X9X8XxXvXzXnXxX2Xl.t.t.W G G dXqX&X",
"|.r.q.E.E.u.| Y % % O t P w.D.Z.].Z.Z.].}.].Z.^ ^ ^ T ~ Q g , - = 4.+X8XGXGXCXxXnXkXjXjXzXbXVXGXGXbXnX8XrXrX7X3XrXwXrXrXxXxX8X2X2X4X4X5XjX>X9X9X7X&Xz.r.{ r.z.L.L.*X=X=X2X8X8X2X+XM.f.=.Z Z c i c z z i i u c B B Z Z b v v #.#.. i u F u i u D V x.W.9X5X#XkXjX2X2X1X2X1X1X6X6X~.~.!.!.!.Q.Q.T.Q.Q.Q.Q.!.!.Q.Q.1X^.Q.Q.1X1X6X1X6X#XL.J.|.XXoXXX{.XXJ.9.j [ ` ' +.( ( ].{.(.i.{.XX&X=X2X4XhXhX6X<X<X<X4XhXkXhX4X>X,X2X4X2X5XjXvX4X5X5X4X2X2X8XjX8X#X2XxX2XjX5X5X5XvXkX8X8XjX8XjXjXjXhXhX5X5X5X5X4XhXkXvXvXjXvXvXCXkXkX4X9X,X$Xv.v.+X$X2X,X>X#XW.W.kXkX>XkXkX# -.#.#.>.2.~.FXMXnXNXnXnXnXMXMXkXhXhXkXnXkXhXhXhXkXMXMXkXkXhXhXkXkXhXlXlX5X4X4XhXkXkXkXkXkXkXkXkXkXkXkXkXkXjX4X<X<XjX6XlXkXhXkXhXkXlXlX<X<X<X<X6XhXkXhX<X~.<XhXhXhXlXlXhXhX>X~.6X<XlX<XhX6X~.N.~.M.h.p.4.= { ` o.t.t.l.l.x.x.M.m.n.a.s.2.p.a.p.7.8.1.4.6.5.] ] ] ] 4.7.A + X n n n n $.<X>X2X=Xl.q.m.j.T.#X>X!.W.!.m.M.>XR.M.W.m.R.Q.#X#X#X#XQ.Q.Q.#X#XQ.R.R.R.R.K.E.#X#X$X$X,X2X2X,X2X2X2X2X2X2X5X5X5X4X1X,X4X4X5X4X5X4X2X,X,X,X,X6X,X,X4X4X2X4X8XjXjXjX8X5X2X2X2X8XxXvXvXnXkX1XL.J.t.Y Y H qX7X7X",
"XX.X XL.z.z.t.W < f f j V P H 3 4 q ^ 0 4 C.^ ( ~ Q < g f f H j y.9XVXVXvXjXjXvXkXvXVXDXbXxXzXzXjXzXbXzXtXtX7XyX7XtXtX3X3XrXrX1X2X8XjXjXvX2X8X7X:X=X Xz.z..XL.l.+X=X7X=X2X8X9X#X,X2X2X#X+XM.m.s.s.B.&.c c c c c c Z &.&.$.#.#.v &.u i F S B u c 8.$XW.2X5X4XvX~.#X#X>X>X~.~.~.~.~.~.!.!.!.Q.Q.!.Q.~.!.!.!.Q.~.1X6XQ.Q.Q.~.~.~.Q.W.#X#X@X&XXX{.F.F.t.F..X{ _ d | X.@.+.}.}.i.o.z..X:X$Xm.>X<X>X6X6XhX4X<X6X4X4X6X4X4X4X4X5X8X8X5XkXjX4X4X5X5X4X>X2XjX>X>X5X5Xx.jXjXkXjX5X5X8XkXjXhX5X4XhX5X4X4X4X4X5XjXjXCXjXCXkXkXkXjX,X9X$X>X+X+X+Xv.+XM.v.W.f.>X,XW.hXW.~.<.$.M.#.s.M.<XkXhXkXNXnXnXnXnXnXkXkXnXkXhXhXhXkXkXhXkXkXkXkXhXjXhXhXkXkXjXjXkXkXjXhXhXhXkXkXkXkXkXkXhXhXlXhX4X<X<XlXkX6XhXhXlXlXhXkXlXlXhX<X<X<XhXlXlX<X~.<XhXhXhXhXlXlXhXhX~.<XlXhXhX<X~.hX~.<X~.N.n.k.7.S K [ |.t.z.J.l.j.j.m.M.!.M.a.2.<.<.7.8.0.L 4.5.5.[ ] _ L 4.f.<.M n n X X X n M.m.2X9X#X*X#Xj.W.#X#Xm.,X,X!.R.W.m.m.W.M.R.W.Q.#X#X#X#X#X#XR.W.R.m.T.#X#XR.W.E.#X#X+X#X#X>X2X2X2X2X5X5X5X8X5X5X5X4X4X4X4X4X4X4X4X2X6X1X1X4X,X,X,X4X4X2X2X5XjXjXjX8X8X5X5X5X5XzXbXFXvX4XQ.L.u._ G F.i.7X*X7X",
"oX:XoXXX{.XXXXXXQ ` ` K K V P ` T ~ ~ T ( ^ 1 T g G f [ P m N E.DXVXVXbXxXxXvXbXvXcXcXxXxXxXxXxXrXzXnXzX8X8X8XrX8X3X2X8XrX8X3X2X5X8XzXxXjX5X5X8X9X8X8X2X*X@XL.g.E.#X1X2X3X9X5X2X8X8X8X5X2X5X2X#Xm.h.8.=.&.&.&.:.:.%.%.:.:.#.#.:.&.. c Z *.i c 8.W.#X2X2X6X5X5X5X1X>X>X1X1X1X~.~.Q.Q.Q.!.!.!.!.!.Q.Q.!.!.!.!.~.~.~.Q.Q.~.~.~.~.1XQ.#X~.~.~.1X*X XI.F.D.i.o.k k { E Y O.|.i.i..Xz.z. X=X2X,X,X6X6X4X4X4X4X4X4X4X4X4X4X5X5X4X5X4XjXhXhXjXhX4X4X4X2X,X4X4X4X4X,X,X2X#X>X5X4X8X2X#X4X5XjX5X4X4X5X5X2X2X2X7X9X7X9X2X4X4XkX5XvXjX+X$X+XR.c.c.z.x.l.x.x.W.2X2X6X4X4X<.b N.&.N.M.kXlXnXkXhXhXhXhXjXvXvXkXkXkXjXjXjXkXkXvXjXkXMXMXvXkXkXkXkXkXlXlXjXkXkXjXkXkXkXkXkXkXkXjXkXhX<X6X4XhXhXhXhXlXkXkXlXlXlXlXlXhX<X<X<X~.~.~.~.~.~.<XlXhXhXhXhXlX<X6X6X6X4XhXhX6X4X<XhX<X~.n.h.j.,.4.i 9.u.J.J.L.K.j.j.T.n.k.m.p.<.1.7.p.8.,.L L ] ] ] _ ] 5.,.p.=.c x v @ X @ $.~.<X>XkX8XR.#XR.R.#XQ.R.W.#XQ.Q.Q.W.W.W.T.T.W.Q.Q.#X>X>X>X>XQ.Q.W.R.R.R.W.W.W.W.W.R.T.W.#X>X>X1X1X1X2X1X2X2X2X2X2X2X6X6X6X6X6X1X1X1X1X1X1X>X>X2X2X2X2X2X5X8XjXjXjX8X9X9X2X2X5XzX5XbXbX*X#X@XJ.[ r.{  .|.J.:X",
"dXdXdXdXXXXX{.oXoXqX|.H j [ 5.s J X.T W | T W E H [ K V A 1.m.bXjX5X5XjXbXVXBXcXtXxXxXxXtXrXrXtXrXzXzXzXrXrXzXxXrX5X3X5X8X8X8X8XxXjXjXzXzX8X8X8XzXzX8X5X3X3X2X1X5X5X5X5X8XzXjX8X2X2X2X>X1X2X2X2X,X>X+XM.M.N.N.N.2.;.:.:.:.:.:.%.M M z c c b . =.j.W.2X5X5X6X1XQ.1X>X>X1X1X1XQ.Q.Q.!.!.!.!.Q.Q.!.!.!.!.!.!.!.~.~.~.~.Q.!.!.Q.~.Q.R.Q.W.~.~.~.Q.K.J.{.{.O.o.r.z.z.t.| t.i.t.i.J.z.L.+X#X,X,X,X,X,X4X4X4X4X4X4X4X4X4X4X4X4X4X4X5X4X5X5X4X5X4X,X>X>X>X>X>X,X,X,X,X,X5X2X2X>X>X#XR.5XkXkXjX5X4X5X5X2X5X2X2X2X2X2X2X9X4XjXhXvX9X+X$X@Xz.c.z.z.z.c..X+XR.+X+X,X4X,X;.&.M.2.M.M.vXkXnXnXnXkX4X<X4XjXkXkXkXkXkXkXkXkXkXkXkXkXkXkXkXkXkXkXkXkXkXkXkXkXkXkXkXkXkXkXkXkXkXkXkXhXhXjXkXkXkXnXkXkXkXkXlXlXlXlXlXhX<X<X<X~.~.~.<X~.~.<X6XhXhXhXhX6X6X4XhXhXhXhX4X6XhX<XhX6X6X!.p.7.A ,.V f.l.c.z.z.f.f.j.!.!.h.m.f.d.7.7.8.,.L S L L L K K ] ] 5.7.A m b c z v v -.FXkX6XhXkXjX>XQ.R.Q.#X#XQ.Q.Q.Q.Q.Q.W.W.!.T.T.W.Q.#X#XQ.W.W.W.W.R.R.R.W.W.Q.W.W.W.T.T.T.W.Q.Q.Q.>X>X>X>X>X>X1X1X1X1X1X1X1X1X6X6X6X1X1X2X2X6X2X2X2X2X2X2X5X8X8X8X8X9X9X5X2X2X2XzX5XcXcX=X*X@XL.= p [ J.uXqX:X",
"qXqXqXsXdXqXoXqXoXoXoX{.O.......W D.| {.{.| D.` K [ K i A j.jXDXVXbXbXVXVXVXvXzX8XrXrXtXxXxXxXxXzXzXrXrXzXxXcXcXxXrX8X8X8X8XzXxXVXnX8XjXzXxXzX8X8X5X2X2X2X2X2X5X5X5X2X1X2X5X5X2X5X2X>X>X>X>X1X2X4X,X,X4XlXlXhX<XM.N.a.2.2.;.:.v v ;.c z c &.z 7.p.M.4X5X6X1XQ.Q.Q.>X1X1X1X1X~.Q.T.T.T.T.!.Q.Q.Q.!.!.!.!.!.!.Q.~.1X~.~.Q.Q.Q.Q.Q.R.R.!.!.~.~.!.K.u.t.t.' _ i.$Xz.r.t.t.i.i.y.y.l.@X@X#X#X,X,X,X,X4X4X4X4X4X4X4X4X4X4X,X4X4X4X5X4X4X4X4X4X2X,X>X>XW.W.W.#X>X,X,X>X5X,X,X#X#X#XW.4XkXkX8X4X2X4X5X4XhX5X4X2X2X2X4X5X4X6X4XjX+Xc.+X.X.Xz.z.z.z.z..X+XR.c.x.4XjX>X&.*.s.s.n.a.jXkXkXkXNXkX5X6X4XjXkXkXkXkXkXkXkXkXkXjXvXkXkXkXkXkXkXkXjXjXjXlXjXkXkXkXkXkXkXkXkXkXkXkXkXkXkXkXnXkXkXnXkXkXkXkXlXlXlXlXhX<X<X<X~.~.~.<X<X~.~.~.<X6XhXhXhX6X<X4XhXhXhXhX<X6XhXW.~.W.~.M.p.<.A A 7.q.q.q.f.q.5.1.d.m.m.h.j.j.j.f.7.,.L L S L L L K K K ] q.1.Z m M c v &.M &.DXhX5X5X2X6X1X#XQ.R.#X1X#XQ.Q.Q.Q.Q.Q.W.W.!.m.R.Q.>X#XW.R.R.R.T.T.T.R.W.Q.Q.W.W.W.T.T.T.T.W.W.W.Q.Q.W.W.Q.Q.>X>X>X>X#X#XQ.Q.6X6X6X2X1X2X6X5X2X5X5X5X2X2X5X8X8X8X8X9X5X5X5X5X2XzX8XzXxX2X#XL.L.O V J.@XtXuX:X",
"qXqX:XsXsXsXoXXXoXoXoXqX{.G , W ..A.O.G.D.| t.` _ K K y 7.Q.zXjXjXxXbXxX8X5X8XzX8X8X8XtXxXvXcXcXxXxXrXzXxXcXbXbXcXxXxXzXrXzXxXbXbXnX8XjXxXxXxXzXxX8X3X9X9X2X2X8X8X8X5X2X2X5X5X2X2X1X1X2X1X#X>X2X,X>X#X>X4XjXkXlXhXhX<X~.~.W.n.<.v b Z . i z c ;.h.!.4X6X1X1X1X1XQ.>X1X1X1XQ.Q.!.T.T.T.T.!.Q.Q.!.!.!.Q.!.!.Q.Q.~.1X1X~.Q.~.Q.Q.Q.R.R.!.~.~.~.!.l.u.r.o.' k z.=Xc.6.r.i.i.u.y.l.@X2X=X,X>X,X,X,X>X,X,X,X4X4X4X4X4X4X4X,X,X4X5X4X4X,X4X4X4X4X4X,X,XW.W.!.W.>X,X,X>X>X#X,X#X>X>XR.2X5X5X4X2X2X2X5X6XhXhXhXhX5X5X4X2X5X,X8XjX+Xc. XJ..Xz.z.z.z.z..X.Xy.f.v.,XjX<X*.:.-.;.s.<.4XvXjXkXnXzXkXjXnXjXjXjXkXkXkXkXkXkXjXjXvXkXkXkXkXkXkXkXjXhXhXlXlXkXkXkXkXkXkXkXkXkXkXkXMXkXkXkXkXkXkXkXkXkXkXlXlXlXlXlX<X<X~.<X~.~.~.<X~.~.~.~.~.<X6X6X4X6X4XlXhXhX4XhX4XlXhXW.<X~.~.M.p.<.<.=.f.4.,.4.q.0.7.1.7.k.h.k.p.q.f.q.4.,.L L L L L L K K K ] 5.5.V m m m m *.M *.5XvXbXjX1X1X2X2X#XQ.Q.1X>XW.Q.Q.#X#XQ.Q.W.W.R.W.Q.#X>X#XW.T.R.R.R.R.W.W.Q.Q.Q.Q.Q.W.W.W.W.W.W.W.W.W.W.W.Q.Q.>X>X#X#XQ.Q.W.W.>X1X5X5X2X2X6X5X5X5X5X5X2X2X5X5X5X5X8X8X8X9X5X5X2XzXzXrXrX2XL.y.q.a 6. X@X&X:X7X",
"-XwX:XaXaXsXqXoXqXdXqXoXoXoX}.O.D.O.O...` ` .. ._ K 5.5.T.Q.5X1X5X8X8X2X#X#X1X5X3X5X8XrXxXBXBXcXbXcXxXxXxXbXbXbXcXbXbXxXxXzXxXxXxXnXzXzXzXzXzXjXxX8X8XxXzX5X2X2X5X5X5X5X5X5X5X2X1X>X>X1X1X1X2X8X5X2X>X,X4XhXjXhXhXkXvXkXkXxXjX,Xh.M *.x z n &.&.a.W.4X4X1X1X1X6X1X>X>X>XQ.W.T.T.T.T.T.T.!.!.!.!.Q.Q.Q.Q.Q.Q.Q.~.~.Q.Q.Q.Q.Q.!.!.T.T.m.!.~.!.m.f.y.{ { _ C y.$Xc.L.z.y.y.y.z.@X8X2X2X,X,X,X,X6X6X4X4X4X4X4X4X4X4X5X4X,X4X4X5X5X4X4X4X4X4X4X4X4X4X>XW.!.W.>X,X,X>X,X>X2X#X>X#Xm.+X>X>X,X2X2X2X2X4XhXlXhXhXhX4X2X,X,X>X5X2XL.z.i.i.z.z.z..X X@X@X$Xq.b.f.+X2X,X;.-.&.-.;.-.6XCXkXkXjXzXnXnXvXxXjXjXkXkXkXkXjXjXhXhXhXjXkXnXkXkXkXkXkXkXhXhXkXkXkXkXkXkXkXkXkXkXkXkXMXkXhXhXkXkXkXkXkXkXlXlXlXlXlXlX<X~.~.~.~.~.~.<X~.~.~.~.<X<X6XhXhX5X5XjXhX4X4X4X6X6X6XW.<X~.~.M.<.<.p.,.f.,.,.7.7.q.d.d.7.p.k.h.7.7.7.8.4.4.,.L L L L L K K ] ] [ 5.K a a B m m z =.h.DXvX#X*X2X2X2X2X#XQ.#X#XQ.Q.Q.#X#X~.Q.Q.W.#XW.R.Q.>X>XQ.R.W.W.W.W.W.W.W.Q.Q.Q.Q.Q.Q.Q.Q.W.W.Q.Q.Q.W.W.Q.>X#X>X>X>X#XQ.W.W.Q.>X5X5X6X1X2X6X2X2X2X2X2X2X2X2X2X5X8XjXjX8X5X2X2XrXxXrX8X$Xf.8.4.S ,.l.7XtX-XwX",
"%X7X:XwX&XaXaXdXqXsXdX}.{.OX{.' ..[ ..` ..t. .r.K K l.E.E.T.1X6XxX8X1X#X#X>X#X#X2X3X8XtXcXVXVXBXBXbXcXxXxXcXcXcXxXbXbXcXxXxXrX8XnXxXxXnXjXjXjX8X8X8XrXxXxX8X3X2X2X5X5X5X5X8X5X2X5X5X2X#X#X1X5X8X2X2X4X4XjXkXjX5XjXkXxXkXjXjXxXxX4X;.&.<.x ;.=.&.<.m.6X5X6X6X1X1X1X>X>XQ.W.T.T.T.T.T.T.T.T.!.!.!.Q.Q.Q.Q.Q.Q.Q.Q.Q.Q.Q.Q.Q.Q.Q.Q.T.T.m.!.!.m.h.p.6.L ] ] L f.+XW.7X+Xc.L.@X=X2X2X,X,X,X,X4X4X4X5X4X4X4X4X5X5X5X5X5X4X4X4X4X4X4X5X4X4X4X4X,X,X,X,X>X#XW.W.>X>X>X>X4X2X4X#X>X,X#X5X2X,X2X5X2X2X2X2XhXhX<X<X<X1X,X>X+X#X2X#X+Xz.r.r.i.z.z..X.X.X.X X.X+XM.W.#X#X*.&.&.:.;.=.#XvXjX8XzX8X8XzXzXzXzXnX5XjXjXjXhX5X4X4X~.4XkXkXkXkXkXvXvXkXhXhXkXkXkXkXkXkXkXkXkXkXkXlXhX6X6XhXkXkXkXkXkXlXlXlXlXlXlXhX<X~.~.<X~.~.~.<X~.<X<X<X6X6XhXhX5X5X5XhXhX6X<X4XhX6XhX~.<XW.M.n.p.s.h.<.8.A 4.6.4.0.f.d.7.7.p.f.f.0.8.4.4.5.4.L ] ] ] ] ] ] ] [ _  ._ a a V m y z =.x 8X8X#X*X@X*X1X1X#X#X#X#X#XQ.Q.Q.Q.Q.Q.Q.Q.>XW.T.T.Q.>XQ.R.Q.Q.Q.Q.Q.Q.Q.W.W.W.W.W.Q.Q.Q.W.Q.Q.Q.W.W.Q.Q.~.#X#X>X>X>X#XQ.W.Q.>X2X5X5X6X2X6X2X2X2X2X2X2X2X2X2X5X8X8XjX8X5X2X1X5XxX8X9X#Xp.0.8.q.7.z.tXtX-XwX",
"3XrXwXwX X&X&XqXqXdXsXsXdXdXdXdXt.e.K K e.9.[ K C C q.#XR.T.Q.1XW.T.m.T.Q.>X1X#X2X2X2X8XvXBXBXBXBXbXbXbXbXxXxXbXxXbXbXbXbXbXzX5XzXxXnXjX8XzXxXxXbXVXVXVXVXVXbXxXxXxXxXxXxXvXxXzX8XxXxX5X1X5X5X2X2X2X8XjXxXxXnXjXzX8X8X9X3X2X2X9X>Xp.;.<.z &.b M =.h.<X5X5X6X1X1XQ.>X~.Q.T.T.T.T.T.T.T.T.T.!.!.Q.!.Q.Q.Q.!.!.!.!.Q.Q.Q.~.~.Q.Q.Q.Q.T.m.!.!.n.p.<.4.4.4.] 8.x.,X4X,XR.$X9X2X9X9X#X>X,X4X4X4X4X4X4X4X4X4X4X4X4X5X5X4X5X5X4X4X4X5X5X5X4X4X4X,X,X,X,X>X>X>X#X#X>X>X>X2X2X2X>X2X8X2XxX5X2X2X5X2X2X,X2XhXhX<X,X2X2X#X#X$X2X8X2X9X=Xy..Xz.z.z.z.z.z.z.z.$X=X$X,X>XW.&.b &.&.;.8.m.8X5X5XzXrXrXrXrX5XzXzX4X5XjXkXkXjX4X<X>X6XjXkXkXkXkXvXkXkXlXlXlXkXkXkXkXkXkXkXkXkXkXkX4X6XhXhXjXhXkXkXkXkXkXkXkXlXlX<X<X<X<X<X~.~.W.<X~.<X6X4X4X4XhXhX5X5X5X4X5X4X4XhXkXhXkXhXlX~.M.n.h.s.s.=.,.,.8.1.7.7.k.f.7.1.7.d.f.6.7.7.7.6.4.L 5.5.] ] ] [ [ [ ` [ K h h B u c Z 7.y x.#X>X3XQ.#XQ.Q.#X1X>X#X#XQ.Q.Q.Q.Q.Q.Q.Q.Q.W.T.R.W.Q.Q.Q.Q.Q.Q.Q.Q.Q.Q.Q.Q.W.!.W.W.Q.Q.W.Q.Q.Q.W.W.Q.Q.>XQ.Q.>X1X1X>XQ.Q.Q.>X1X1X6X6X6X2X2X2X2X1X2X2X2X1X2X5X5X8X8X5X5X2X2X2XzX8X5XW.p.v.j.v.x.2XtX7X3XrX",
"=X=X*XwX-X:X-XwXuXuXuXaXdXdXdXaXiXuXP j 5.K ] V L S 7.#XR.#XQ.W.Q.Q.Q.Q.R.T.T.T.Q.Q.#X2X8XxXxXrXbXbXVXbXbXxXxXbXbXbXbXbXbXVXxX8XjXzX8X5X8XbXVXVXbXVXBXvXcXVXCXxXxXxXxXzXzXxXxXzX5XbXVXxX8XxXzX2X8XrXxXxXxXxXjXjXjX9X8XtX8X=X=X2X2X>X<X<.&.z c =.=.h.~.4X6X6X6X1X~.~.Q.Q.T.T.T.!.T.T.T.T.T.!.Q.Q.!.!.Q.!.!.!.!.!.!.!.!.!.!.!.!.!.Q.T.m.m.m.h.<.=.A 4.L B ,.j.>X6XW.x.,X4X#X>XjX5X>X2X4X4X6X<X<X6X,X,X,X,X4X4X4X4X4X4X5X4X4X4X4X4X4X4X4X4X4X4X4X4X,X,X>X>X>X>X,X,X>X>X2X#X,X5X>X5X5X2X2X2X2X,X2X2X5X5X5X7X7X=X@XR.c.$X2X$X8X=X6.z.z.i.i.i.z.J..X.Xz.$X$X8XjX,X*.&.&.Z B.s.j.2X8XrXzXrXrXtXrX5X5XzX4XhXkXbXvXkXhX4X4XhXkXkXvXvXkXkXkXkXkXkXjXjXkXMXkXkXkXkXkXkXkXkXhXkXMXMXkXhXhXkXkXkXkXkXkXlXhX<X<X<X<X<X~.~.W.~.~.<X6XhXhX4XhXhXjXjXjXkXkXjXjXkX~.W.6X6XhXM.M.M.a.<.;.*.*.a.x.8.f.f.f.f.7.1.7.7.8.5.6.q.5.5.5.] 6.5.] ] ] [ [ [ [ ` k j V a u B x =.M Z <.j.#X#X#XT.R.#X2X1X>X>XQ.Q.Q.W.W.Q.Q.>XR.W.W.W.W.W.Q.#XQ.Q.Q.#X#X#X#X#XQ.Q.W.W.W.Q.Q.W.Q.Q.Q.Q.W.Q.Q.>XQ.Q.>X1X1X>X#XQ.#XQ.Q.#X1X1X1X1X2X2X2X1X2X2X2X2X5X5X5X5X5X5X5X5X5X2XxX8X2XR.p.m.k.,.d.5XxX8XtXtX",
"=X-X-X-X-X*X%X%XwXJXSXJXyXaXsXsXuXSXSXSX%Xs j B A V g.2X#XQ.1XT.W.Q.#XW.W.W.R.T.Q.Q.E.Q.1X8XzXzX8XxXVXVXbXbXbXbXbXbXbXxXxXbXbXbXxXzXnXvXVXbXbXbXDXVXbXcXcXvXvXxXxXxXxXxXxXzXjX8X5X8XzXzXxXvXbXxXzXvXbXvXxXxXjX5X8X5X8XtX7X@X@X#X4XhXhX>Xs.M b &.&.<.>X4X~.>X~.6X1X>X~.Q.W.T.T.T.T.T.T.T.T.T.!.!.!.!.T.T.Q.Q.Q.T.!.T.T.T.!.!.T.T.T.j.m.W.m.2.=.=.*.,.=.&.*.h.6X>XW.!.#X,X4X,X,X4X6X6X6X6X6X6X4X4X2X,X4X4X4X4X5X5X4X4X4X4X4X4X5X5X5X5X4X4X4X,X,X,X>X>X,X,X,X2X2X2X2X4X5X5X2X2X2X5X#X9X2X2X#X9X+Xc.=X:X&X.Xz.z.z.z.+XR.E.$X2X+Xv.6.y.z.z.i.i.z.z.J.z.@X+X9X4X>X;.b $.b B.a.v.xXxXxXxXtX3X3XrXrX5X5X5XhXjXkXkXjX4X6XjXjXkXkXvXnXkXkXkXvXvXkXjXlXlXhXjXkXkXvXkXkXkXkXnXkXkXkXMXMXMXkXkXkXkXkXkXlXhX<X<X<X<X<X~.~.~.~.>X<X6X4XhXhX4X4X5XjXkXkXjXhXkXvXhXkXhXW.M.M.M.M.a.*.-.;.=.<.p.m.p.8.,.,.1.8.7.f.7.6.6.q.q.q.9.9.6.5.[ ] ] [ [ { [ K y.p a S A =.*.=.=.p.p.x.W.8X#XQ.Q.#X1X2X>XQ.W.W.W.Q.Q.Q.Q.Q.>XW.j.R.Q.T.Q.W.Q.Q.Q.Q.Q.#X#X#X>XQ.!.T.!.W.W.W.Q.Q.W.Q.Q.Q.Q.Q.Q.Q.>X>X>XQ.Q.Q.>X>X>X>X>X>X1X1X>X>X1X1X1X1X1X2X6X5X5X5X6X2X6X5X2XrX8X2X>Xm.p.k.1.x R.bXxX3XbX*X",
";X;X=X-X-X*X%XE.3XGXSXSXbXZXZXZXrXmXcXbX*XV s V 4.,.K.2XQ.R.>XW.W.Q.Q.W.W.Q.W.R.#XQ.R.T.Q.2X2X2X2X8XnXcXbXVXbXxXbXbXbXbXbXAXVXbXVXbXvXbXbXbXVXVXbXbXbXCXVXBXcXxXvXvXvXxXxXxXzXzX8X8XzX8XzXxXbXbXxXxXxXzXxXvXxXzX8X5X8X8X3X*X*X7X5X5X4XW.p.b b :.=.;.M.<X6XhX1XQ.Q.Q.Q.Q.W.T.T.T.T.T.T.T.T.T.!.!.Q.!.T.j.j.T.T.j.T.T.T.T.!.!.T.T.T.j.j.j.h.<.,.<.=.4.=.=.=.h.<X>XW.W.W.,X4X6X6X4X6X6X6X6X,X6X4X4X,X,X4X4X4X4X4X4X4X4X4X4X5X5X5X5X4X4X4X4X4X4X4X4X4X4X4X4X4X,X,X,X4X4X4X4X2X2X5X9X9X2X#X9X#X=XT.c.|.|.F.t.r.t.t.y.L.R.#X2X2X$X+Xc.y.y.z.i.z..Xz.i.z. X+X,X5XW.*.b :.$.;.j.j.4X8XxXcXtXtXtX3X*X3XzXjXjXkXjXjXjXhXhXjXjXkXkXkXkXkXhXjXkXkXkXlX6X6X<XlXlXkXkXkXkXkXkXnXnXkXkXvXMXMXMXkXkXkXkXlXlX<X<X<X<X<X~.~.~.~.~.<X<X6X4XhXhX4X4X4X5XjXkXkXkXkXvXhXjXjX4X~.M.m.n.s.;.;.*.=.7.8.p.f.8.4.4.4.4.4.7.6.6.6.9.q.q.6.6.] ] [ [ [ [ [ { [ K y.a a A m Z M =.=.<.<.x.T.R.Q.E.R.Q.#X1X1X#X>X#XQ.W.W.W.Q.Q.h.j.h.W.>XW.#XQ.Q.Q.#X#X>X>X>X>X>XQ.W.W.W.W.W.W.Q.Q.Q.Q.Q.Q.Q.Q.Q.Q.>X>X>X>X>X>X>X>X>X~.>X>X#X>X>X>X>X1X1X2X6X6X5X5X5X5X6X6X2X2X2X8XjX5X>Xx.p.p.k.=.6XxXrX7XrX3X",
";X&X&X-X-X*X%XE.1XLXAXAXAXSXbXbXAXZXZXZXtXl.V f.0.7.R.2XQ.T.Q.Q.W.W.W.W.W.Q.W.T.Q.W.R.T.R.E.R.x.R.Q.#X6XzXbXAXVXbXbXbXbXbXbXbXxXVXbXbXVXbXxXvXVXxXxXxXxXCXVXbXxXbXbXbXbXvXxXxXxXxXxXzXjX8XzXxXxXbXbXbXbXVXVXvX8X5X8XxXcX8X@X@X#XR.M.M.h.<.M M =.,.*.k.M.Q.6X>XW.W.W.W.T.T.T.T.T.T.T.T.T.T.T.T.T.!.!.T.m.j.j.m.j.T.T.T.T.Q.Q.T.T.T.T.T.h.p.<.<.=.=.=.Z M $.2.W.~.W.W.W.>X,X4X,X,X4X4X6X6X6X6X4X4X,X,X,X4X4X4X4X4X4X4X4X4X4X5X5X5X4X4X4X4X4X4X,X,X4X4X4X4X4X4X,X,X5X4X2X2X2X5X5X5X8X2X$X9X2X=XE.@X|.{.i.i.t.i.{.J.L.R.#X,X,X>XW.W.c.z.z.z.z..XJ.i..X XL.+X8Xm.*.$.;.&.-.m.h.m.2X8X3X*X3XcX3X*X3XzXjXkXjXjXjXjXjXjXkXkXkXkXkXkXjXhXlXkXkXkXhX<X4XlXhXlXkXkXkXkXkXkXnXnXkXkXkXvXMXMXMXkXlXlXlXlXlX~.>X~.~.M.M.W.~.>X<X<X<X4X4X4X6X6X4X4X4XhXhXhX4X6XjXhXvXjXW.m.m.a.2.p.<.M <.k.<.8.f.f.f.f.q.7.7.6.6.6.9.q.q.9.6.5.L ] [ [ { { { [  .[ y.j B V c m x =.=.,.<.#X#XQ.#XQ.R.W.#X>X1X1XW.R.T.m.T.W.>X1Xj.m.m.>X1XW.Q.Q.Q.Q.#X#X#X#X>X#X>XQ.Q.Q.Q.Q.Q.Q.Q.Q.Q.Q.Q.Q.Q.W.Q.Q.Q.1X1X1X1X1X^.Q.^.^.Q.Q.Q.Q.Q.#X>X>X1X6X5X5X5X2X1X6X6X5X5X2X8X8X8X>Xm.a.a.p.<.p.vX8X3XtX-XwX",
"&X&X-X-X-X*X%XE.E.LXGXAXAXSXtXcXZXcXmXbXcXE.m l.7.7.T.#XQ.W.Q.Q.Q.Q.W.W.W.W.R.T.W.Q.Q.#X#X#XE.x.T.T.T.T.#X8XbXbXDXDXVXbXxXxXxXxXvXbXVXDXbXxXxXxXvXzX8X8XxXbXbXbXbXbXbXbXvXxXxXxXxXxXxXzXzXxXbXvXbXbXVXVXDXVXvXnXxXxXxXxX2XL.l.g.k.k.h.p.=.Z Z =.=.*.p.k.k.T.W.Q.T.T.T.T.T.T.T.T.T.T.T.T.T.T.T.T.T.T.T.T.T.T.T.T.T.T.T.T.Q.Q.T.j.j.T.T.j.p.<.=.Z Z Z n n z $.m.~.#X!.R.#X,X4X4X,X4X4X4X6X6X6X6X4X,X,X2X,X4X4X4X4X4X4X4X4X4X4X5X5X4X4X4X4X4X,X>X#X,X,X,X,X4X4X4X4X5X4X2X2X4X2X2X>X2X#X#X2X2X=X#X*XF.D.{.i.i.i.F.J..X+X#X>X<X>X#X+X+X+Xz.y.y.z.z.z..X X@X+XjXh.&.*.:.%.&.n.m.x.9X3X3XK.@X7X2X3XzX5XkXkXkXjXjXkXkXkXkXkXkXkXkXkXkXkXkXkXvXkXkXjXjXkXjXkXkXkXkXkXkXkXkXkXkXkXvXMXMXkXMXkXkXkXlXlX<X~.<X>X~.M.M.W.~.>X6X6X4X4X4X4X6X6XhX4X4X<X<X<X<X>XkX4XjX5Xm.h.M.h.<.8.;.Z p.f.,.f.f.f.y.y.q.q.9.q.9.9.q.y.y.q.6.5.] [ [ 6.9.9.6.{ 9.9.u.L V A m m c *.A =.7.2X8X3X2X1X#X#X#X#X>X>XR.T.T.T.!.Q.1X6X1X1XQ.1X>XW.Q.Q.Q.Q.Q.Q.Q.Q.Q.Q.Q.Q.Q.Q.>XQ.Q.Q.Q.Q.Q.Q.>XQ.Q.Q.Q.Q.Q.1X1X1X1X1X^.Q.Q.Q.~.^.Q.Q.Q.Q.Q.>X1X1X6X5X6X2X1X1X6X2X6X1X2X>X2X>Xh.p.h.p.c x.bX5X3XyXpXwX",
";X;X&X;X*X*X%XE.K.GXSXAXAXZXrXyXmXyXcXcXrX@Xy v.0.f.x.Q.Q.Q.Q.W.W.W.T.T.W.W.R.T.x.m.m.T.W.Q.R.m.R.Q.Q.T.W.#X6X6XnXbXAXGXDXbXbXbXvXbXbXbXbXxXxXbXbXxX8X8XxXcXbXbXbXbXbXvXvXvXvXvXzXxXvXbXVXDXDXDXVXVXVXVXbXbXbXDXbXjX>XR.v.f.q.q.k.f.h.p.8.A Z A =.=.p.7.<.k.j.W.W.W.W.!.T.T.T.T.T.T.T.T.T.T.T.T.j.j.T.T.T.T.T.T.T.m.j.T.Q.!.T.j.m.!.T.h.8.=.S B b b n n z $.M.<XW.W.R.W.>X2X2X,X4X4X4X,X,X,X,X4X,X2X2X,X4X4X4X4X4X4X4X4X4X4X4X4X4X4X4X4X4X,X>X>X>X>X,X,X4X4X4X4X6X4X2X4X4X2X#X+XE.#X2X#X$X#X=X@Xu.i.F.F.i.i.z.|.+X+X#X>X<X6X<X>X+X$X+Xz.y.y.z..X.X X=X$X4X7.M *.#.#.%.n.!.Q.xX3XtX*X*X*XE.3XbXnXjXkXkXkXkXkXkXkXkXkXkXnXvXvXMXMXkXkXkXkXkXkXkXjXlXlXlXjXkXkXkXkXnXkXkXkXMXMXnXkXkXkXMXnXlXhX<X<X<X<X~.M.W.W.>X<X4X4X4X4X<X6X6X<X4X4X4X4XhXhXjXkXjX>X,X,Xh.h.M.m.;.-.&.Z p.8.=.x.f.q.y.y.q.6.6.y.q.q.y.y.y.9.9.6.6.6.9.9.9.9.9.6.9.9.r.[ C S B B S =.Z 4.0.@X@X#X2X2X2X1X1X#X#X#X>X>X>X#X>X>X1X1X2X1XW.#X>X#X1XQ.Q.Q.Q.Q.Q.Q.Q.Q.Q.~.>X>X>XQ.Q.Q.Q.Q.Q.~.>X>XQ.Q.Q.Q.Q.1X1XQ.Q.Q.Q.Q.Q.Q.Q.Q.Q.Q.>XQ.Q.Q.Q.>X1X1X6X5X6X1X>XQ.Q.#XQ.W.,X,Xn.p.p.*.x 2X8X3XwXwXwXpX",
";X;X;X;X;X;X%X%XP.SXZXSXZXZXuXsXZXZXZXAXwX@Xa q.f.v.m.W.>X#XW.T.T.T.T.T.R.T.R.W.1X1X#XQ.Q.Q.#X#XT.Q.1X1X#XQ.Q.Q.Q.6XnXDXAXbXbXDXbXvXxXnXzXzXxXbXxXxXxXcXbXbXcXxXbXbXbXvXvXbXbXbXVXDXDXDXDXDXDXVXVXVXDXGXDXnXhX5X>XT.j.k.k.k.p.7.7.p.k.p.7.,.Z Z ,.A 8.7.7.j.j.j.W.W.W.!.T.T.T.T.T.T.T.T.T.T.T.T.T.T.T.T.T.T.T.T.T.T.T.T.Q.!.T.T.T.T.j.1.A Z A b c b n n v -.W.>XT.T.T.W.#X2X2X,X4X4X4X4X,X,X,X4X,X4X4X4X4X4X4X4X4X4X4X4X4X4X4X4X,X4X4X4X5X4X4X,X,X,X2X4X4X4X4X4X4X4X4X4X2X>X#X+X#X2X9X#X=X#X@XL.u.u.z.F.{.F.|.&X2X,X>X~.>X<X~.M.M.W.+Xc.l.l.z.z.z..X@X+Xm.=.M $.$.#.-.h.!.W.5X#X*X3XrX8X*X5XbXkXkXkXkXkXkXkXkXkXvXvXnXkXkXkXkXkXkXkXlXkXvXMXkXjXhXhXhXjXkXkXvXvXnXnXkXvXMXMXnXkXkXkXMXnXlXlX<X<X<X<X>XM.W.~.<X6X4X4X4X4X6X6X6X6X6X4XhXhXhXkXvXMX4XW.#X>Xm.v.M.M.7.*.&.*.8.8.,.c.c.l.l.u.y.9.r.y.y.y.9.9.9.9.9.9.9.9.9.9.9.9.9.9. .9.{ 6.C C B S 4.L S y.z. XJ.L.@X#X1X2X1X#X#X#X>X>X1X1X1X1X1X1X1X1XW.>X2X1X2XQ.>X>X>X>X>X>X#X#XQ.>X>X>XQ.Q.Q.Q.>X~.Q.Q.~.>X~.Q.~.1X1X1XQ.^.Q.Q.Q.Q.Q.Q.Q.Q.Q.Q.>X>XQ.Q.Q.Q.>X>X>X1X1X1X~.Q.~.>X1X#X!.x.p.<.<.*.<.vX5X3X3X-XuX0X",
"-X-X;X;X*X*X*X;X-XZXyXSXsXsXdXsXyXyXyXZX*XE.a A f.x.T.W.Q.Q.W.W.T.T.T.T.T.m.m.W.m.R.T.j.f.f.j.x.T.Q.1X1X1X1X>XQ.T.T.>X5XvXvXbXbXbXvXxXvXxXxXxXxXzXxXbXbXbXvXxXxXbXbXbXbXbXbXVXVXDXGXDXVXbXVXbXxXCXxXjXjXjX<XM.n.a.a.h.h.h.j.a.8.8.7.7.8.8.4.=.A =.Z 8.7.7.f.g.x.W.W.!.!.T.T.T.T.T.T.T.T.T.T.!.!.Q.T.T.T.T.T.T.T.T.T.T.T.T.T.T.j.j.k.1.=.A A B B z b n v &.s.#XM.x.c.T.R.#X,X2X,X5X4X2X2X2X,X2X,X4X4X4X4X4X4X4X4X4X4X4X4X4X4X5X5X4X4X4X4X4X4X4X4X4X4X4X4X4X4X4X4X6X4X5X4X2X>X#X>X2X$X=X@X=X@X@XL.l.q.q.u.z.J. X@X2X4X<X~.W.~.W.M.M.#X#XR.c.z.z.z.z.z.c.c.<.*.M $.-.@ 2.k.!.T.*X*X*X3XxXcXzXzXnXjXkXkXkXkXkXkXkXkXkXkXkXkXkXkXvXvXMXkXkXkXMXMXkXkXjXlXlXjXkXvXMXMXnXnXnXkXkXkXkXkXkXkXkXlXhXlX<X<X<X<X>X~.~.~.<X6X4X4X<X4X<X<X4X6XhXhXhXhXhXjXjXjX4XW.!.W.R.v.x.W.7.&.*.=.8.v.f.l.R.c.l.l.i.y.y.i.u.y.9.9.9.9.9.9.9.9.9.9.r.9.9.9.r.O.`  .C C j L S L L z.J. X|. XR.#X1X1X>X#X#X1XQ.#X>X>X1X1X1X6X2X6X>X1X2X1X2X#X>X>X>X>X>X>X>X>X>X>X>X>XQ.Q.Q.~.>X>XQ.Q.Q.~.~.~.Q.Q.1X1XQ.^.Q.Q.Q.Q.Q.Q.Q.Q.Q.Q.>X>X~.>X~.>X>X>XW.Q.Q.>X>X>XQ.Q.1XW.a.=.*.*.$.=.m.CX3X7X-XpXpX0X",
"pX-X-X;X-X-X-X-XmXSXuXSXsXsXaXiXsXZXtXSX*XE.N m f.T.R.R.Q.W.W.Q.W.R.W.R.m.h.j.T.j.R.#X#XQ.Q.#X1X>X>XQ.Q.>X1X>XQ.1XW.T.Q.5XzXvXbXDXVXDXGXHXAXvXzXzXxXxXxXzXzXxXbXVXVXbXCXbXCXVXVXBXVXbXvXvXbXVXbXxX>Xj.p.h.h.h.a.h.h.h.h.h.h.h.k.p.f.f.p.8.4.,.A Z B 8.8.,.k.n.W.T.T.T.T.T.T.T.T.T.T.T.T.!.!.!.!.T.T.T.!.Q.E.T.T.T.T.T.m.j.d.d.d.2.<.,.S S D h F i u u Z <.m.>Xj.v.c.R.R.+X,X2X2X2X2X2X2X2X,X2X2X4X4X4X4X4X4X4X4X5X5X5X5X5X5X4X4X4X4X4X4X4X4X,X,X,X2X4X4X4X4X4X4X5X5X5X2X>X>X2X2X#Xx.c.c.=X X@X X@Xc.l.c.@X=X2X9X#X,X4X<X>X<X<X6X,X$X$XR.c.c.L..Xz.y.y.c.Z *.*.$.>.X 2.n.~.Q.3XbXAXbXzXxXbXxXjXvXkXkXkXkXkXkXkXkXkXkXkXkXvXvXMXMXvXkXkXkXkXkXkXlXkXlXhXlXkXkXkXkXkXkXnXkXhXhXhXkXkXlXlXhX<X<X<X<X<X<X~.~.~.~.<X6X4X4X<X<X<X<X6X4XhX6X6XhXkXkXjX4X4X>Xm.x.x.v.v.E.=.b &.*.4.c.x.q.c.y.y.y.l.y.u.y.u.9.6.[ 6.9.9.r.9.9.9.r.r.r.9.9.r.t.` 9.C C k ] C K _ i.z.XX.X XL.@X*X1X#X#X>X1X1X1X1X,X,X,X,X6X1X6X>X>X>X#X2X1X>X>X>X>X>X>X#X>X>X<X1X>XQ.Q.Q.>X<X>XQ.W.~.>X>X>XQ.Q.>X1X1X>XQ.Q.Q.Q.>X1X1X1X1X>X>X>X>X>X>X>X>X>X>X>X>X>X~.Q.T.m.m.m.<.*.-.%.v c T.8X8XrXwXyX-XwX",
"tXrX7XrXyXZXZXiXiXiXZXSXiXyXsXSXbXHXmXzX3X1X+ ,.2.j.2.W.T.T.Q.W.W.T.m.T.T.x.j.x.T.x.m.Q.1X1X#X#X>X>XQ.Q.Q.Q.Q.Q.#XR.K.Q.zXbXzXzXvXnX8X5X8XCXAXAXVXCXcXcXbXbXMXDXbXbXbXCXBXBXxXxXxXvXbXvXhX~.n.p.s.p.7.s.h.n.n.h.a.h.h.h.h.a.a.a.p.7.7.7.,.L L S S A A <.p.h.n.n.T.m.x.m.W.W.!.T.!.!.!.!.!.!.!.!.!.!.!.T.T.E.E.T.m.j.k.2.2.a.2.2.7.=.L 6.{ g > 1 2 * t ] 4.x.m.j.m.v.v.c.$X2X9X9X9X2X$X,X4X5X4X,X4X4X5X4X,X5XjX5X5X5X5X5X5X5X5X5X4XhXjX5X5X5X,X#X>X5X2X5X>X5X4X5X8X,X2X2XR.v.R.>X#Xl.y.z.L.L.J.J.y.@X+Xc.2X5X>X8XkXjXjXjX4X4X4X2X=X.Xz.z.L.L.L..Xu.z.J.l.8.Z v v #.n >.M.W.6XQ.3X5X3X3X5XnXnXkXhXkXkXkXkXjXkXkXvXkXjXkXMXvXkXkXbXkXjXkXkXkXlXlXkXlXkXlXlXlXnXnXkXkXkXkXkXkXMXMXMXjXhX4X6X6X6X<X~.<X<X<X~.~.~.<XhX6X6X<X6X6XhX6X6XhX4X4XhXkXhX4X4X5X>Xm.f.f.f.f.f.,.Z S 4.,.8.v.y.y.z.c.y.q.y.z.z.u.y.9.9.q.u.u.q.9.9.9.t.r. .9.r.u.y.9.6.] ] ] { _ k k { |.oX:X&XJ.P.E.E.Q.6X5XQ.1X>X>X>X4X4X6X<X<X1X<X<X1X6X1X>X1XQ.Q.#X1X1X1X1X1X1X1XQ.#X>X>XW.,X>X>X,X>X>X~.~.W.1X2X#XQ.#X#XQ.W.Q.>X1X>X>X>X>XW.W.#X>X#X#X#X#X#X>XW.W.>Xm.k.m.M.s.;.:.%.%.v *.2XrXrX3X3X5X5XrX",
"yXtXtXyXyXiXiXiXLXuXmXyXcXmXLXcXcXAXbXbX5X6X# N # ,.<.Q.W.W.R.T.R.m.x.T.T.x.x.m.m.x.x.m.m.x.x.R.W.W.W.W.Q.Q.Q.#XQ.#XQ.Q.*X2X5XcXbXjX2X6XxXAXCX8XAXAXDXDXDXDXDXFXMXMXvXxXxXtXtXtXVXvX4XM.n.h.a.a.p.p.p.p.p.a.a.a.n.n.n.h.h.h.a.a.f.7.7.7.4.] L C B V Z =.2.n.n.a.k.x.T.T.m.j.T.W.!.!.!.!.!.!.!.!.!.!.!.Q.Q.Q.R.j.2.p.2.2.2.2.2.2.=.] ] C U ! Y 6 & 1 < { ] b.m.n.n.h.h.c.$X,X2X=X2X=X=X$X>X2X4X2X4X4X6X4X,X2X4X,X5X5X4X8X8X8X5X5X5X5X5X2X,X>X#XR.>X5X,X4XW.4X6X5X2X2X2X8XT.T.c.#X9X@XL.z.z.y.y.u.:X7X=X9X2XkX5XjXjXvXbXjX,X#X,X8Xi.r.6.q.x.c.c.c.z.L.z.q.,.Z $.:.#.X :.n.h.!.T.*X5X5X5XzXnXvXMXMXkXkXkXkXkXjXjXkXkXhX4XhXkXjX4X5X9X9X9X4X4X6X4XhXlXlXlXlXkXkXvXkXkXkXkXkXkXnXnXkXlXhX4X,X,X4X4X<X<X<X<X<X~.<XhXhXhX6X6X6X4XhXhX4XhX4X4XhXhX4X<X,X4X#Xx.f.q.0.7.8.,.*.,.8.4.8.y.y.4.y.z.z.c.c.v.y.u.y.q.9.q.u.u.q.9.9.9.9.i.t.i.z.y.6.L K _ _ _ { { ` { t.i.i..X:XJ.F.H.L.K.W.1X6X,X>X>X>X<X<X<X<X<X6X<X<X>X<X>XQ.>X#X>X1X1X>X1X6X>X>X>X#X>X>X>XW.>XW.W.W.M.m.M.M.W.>X,X>X>X>X,X>X!.W.>X1X1X>X>X>X4X,X,X>X>X>X,X,X#X#XW.!.M.m.m.W.~.B.:.#.:.%.x x 5X8X3X3XrXrXrXNX",
"yXcXmXyXyXuXiXZXuXZXiXyXSXAXtXrX5XrXzXzX!.m.+ + N <.1.T.R.R.R.E.T.m.m.m.T.T.m.T.T.T.T.x.h.k.j.R.m.x.m.T.T.R.Q.#XE.#XQ.T.K.K.E.8XnX5X2X5XBXHXGXBXvXBXDXDXDXVXMXMXFXFXbXvXxXxXxXxX,XW.n.s.s.a.p.p.a.p.p.k.a.p.a.h.j.j.h.h.h.h.h.p.f.6.5.] K K K j p j B V ,.k.k.2.*.p.!.~.W.T.m.T.!.!.!.!.!.!.!.!.m.n.k.n.T.j.d.1.2.s.a.a.a.s.s.7.S C k l < Y Y 9 6 1 g  .D 6.v.j.v.v.v.c.+X=X=X=X=X=X$X$X#X,X,X4X4X4X4X4X4X,X4X5X5X4XjXjXjXjXjX8XjX8X5X>X#XW.R.x.,X2X,X4X#X4X4X5X2X9X=X9Xf.L.x.E.@X@X@X&X&X&X:X7X:X&X@XtX#XxXkXkXkXjX5X,X>X>X,X,Xz.z.y.R.#X,X>X$X$X+Xl.,.m x x @ #.n :.a.s.m.T.6XrXzXzX5X4XhXkXnXkXjXkXkXjXlXhXhXjXjX4X5X4X8X9X=X7X:X=X=X=X$X=X9X2X9X8X8X8XjXjXjXxXkXkXMXMXkXlXlXlX4X4X6X4X4X4X<X~.<X6X4X6X6X6XhX4X<X<X<X<X<X4X<X4X4X4XhXhX4X4X4X>XW.v.f.f.0.6.1.*.=.=.4.f.8.8.v.6.b.z.v.y.v.y.q.l.u.q.q.u.u.u.u.u.9.9.r.i.i.t.t.r._ k k _ } { t.{ t.t.} 9. X:X&XJ.w.l.@X#XQ.1X1X#X>X,X#X>X#X<X<X<X6X1X<X>X<X>X>X,X>XQ.W.T.m.R.Q.W.~.>X#X>X>X~.!.m.h.a.a.s.s.s.s.p.p.n.!.>X>X6X5X<X,X,X,X<X>X<X,XW.M.M.m.M.M.W.#X>XW.M.h.h.M.>X>X&.n #.#.#.-.-.p.zX7X-XwXyXwXrXcX",
"yXZXZXyXuXuXiXsXSXZXiXZXg.7XAXBXcXxXcX8Xh.p.c N *.,.1.d.g.g.g.x.x.j.j.x.m.m.m.m.m.T.T.m.j.j.T.Q.T.T.T.T.K.T.R.Q.R.Q.R.T.E.R.K.E.Q.Q.Q.Q.1X8XxXcXbXAXDXbX5X>XW.!.W.M.m.n.j.j.h.j.h.a.s.s.a.h.k.8.8.4.8.f.f.8.p.v.p.8.8.p.f.f.f.p.6.] K K j k k f d f j h V ,.7.<.-.<.2.n.W.~.!.m.!.!.!.!.T.T.T.T.!.n.k.k.k.2.2.p.2.2.2.2.2.2.<.=.] l d g < 1 6 ! ! , g { h S 8.8.v.v.v.z.L.$X=X=X:X=X=X$X>X,X2X4XhX4X4X4X4X,X,X4X4X4XjXjXjXjXjXjX8X8X2X#XR.x.x.l.#X2X>X5X>X4X,X4X>X2X2X=Xl.c.z.z.z.J. X&X&X X X XJ.i.y.&X=XjXjXvXvX4X>XW.#X>XW.M.+X+XW.>X<X<XW.M.p.8.=.m c &.:.#.n z $.2.-.h.n.~.NXzX5X1XQ.>X4X5X8X8XjXhX4X5X5X5X5XxXvXjX2X9X9X9X7X:X$X&X$X$X=X9X9X8X8X8X8X9X9X9XjXjXjXkXkXlXlXhX<XhX4X4X4X<X<XW.>X<X<X4X6X<X6X6X4X6X<X<X<X<X<X4X4X4X4X4X4X4X2X4X+Xm.f.f.f.q.8.4.=.;.*.=.f.b.b.v.f.v.v.f.p.f.v.l.z.l.l.l.l.l.l.u.u.9.9.r.i.r. .{ _ d * g g g E ' ' t.o.k [ @X9X=X:XL.L.#X2X5X1XQ.#X$X$X$X$X>X2X4X>X<X1X1X1X<X,X,X~.!.M.n.h.h.m.W.!.W.W.W.!.!.M.n.<.-.*.*.&.&.-.;.s.2.a.m.m.h.h.n.<X<X6X<X>X~.M.m.2.;.-.*.;.s.a.h.p.<.a.n.M.W.M.-.#.n :.#.#.:.-.h.8X7X:XqXuXuXuXyX",
"yXyXyXuXeXuXyXsX-XSXSXcXVXVX8X8XxX5X2X>Xp.7.=.,.N m ,.7.g.g.d.0.x.n.j.j.j.j.j.h.h.j.m.T.T.T.T.T.T.m.T.m.x.T.R.E.E.E.E.E.*X%XP.T.T.Q.Q.T.T.R.#X2X8XxXxX5XQ.m.j.h.n.n.h.h.p.a.a.h.n.n.a.s.s.p.7.4.S A S 6.6.8.4.6.6.4.4.8.0.q.0.6.[ _ _ E f , G G g f d f h a B 1.2.<.-.2.n.!.~.!.!.!.!.T.T.T.T.T.m.h.2.2.2.2.2.a.2.2.-.-.<.<.,.S C g g ! Y 6 6 ! Q G g } d V S S 4.y.z.z..X X&X=X&X$X=X$X,X,X4X5X4X5X,X>X2X#X#X5XkXkXkXjXjXjXjXjX2X9X2X$Xc.l.l.E.#X=X#X5X>X,XW.W.T.R.2X#X@Xz.L.u.u.z.J.|.J.u.6.{ r.r.r.u.tX7X5XkXjXkXjX4X>XM.M.W.+X>X#X>X~.M.n.s.=.&.M b *.2.;.%.$.v M ;.-.h.n.!.jXzXzX5X6X5X8X8X8X9X5X4X4X5X5X5X2XjXxX9X=X2X9X9X=X$X$X$X$X#X,X9X8X8X8X8X9X9X2X2X9X2X,X4XlX<X6XhXlXlX4X<X<X<X~.W.<X6X6X4X6X6X<X4X4X4X4X4X4X4X4X4X4X4X4X4X,X>X#X#X#XM.v.f.f.f.7.8.8.8.Z &.s.f.8.f.0.v.v.v.v.x.m.x.l.l.l.l.z.l.l.u.6.6.9.y.r.{ { } ' E E X.X.Q ~ +.X.X. .6.] L f.=XtX:X=X#X#X5X5X#X2X$X#X#X=X2X2X2X>X>X,X,X,X>X~.~.m.n.M.n.h.h.M.W.M.M.M.m.n.h.a.s.%.#.b b b $.&.-.2.2.s.a.a.s.2.s.n.m.W.~.W.n.2.&.b v n v $.-.2.2.&.$.;.2.;.s.2.n :.#.#.#.%.>.-.<.#XtXuXqXqXuXuXiX",
"yXyXuXuXuXyXyXyXLX3XZXrXGXVXHX>XM.a.p.a.p.7.=.N =.N 1.1.x.l.g.d.j.j.j.h.h.j.h.k.h.j.m.T.T.T.m.j.j.j.h.f.j.x.x.x.K.Q.E.R.R.R.R.*XQ.>X1X>X>X1XQ.R.5XzXzX5XQ.W.T.T.n.h.h.h.a.a.a.a.n.n.h.p.p.7.L S S S L 4.6.6.] L 5.5.6.6.6.6.5.[ H H E E , , G Y G , > f p = t A =.<.2.2.k.n.n.M.m.m.m.j.j.d.d.k.2.2.2.2.2.2.2.2.a.2.-.%.*.Z B h > < Y 9 9 Y 9 < Q Q E ` d k j C k ] i.J.J..X.X.X.X.X X@X#X2X5X4X,X5X,X>X5X5X4XvXkXkXkXjXhXhX4X4X9X7X9X=XL.c.L.=X=X2X$X2X#X#XR.W.#Xl.@Xl. Xu.&X.X|.|.|.|.z.u.y.y. .t.i.9.BX7X2X9X4X4X4X4X6X<X#X#X+X<X<X<XM.M.N.s.;.=.&.*.;.;.$.z Z c Z <.<.M.!.~.6XkXnXnXnXxX8X9X8X5X4X4X5X5X4X8X4X9X2X2X2X9X7X=X$X$X#X$X>X#X,X4X4X4X4X9X9X2X,X=X=X=X#X>X<X<X<XlXlX4X<X~.~.>X<X<X4X4X4X4X6X4X4X4X6X<X4X4X6X<X6X6X<X4X4X4X4X2X,X#XW.M.x.h.a.p.7.<.8.&.v Z 7.f.f.v.v.v.v.f.h.h.h.x.g.g.l.l.l.y.l.y.6.6.6.6.} C k U g Y Q X.R q q R O.X.' { ] L 8.x.L.=X8X8X5XjXnX8X9X2X=X#X=X2X,X>X5X6X,X>X>X!.m.n.a.a.n.n.N.s.s.s.h.h.a.s.2.2.;.*.%.$.b $.$.$.%.&.%.%.-.2.2.2.2.s.;.2.2.2.-.-.$.v b v v v $.:.-.-.-.;.2.;.$.$.-.:.n n :.#.:.-.-.7.l.:XaXqXqXuXuXuX",
"yXyXyXyXuXyXyXyXcXcXAXxXGXhXW.s.s.p.<.p.a.p.;.M A m 7.1.d.d.0.g.j.n.j.h.h.j.h.k.h.j.n.n.n.m.j.h.k.p.p.p.h.j.j.h.h.T.T.x.T.T.R.Q.Q.Q.Q.Q.1X1XQ.T.rXcXcX5XQ.T.j.d.h.n.h.j.j.h.h.a.<.s.a.p.7.4.L C L 5.6.[ [ { { _ [ { 6.6.[ ] K _ k g E Y < < < < Y < , > > * * a x *.2.h.k.s.k.k.h.h.h.k.k.p.2.1.s.s.a.a.a.a.a.2.>.:.$.M y i * * 1 : 6 6 9 Y 9 < Y o.' E f k f k k _ o.r.r.i.z.z.|.z.z.L.+X2X5X4X>XjX5X4XkXkX4XvX8XjXkXkXkXkXjX4X7X7X=X@X XL. X&X:X=X+X#XR.#XE.#X2Xl.l.q.u.r..X.X|..X.X|.i.9.6.6. .r.t.i.tXtX9X,X>X>X>X<X4X4X#XM.M.>X<XM.n.s.2.;.&.M &.;.<.&.M b y i c A M h.m.W.6XkXvXnX8X8X9X9XjXjX4X4XhXjXhX4X4X,X#X#X=X$X=X$X,X,X,X4X,X<X<X,X>X>X>X,X,X$X#X$X=X=X$X#X<X<XhXlX6X6X>XW.M.~.<X<X6X6X6X<X4X4X<X<X<X4XhXhX6X<X6X6X<X4X4X<X4X4X>XW.x.x.h.h.p.7.<.<.:.b c Z &.4.a.a.M.m.j.h.k.k.h.j.j.v.x.l.l.l.l.y.y.6.K l d t t d E X.O.+.( @.@.( ( X.E E 5.y.f.8.8.y.#X4X5XhXkXjX8X9X2X=X=X$X>X,X5X>XM.M.M.n.a.s.s.s.s.s.;.>.:.:.2.;.-.&.&.&.&.$.%.$.%.&.&.&.$.&.:.:.:.%.%.%.:.%.:.$.v n n v b #.b v b %.:.>.:.#.#.:.2.a.s.-.b $.v #.;.:.#.#.b =.<.@XtXuXuXuXwXuX",
"yXyXyXyXtXrXyXcXbXGXAXGXh.s.-.;.;.s.s.s.s.&.&.*.c M m.T.#XR.j.x.h.j.j.h.h.j.j.k.p.h.h.k.k.k.h.k.h.k.p.k.n.m.n.h.h.m.m.m.W.Q.W.R.Q.Q.Q.Q.Q.Q.Q.Q.T.#X2XQ.T.T.K.j.h.h.j.v.f.f.p.p.<.p.p.,.S K _ _ C 6.9._ K [ { ` _ } { { ` H k H E G E ! Y 9 Y < T Y < > f f p = m Z A ,.<.p.h.n.m.m.n.n.h.k.d.p.s.s.s.2.2.s.2.%.%.:.-.*.B h k ' 9 & & 9 R 6 < G , O.' G g g > E } } } E } t._.{..XJ.z.z.+X$X4X5X5XVXvX4XkXjX>X,X,X4XjXkXvXvXkXkX=X@XL.L.J.z.z.J.&X Xy.z.y.L.+X2X=Xl.y.z.i.r.o.o.o.i.|.|.i.r.y.i.t.o.t..X&XaXtX@X,X5XjXhX>XM.c.m.M.>X>XM.s.-.&.M ;.=.;.8.=.c y c B B S S N h.n.!.<XkXvX5X2X9XtXvXkXkXjXkXkXkXjX5X,X>X#X$X+Xc.L.@X#X>X,X4X,X>X#X#X#XW.+X#X$X+X+X+X+X&X$X$X>X4X4X<XW.>X>XW.!.W.M.M.>X>X<X<X6X<X<X<XhXhXkXkXhXhXhXhXhXhX4X<X>XW.m.p.p.p.h.h.s.2.2.<.-.b b Z v Z =.=.a.h.m.W.W.!.M.m.m.x.x.x.l.l.l.l.6.C t = = * - d } o.O.X.@.( ( / R 9 Y ' [ L 4.f.v.8.p.n.M.W.<X4XjX8X9X2X2X,X4X5XW.h.p.p.s.s.p.2.s.>.&.&.&.:.>.;.&.&.$.b v $.$.#.#.#.&.-.-.&.$.&.v #.#.n #.:.:.:.#.#.#.#.#.b v z b b $.:.;.;.&.#.#.#.X z &.&.v :.&.b &.#.%.:.b M =.x.3XtXaXtX7XtX",
"yXrX3X3XrXBXAXCXzXW.p.-.-.-.;.2.s.s.B.>.;.;.-.&.*.*.#Xx.m.W.j.j.h.h.h.j.h.h.h.j.k.h.k.k.h.j.j.k.s.h.n.n.m.n.n.h.p.k.n.m.T.T.T.T.m.T.W.Q.Q.Q.W.T.T.R.Q.E.x.f.f.g.7.f.v.f.6.4.6.6.,.7.4.S ] _ E E [ { { { { ` ` o. .' ` E E H k g E g g Y ! Y 9 9 < Y Y E H k f d h h j V S 1.<.<.h.n.n.h.s.2.2.2.p.p.s.p.;.-.:.%.>.%.-.A 6._ o.X.].[.(.@.9 9 ! G < g Y Q E , , Y ' Y Y ' ' Q o.|..X.Xz.z.c.M.2X2X2X9X2X2X9X9X,X,X>X4X4X>XW.#X#XW.c.l.y.y.6.] 6.u.y.q.y.z. X@X=X7X+XL.z.z.z.F.i.i.{.O.o.o.i.F.t.{ r.t.{..X.X|. X7X#X5X4X4X4X9X$X+XM.v.8.4.S *.=.*.<.8.=.u i V S B B B B B A ,.p.h.<XhX6X#X8X8X2X$XhXkXkXkXMXkXhX4XkXW.R.#XT.c.@X@X@X$X=X=X=X$X$X$X+X+X+X X X@X X X@X@X$X$X#X<X6X4X#X+X+XW.M.m.M.>X>X~.~.>XhXhXlXkXhXW.N.M.~.M.M.~.~.~.M.M.n.n.a.p.h.s.2.s.a.s.-.%.;.z . v b c Z *.*.p.m.M.M.!.m.h.k.x.v.f.c.x.6.6.C h t * * l } r.k ` | X.X.( ( ( / @.Q E ` { 6.5.=.=.;.2.2.>.s.n.W.jXvX4X4X4XW.s.*.&.M &.*.-.-.-.&.:.:.:.>.>.:.#.v #.$.%.&.&.%.%.%.&.-.;.2.2.s.s.2.X . @ n :.2.>.$.$.#.#.b n x &.b c c z n x v v v v b &.Z b Z &.;.&.b $.&.#.$.&.*.a.,XxXxX8X9XjX",
"f.l.l.l.x.g.d.1.,.*.*.;.2.2.2.2.s.a.a.a.s.;.-.&.<.Z m.h.k.p.1.j.h.h.h.h.h.h.k.k.h.h.k.d.k.k.k.p.a.h.n.n.n.n.h.k.n.h.h.n.T.!.T.m.T.m.m.T.R.Q.Q.Q.Q.Q.E.R.K.g.d.q.f.y.q.5.] 6.5.L L 4.] L _ H E } { { { { ` ` ` ' | | | ` H g g g g g E W ! Y < 3 < g G g g g k k k k k j j V V m *.<.2.2.2.s.a.a.&.Z Z Z b v x v @ @ x i j k ' Q 0 / ) (.].+.( < < < E Q Y < Y X.Y Y Q Q Q Q | O.t.i.r.i.z.v.R.R.x.2X8X8XjX9X#XW.W.,X4X,X#XM.j.s.6.5.q.y.y.6.9.u.9.6.6.q.y.l. X&Xu.y.9. .r.o.o.o.o.O.O.o.o.o.i.|.F.t.i.|.oX|.i.l.$X2X>XM.c.l.y.r.] ] C B h D S S 8.V u V D B h h h h B V A ,.7.k.m.!.M.m.>X2X=X2X4XkXMXMXMXMXkXjX,XR.+X,X+XL.L.l.@X.Xz.z.z.z.c.L.y.y.y.r.r.r.r.r.i.l.v.x.x.m.M.M.M.c.c.R.W.W.+X,XhXlXhXkXhX<XW.M.s.-.-.2.s.s.s.a.n.M.M.M.n.a.p.;.p.p.p.s.s.;.%.$.-.x z v x x b Z Z *.*.=.s.M.m.h.h.f.p.v.E.b.V a h h h C }  .r.r.{ ` H E Q X.+.+.( ( ~ Q E } { ] S =.;.-.-.>.2.a.2.s.m.<XW.s.&.$.b b b Z &.&.v n #.#.b n b &.>.:.&.$.v n n v #.$.2.;.;.2.s.s.s.s.$.M.M.-.@ #.%.#.$.v v $.Z M c y i y c c c b Z Z Z Z Z &.Z c c c c c b &.:.:.$.b 2.7.p.k.v.x.j.h.",
"c.E.E.l.g.f.7.7.=.<.p.s.s.a.a.a.2.2.;.:.$.M &.*.M x 7.j.k.h.<.k.f.j.j.f.h.j.j.k.k.h.f.d.d.k.j.h.a.a.h.h.n.h.k.a.h.k.k.k.m.T.m.h.j.f.k.f.j.j.h.f.m.T.T.K.x.z.l.l.l.z.u.] _ { { k ] [ [ ] _ k E t.r.[ {  .` ' o.' ' ' Q ' W E H g , G W ' ! Y g G G G G g g g g g , < g > f h a u x M -.-.-.2.2.2.Z u i u u i z z b M u u t f > 1 R 0 6 8 R @.+.X.R Q Q Q Q Y ! Q : ! Q Y Y Q ~ Q O._.i..Xz.v.c.c.c.=X$Xv.v.M.$X$X#X+XW.m.m.j.f.p.f.q.q.q.6.] ] [ [ { { [ [ 6.y.i.r.r. . .o.o.O.O.O.o.| Q W '  .t.r.' ' o.{.i.r.y.=X9X2X$X@X X{.{._ _ E E E _ ] 6.S u i V K d * f h h h u u B ,.p.7.a.p.p.v.v.v.x.M.6XhX6X<X~.W.~.4X>X+XR.l.l.z.l.l.q.4.4.L S L 4.6.q.y.y.y.6.{ _ C S S ,.8.7.7.8.S S S ] 4.4.6.8.a.a.a.a.a.a.n.M.2.2.2.2.s.a.h.n.h.h.a.s.7.p.p.7.p.p.p.s.-.$.v v $.b M Z c x c c Z *.&.b c M *.;.<.7.8.8.S i i D h D }  .i.i.o.{ } _ E ' o.+.+.X.(.( X.X.E ' o.{ S =.=.&.-.>.2.2.a.;.2.n.a.#.n &.v c c b b b c z z n n n v n v n %.$.b b $.-.2.s.2.2.;.<.s.a.a.s.s.a.a.M.n.v . -.v x *.<.4.6.b.4.4.5.4.S B u u c Z B B V B u t i c Z =.:.&.#.v n b &.=.,.<.7.p.p.",
"8.6.6.L A S ,.1.8.p.s.8.;.s.s.B.;.2.p.<.=.*.*.=.j.7.,.Z c h.d.d.p.j.j.d.d.j.x.j.f.j.j.f.k.f.j.j.p.p.a.h.h.h.h.h.m.j.j.x.T.T.j.k.j.f.f.f.d.7.d.f.E.#X#Xl.0.5.5.q.9.z.z. .` E ' ` k C C K C d k 9.i._ `  .E ' O.' E Y G E | X.` g G E Q Q ! Y Y ! Y Y Y g g , f , : : < , f j h a m N M M M $.$.M B u t F u i i i + i + h d k < < R R 9 9 6 & 6 9 @.! T R Q Q Y < 9 R ! : 6 Q X.Q | o.{  .6.] b.y.l.+X+Xx.x.c.R.$X+Xx.f.0.s.p.f.h.8.6.6.6.6.] ] [ K _ ] _ ] { [ _ ` E E E ` ' ' ' o.o.' W E Y g f H ` ' X.X.O.t.r.@X$XR.c.z.t.E Y Y g < G Y Y k k t h V h t > > > t h a t i u V L ,.,.1.7.7.,.=.<.2.h.n.h.h.h.a.h.k.p.7.L L 6.l.z.q.6.6.6.4.4.4.4.8.6.6.5.] ] C D C C S ,.,.<.,.S L C C ] { { ] 4.7.<.*.&.$.*.<.a.s.a.a.7.7.a.a.p.a.p.7.,.,.4.8.4.8.8.<.*.v @ z b M M *.=.Z Z Z y B *.;.*.Z &.-.B.=.Z c c u i t h h k _ { { { } W E } o.X.X.+.+.+.{.X.X.Q 3 ! +.o.] S *.=.-.-.-.;.s.;.&.&.b n v :.:.&.b c n z z $ z z v v v x n z v b $.-.;.s.s.a.s.s.p.s.s.a.h.h.n.s.-.2.M.a.%.b M &.p.f.S ] y.[ ] ] ] B u i u u B u u F h F t t F S &.b v #.b v . c S A A 4.p.7.",
"L 4.5.5.6.6.6.,.S 4.8.8.s.s.p.:.=.A m y i u m A 4.7.7.7.=.f.<.Z ,.d.j.d.7.d.f.d.f.j.x.j.f.d.d.7.k.k.k.k.k.f.f.f.v.j.f.f.f.d.d.0.l.f.7.7.1.8.f.m.T.R.L.q.5.5.6.6.6.y.u.t.o.Q W ' } ` ] 5.6.] ] y.u.K `  .E ' O.Q Y Y < Y ' | { ' ' ' Q ! Y Y ! ! Y T Y G g , , , 3 9 3 < g g h a u u u y y c m B F t * * * = t h h a h 9. . .Q +.) ) R 9 : 2 & : : : : 9 T T 3 : ! 9 6 : 9 @.( R Y ! U U k h ] 4.D ] 5.q.b.8.4.8.8.8.8.8.f.8.8.4.4.,.,.4.] C D k C k k C _ [ _ k E Y G G G H E E H ' o.o.Q Y < , * _ o.' Q | E d t t i h _ ' 9 6 < : & 6 9 3 < > f K K t = * > ; = t h h h t u a V B B S S =.<.p.<.2.2.2.h.m.n.m.4.0.6.5.6.r.9.{ C S S S S A S 4.f.8.S B h V S ] S S S =.=.S A B D h h U ` ` _ C =.;.;.<.=.Z Z *.,.8.8.S A S S A A S S =.4.] D u u u u y z z v &.=.A =.A Z A A u c y i y b b z . c c b B B V F = = d k k U W ' ' ' o.X.E Y X.O.X.o.Q ! G > < Y G _ C S 4.=.b b &.b $.Z $.$.#.#.#.v n z z n v b Z =.*.=.;.<.s.h.M.M.M.M.W.W.W.M.M.M.M.M.m.h.h.h.h.m.M.M.s.2.m.h.x M A f.l.] [ r.` E E H k d t h h t t p l k l d t i c c z z v &.&.4.=.V F D 6.5.C ",
"C S ] ] 5.6.] C ] 6.8.8.s.8.;.Z A m a y u B L 5.y.q.6.6.m m A 4.A 7.f.f.0.0.7.1.f.g.x.j.j.j.f.f.f.f.f.q.f.q.q.q.q.q.q.q.q.q.l.L.q.q.f.f.p.8.8.f.7.8.L L 5.y.u.q.y.6.{ r.i.o.| | t.r.9.q.v.f.0.l.l.{ { r.' X.o.Q Q Q ! Y G E { O.+.X.~ ! 9 Y Y Y 9 9 Y 9 < , , < 9 9 9 < g g h d t t t i t u B h t = = = = * f k h p p K f = % ; 1 6 Y ) +.@.9 2 % : 9 9 : < 3 9 9 : : 9 R / R q 9 ! E E U l ] S 6.4.] 6.b.y.b.L.8.8.8.8.f.8.4.*.8.=.m u u a j C ] C k U _ _ _ E Y Y Y Y Y H k k k E ' | X.Q 3 1 * k E g Y X.Q > ] C h h E Y : & q 6 6 q 0 9 < > ` C p i * - 2 = t t p t t t a h a t u c c *.p.p.7.p.<.<.j.x.j.f.v.c.z.u.J.i.{ } 6.6.6.5.] L ] 6.] ] S D D _ ] ] C L ,.4.,.,.,.L ] _ E } ' ' ` _ V Z *.=.=.S S S S ] L D D D D h B B D C C C l t d F h B B M Z =.7.L A Z m A A m =.S Z Z &.&.b $ $ c =.Z u F h = t k _ E U ! X.X.Q X.Q Y ! X.| g > > ; > , > > > ` _ 6.6.,.M c &.=.Z &.;.:.n n n X X z b &.-.8.8.M Z *.<.s.a.j.M.>X~.~.M.M.m.m.m.W.W.W.!.m.j.m.T.!.m.W.W.s.p.a.<.u a ] y.r.t.o.E E ' ' E k d * t t d k _ } U > - i y z $ z n v b =.L C l k _ _ k ",
"] C C k C ] ] ] ] ] 4.4.S c u u O t a V V f f f 9.9.u.9.C t u i A L ,.1.1.4.7.7.0.f.d.d.f.g.f.0.4.6.6.6.6.6.q.q.q.y.u.u.l.l.L. Xq.8.f.v.f.8.S S 4.4.S V C [ { ] q.4.K ` X.X.X.' ` ` K A S =.=.,.q.9.9.r.t.o.o.X.Q Q ! E E W ' X.X.X.X.T 3 3 Y 9 9 9 < < : 1 1 : 1 : < , g g l d t t t t t F F t = = = * > E E f - p j p - % ; 1 : 3 : < q R ( 0 : q 9 : 2 1 < 3 1 : 9 9 0 R q 9 3 ! g U k l C C C ] ] 6.y.y.6.q.8.8.8.4.=.4.,.S Z c i i B 6.z. Xr.{ { { { E k E < < < g g g f d H f > g Q Q R < ` _ g , T +.O.o._ K j k W ! 8 0 8 5 8 q q 4 1 , _ p i p f > ; > h a t t p h k C h u B c y Z ;.&.*.=.Z A 8.8.,.A V K k E o.t.o.o.' Q E E E U g l > d g U E E U g ] 6.0.0.8.8.8.6.} E E W Q E g k 5.4.S S S V D D D D k l l l f d l C C k k k U U U C _ ] D V A L 4.L ,.,.A V S V i u B Z Z Z &.=.b $ $ $ u S D * k } } U g Y Q ( R ! ! R Q Q g * ; > = ; E E , E g } r.q.6.8.=.Z 8.=.Z :.Z $ X n #.&.:.;.;.:.&.Z 7.p.j.m.m.x.v.m.W.M.M.M.M.M.!.!.M.T.W.R.T.T.T.R.h.M.M.h.p.p.p.,.m a C ` ' E , ; 1 1 < , > > * * * d E ' ' E 3 g F c $ @ z z z c + t d > 1 1 < ! ",
"C ] } } } { o.{ g k _ ] C t t h 9. ._ h * * k [ K K K i h S q.A A m y x N ,.1.d.d.f.7.4.1.1.L A C K L [ 6.9.q.q.6.6.q.q.6.] K C ] B u u a c c B a S S h d k _ { C C d - > Y Q ! g E j t a m m V ] ` ` { O.o.X.X.~ T Y Q O.t.| J Y ^ ( R 9 9 T R 9 9 < : ; ; 1 1 1 < < > d d d * = * t * - d > * % 2 ; < Q X.Y % > G W ; ; 2 3 < : R q 9 6 6 0 8 0 q & % % : < : & 9 0 9 9 q ! 9 R Q G U U U } } ] 6.6.] 6.6.6.5.4.6.4.S V S A c B Z A 6.x.@X=X:XJ.i.z.|.t.k > g 9 9 T T E E H k > > > , < T ( +. .[ E Y Y T Q ' k C C K E 3 6 8 & & 7 w w q q ^ > > d f g G Y E * a C ] 6.{ _ C k k ] S B *.&.@ + x y c S L V a t h * d ' Q 3 9 q 6 9 R ( @.9 : 6 3 6 < 6 9 ! ! ] 5.6.S B u u h h f g E ! Y G E D B h B D C C C _ U k k g g > > ; g ` E E g U U g k k k d t h K V V [ q.5.K C D B c F Z =.&.b c $ . y F i F S U k U g 2 2 : T R @.q ! Q ! < > g E ` > > ' ' g { * _ r.6.q.v.f.Z 4.B.;.;.:.Z b b b &.:.;.;.;.;.;.a.p.p.p.7.<.7.p.a.a.h.h.j.m.m.x.R.R.R.T.L.K.K.x.m.+Xj.<.7.=.M A m V C _ E g < Q < < < > > > > > * > g E Q Q R | h i $ $ i i u B C d = % ; < ! Q ",
"S C C } { ' E Y 1 Y E g g k _ [ { _ k H * d { _ _ { _ V V S S ,.<.M @ @ @ + x &.*.*.=.,.L A S L K ] [ K ] 6.C L u S 4.S h p * = h D B i i B S Z u S L h d j f > H g > 2 2 < ! | < > ' { d f _ k ' X.T | X.^ Z.( ) R q R Q E G J Y Q ^ ^ ^ R R 9 3 9 < : < < 1 , , > g f > g g = = * = ; > < 1 1 % & & ) / / 8 q R ^ R 9 : & & 4 & q 0 0 w 8 8 ) / q 6 : 1 1 1 : : ! 9 : 9 9 < < : Y Q Q Y ! X.g k V L C C K j j h L L B A 0.k.1.A L S 6.&X@XtX X:X:X&X|. .G , < 1 3 Y Y Y Y G , g < , < Y T R +.r.k ; 2 2 9 Q k C S L C k E R 5 5 7 r r e e w w & : : : 9 T T Y g k ` [ [ { _ = * * d l L *.n #.$.@ @ y h k j h C j f E G < 0 8 7 r e e e 7 7 / q 5 6 q 9 8 q 9 t.y.i.r.C h h * k k E G ! 3 ! 2 d O O * d l k l g < < Y T 9 9 9 : 6 Y Y Y E g > g d * = % * k ` _ J J G H I ` [ j h m c m &.&.Z c c u i F U } g Y ! 6 q q 8 q 9 Q Y < g > * d } ' E U E ' { } _ h S 8.f.f.8.8.8.c u u c c b b c Z M &.&.&.*.*.=.&.*.=.*.Z Z *.=.,.S V S L A A A L S C L [ [ [ { 5.S y.0.=.=.c z Z u a ] { ' Y Y 3 3 U k f t t t = = 2 , R R 9 ! k p * = * g l E _ f * * f k k g ",
"h h d k E E Y Y T T T Q Y , f E { k g k * d { _ [ ] j h S L S A *.M v v v x x M c c m B B B B V _ _ C d l C h D B B u u t j K _ k F t h A B u u B B V D h > f k g g g , ; ; < Y 2 % < Y > > E E ^ R T ( +.( ) / w 0 0 R T G f G 3 T ^ ^ R q 9 : & : : : < 1 1 < , > > > > , > % % 2 2 1 9 9 6 8 & & q w w 8 0 / ) ) / q 4 5 8 q r e r e '.(.q 8 8 : & 2 & 1 : : 6 q q : 1 & & : 1 9 R @.9 6 q 2 k j K C K _ k K j a V q.l.v.x.#Xv.L 5.y.=X X X&X:XXX|.D.o.Q Y 9 1 1 1 1 < G < 1 , , 1 3 T 9 3 Q E d > < < Q ' k h V L S j H ! 8 7 r r r e e e w q & & q R R R Q o.' ` [ K k p % = > U k D Z z v v v y t f H G g H > ; G 9 6 w r (.).r r r r r ).e 8 0 / / ( ].].oXXX.X.X.X=XaXaX&X] E } ' , Y X.} } U U l k k g 1 1 1 3 9 q 0 ^ 9 9 < < Y W ` E H H _ _ E E g , G G G G G J J f p h a y y c M Z =.B u i * l E < 9 R q / 0 q / R Y > * > l l l U _ W W E E k h h u Z =.8.8.8.4.4.u y y u c c c c c b M M M M M M M M Z Z Z Z *.A j j j j j j a p a h j H H k g H { k { K a B m B i i t _ o.| Q ! Y Y E _ C h t t f g , : 9 0 q R ' g > 2 1 3 < Y g > = * p d f g ",
"t t t d f > > , Q Q Q ' ! G g g f * * k f f { [ _ _ j a B V B B x c m m m m c x N m m V V j j C d d d * d h = i c u u B h h d d k t t V C h u u S B D C d d k E H g , g ! ! Y < < 2 1 Y , < Q Q ^ q ^ ( +.( T R R / ( R 3 , , , 3 q 0 q 8 5 : & & & : 8 : & & 6 : & 2 & & 2 % % 2 & 5 8 7 5 5 7 e w ) : & % 8 R R 8 2 % % 2 9 / w (.'.(.(.w 8 q q 6 2 2 1 9 ! ! R 8 8 8 8 0 ( (.0 0 0 / / 0 / R Q G E E ` _ f k j h K q.c.c.x.x.A m S A L.=XL. Xi.o.E < < : : & : : 1 1 < 3 Y Y < < < 3 Y < 1 < , > 1 1 : 9 G ; j K 1.K d g T q e S.r r e e e e ) q & q R R T R , , p f H f > , 2 < W g l V y z i t * * ; : : : 9 9 R ( ) e ).r e e e e (.(.(.'.) 8 R (.+.(.}.}.|.z.z..X+X7X9X9XBX&X&X.Xi.{.O._.} .X X&Xi..Xo.' E Y T T Y 9 Y T R Q Q Q ' { { _ r.r.r.t.i.i.t.| T T G T W W J f f k C h u u A ,.S B u t - g g ; Y Q R ( ^ T Q ! E k k _ 6.{ _ k k E ` _ k h h B c Z *.=.,.,.=.=.c c c c m m B M Z *.*.*.*.*.A A N Z Z Z Z A A S K _ K d p j j p d k _ ` E g g H ' k ` H j _ 6.9.u.{ k g g Y R R Y Q ' ' k d f k ' ~ ! 6 6 q R @.Q g < : < 9 1 1 , > > > - * > d ",
"h D _ { _ k f d g ' | G g ! Y > d t p C h = p = = h h t i i i m A L A V m V V m a u u t t = = = O O = = d h i u +     + t d k _ f k h t t t u u i = h h t _ r._ { H > g E G 1 % R < Y Q R Q ( ( / 8 ( ( ( ^ : T / ) ( q : < 3 < 8 8 8 & & & 7 q 8 w 0 8 8 8 6 8 & & & & 8 & % 2 5 q r r 7 5 & 5 7 0 ) q 8 & & & : 4 9 0 R ^ / / 0 (.'./ 7 & 8 0 @.q & 2 : R ( ( ) 8 5 0 0 / ) / w 0 q / ) / ) ( 9 : 9 R Q W f k d j V L 4.8.,.A c S =.i a C p j } Y 1 2 & : 7 : : 3 3 : 1 1 < Y G G < < 9 < : T T Q T 4 4 0 T 3 = - s p - G X.C.S.S.r r e e w e / / 0 4 9 R R 3 G W f - f ; % ; < 9 R Y ` _ u t k E ! < : 8 q 8 5 e ) ) e ) (.7 r ) (.'.].].].OX+.3 Q {.O._.oXXXJXCX8X7X2XjXDXVXCXVXGX7X XSX&X.Xz.:X+X+Xy.&X.X.XXXoXoXoX|.{.{.{.{.{.t.{ ` { 9.u.6.6.{ 9.r.i.i.G.D.~ T Q | | | | W {  ._ h h D L C l l k _ ' ' g ! X.o.o.| E E G d k [ 6.5.] D h k k C k j h A L S *.,.4.4.,.=.=.=.*.S A A A A S 8.8.8.8.7.8.7.4.1.,.L L L ,.L L [  .{ _ _ { { _ ` {  . .W G E Q Y < G Y Y ' | o.' ' Q Q R Q Q R ! Q Q Y > ; U o.X.) @.8 8 0 R R Q Y Q R Q R 1 ; = = * f g g k H ",
"= t V L K f p - j ` ` , , ! T , d h h L K h j p K q.l.q.q.q.f.L.c.L.z.q.6.q.6.] 5.L L L K k j j j p * O = t = u i i y B B h C ` _ K j t t a h a L a u =   k 6.k k f g G , , 3 R R R R @.( +.+./ w 8 / ^ T 9 1 Y +.Z.) 9 : 3 Y 4 8 7 7 7 7 7 r e e '.e 7 7 w 0 8 5 8 : 8 q & % & q e e r r 7 7 r e w q 8 & 5 & & q w ) C.Z.) / / ) w q 5 5 8 0 0 0 8 : & 6 R ( ( q & 6 ( ( ( / 6 & 6 6 / ) 0 8 & & & 9 R X.' G H j t t V S a i a y Z u c u = h { d < < 6 q 0 r 0 / ( X.X.X.( Q ( 3 Y < < 9 9 ! ( ~ +.^ q w / ( ~ J J I I W X.Z.C.e e r w e w q w w / / q 9 R ( ^ T | T , G Y Y R R R ( ( X.E d Y R / / 0 q q w r 7 e e e r r '.) (.].{.].{.}.oXfX|.o._.oXXXoXdXaXBXCXGXHXHXGXGXvXHXCXGXCX9XSX9XtX7XCX$X$X.X9X&X&X.X XXXXX|.{.|.|.&XaXJXJXSXtX&X@X:X7XtXtXtX7X:XqXoXD.| O.O.| | O.'  .' E f d h h k d f k E ' ' E W o.t.t. .` [ K j [ y.f.q.7.7.6.L L K C V A =.=.,.,.,.4.1.,.,.=.,.,.,.,.,.,.1.8.8.7.7.7.0.7.0.7.q.5.5.5.5.] ] ] K { r.r.t.F.i. .{ ' ' ` E E W ' Q @.R R ( ( ^ R 9 R ( / ^ R ^ ^ ! T 9 < > , ! X.q / 0 8 0 / 0 q < > Y T T 9 2 ; ; * d j k f d - ",
"L ] 6.q.q.q.q.y.9. .` ` Q T T Q [ 6.5.y.J.L.@X@Xz.L.L.L.@X@XR.L. X@X&X@X@X@X XL.l.u.y.u.u.r.9.9.y.9.y.y..X&X$X9XCXGXHXHXBX7X&X&XaX:X:X7XaXaXtXtXxX8XBXHXSXtX&Xi.= = = - * % 1 ^ R R 0 q w ) w 8 q q w R 9 3 : 3 +.+.( q 4 q q 4 q r e e e r e e e '.e 5 7 w 0 8 : 6 8 8 6 & & 5 q w r r r r r e e r & 5 & q 7 q e e w q q q w / ) 8 & 7 8 / / / 6 6 6 6 q @.@.R : 1 < R Q R R q & 9 8 / ( q 9 q ) ) ].+.+.o.E k L V B B h s t u S A   . = u _ f 2 < Q ( / / e e R T 9 Q X.X.Q ! Q ~ Q Y ! T Y ^ ^ C.^ w w w T ~ D.t.G.F.G.D.Z./ e e e e ) r q / / / / / 0 9 0 ( Z.{.X.3 : 9 q 8 / w '.(./ 6 & R w e e 0 8 8 q w ).e e ).e q ( (.X.{.{.{.oXdXsXsXJXaX:X7X7XtXBXJXHXHXHXGXDXHXKXKXHXvXDXDXvXDXxXVX8XDX8XCXBXAX7X:XtXtXwX&X X%X&X7XtXaXBXaX8X8XxXBXxXAXHXJXZXaXaXaXaXXXD.|.{.D.o.O.W W E g k H H H * = f ` ' E k d E  . .9.9.5.q.5.I ] ,.L ,.,.1.,.,.L L L 1.,.,.=.,.=.,.,.,.,.,.,.=.=.,.,.<.7.7.7.7.7.0.0.0.0.q.q.5.5.5.5.[ [ 5.[ 9.9. .{ { r.r. .` _ E E E W ' o.+.]./ ) ].+.C.) ) ) ) ( 0 9 q ^ R < 1 < E Q T 9 : 8 7 7 0 / 0 9 < , ! ! T R Y W d d d k _ K j d ",
"l.l.l.l.L.K.L.E.@XJ.F.F.D.X.X.D. X2X@XE.%X*X3X=X*X=X*X#X=X*X@XL.J.L. X X&X&X&X@X&X&X&X&X:X&X&X&X&X&X:X&X&X@Xz.+X8XCXCX9X@X X X&XJ..X&X:X7X9X2X$X8X2X$X$X=X=X9XtX&XP.J.F. .G 3 T R 0 8 & 7 q 7 7 r e w 0 0 9 T 9 ( ( ) / w R 0 8 w e ) '.) e e e e e 7 & & 7 7 7 & & 8 4 2 % & 8 q r 7 7 r r r r % 2 & e '.'.e e e ) '.'.'.e e e 0 6 q / / R ( ( 9 0 R R R ( ( R E ` E g E E Y Y ' {.+.X.X.! X.{.OXOXOX].o.t.{ [ q.q.5.L j h p a a B u i   ] { > Y X.].].) ) ) / ( Q Q X.O.O.O.+.i.O.' ! Q ! 9 T ~ A.C.C.C.^ T | O...t.F.G.{.Z.^ e e e e e q 8 e ) ) ) / 0 8 q R 3 4 q q 0 ) C./ e e ).) e q & w e e / / R 9 R ) e e e / R Q o. .t.XX:X7XsXJXJXJXHXHXBX9XBXBXCXDXGXGXGXHXGXGXGXvXMXvXFXMXFXDXGXvXCXDX8X8XxX8X9XVXGXGXVXtX7X7XtXtXxXBXDXVXVXVXVXVXVXGXHXHXVXtXtXaX:XXX|.XXoXoX|.D.i.O.| ` '  .o. .k f _  .{ E k k _ 9.5.5.0.0.g.0.l.q.0.7.d.d.p.7.4.5.1.4.7.7.1.<.1.=.,.,.1.,.1.,.,.,.1.7.7.7.d.d.d.d.0.0.0.0.0.0.5.5.5.5.[ [ 5.9.u.r.{ ` ` [ {  .` ` ` .. . . .O.~ +.R ^ ) ) C.C./ ) Z.].Z.( T T g , g W X.X.R 9 6 8 8 8 0 R 6 3 ; % ; 1 < Y G ' H j K 9.l.L.J.J.",
"*X@X@X@X#XQ.Q.#X#X%X&X|.D.D.Z.Z.J.=XR.K.R.@X#XL.l.@X@XL.R.L.L.@X XP.L.L.L.L.J.L.L.L.L.@X@X XL.L.@XP.@X.X X+X X9X2XjXCX8X=X&X&X&X XaXJXtX7X8X9X#X5XCXVXjXkXCXCXxXtXtXuXqXF.E G ( ^ q & & 5 7 7 e r e r w ( ^ X.T R ) Z.].) / 0 q ) ) '.'./ r r e e w 7 & & & & & : & q : % % 7 r r 7 7 7 e e r r r 7 r e '.r e e e ).'.'.e r r e / 8 q ) ( R ( / ( ) ( R R ( ( X._ 6.{ { |..Xt.{ o.oXXXF. .H  .{.].].{.o. .z.J.L.@X7.4.y.5.* * [ &X:XJXaXC k g E X.(.].X.R R R R ( X.X.+.o.o.i.|.{.i.Q ! ~ X.( ~ T ~ ~ ( C.^ T A.XXI.I.|.F.t.o.T / e e e e 7 7 e w ) C.w 0 w / 0 4 & w C.'.'.'.e '.e e e `.'.r r r r 0 / R < T ( 0 (./ 8 ! |.7XL.7XJXPXHXJXJXSXSXBXGXCX8XVXVXjXCXbXkXkXvXvXFXMXlXkXjXkXkXvXkXGXDXCXDXVXDXGX9X2XVXxXCXBXvXxXCXBXBXHXHXHXHXKXKXHXDXGXHXPXPXJXBX8X7XL.P.J.I.:XaXqXXXqX:X.Xt.o.o.o.{ { k f f t * k _ r.u.q.0.0.0.g.5.q.0.d.x.j.f.d.g.g.f.0.5.1.1.1.1.1.<.1.1.<.1.,.,.1.7.p.p.d.d.d.k.d.d.d.7.7.7.5.5.0.0.e.0.5.5.0.e.] ] 5.q.u.9.9.9.5.9.t.u.i.t.t.t.~ Z.~ ( C./ ) Z.].Z.+.Z.+.~ W ` - g } o.o.' Q ( 0 0 0 0 R 9 < g E g W ' O.{.F.|.&X@X@X@X#X@X@X@X",
"*X*X*X*X*XQ.Q.Q.R.@X X|.O.O.Z.o.l.Q.K.g.K.g.g.7.d.K.*X@XP.L.%X*X@XP.L.L.L.L.P.@XL.@X=X=X=X*X@XE.@X@X@X@X X X$X7X9XjXCXxX9X7X7XtXtXBXAXBX8X5X8XxXbXvXkXvXbXvXkX5X2X8X3XwXsX|., : q / w w e e e e `.7 & ) q & R 4 4 Z.].) ].) q 8 ( ( ) ) 0 0 0 q ) / / 0 : & 4 4 0 w w 7 & 7 e 7 r e e e ).r r r w C.) / w w ) / ) / / ) '.'.'.'.}.].( Q Q Q Q Q ( ].{.+.( X.+.O.r.&X&X:XZXaXF.i..XsXqX&Xr._ .X:XfX{.o.{ u.:XxX2X>Xk.v.5.[ { H |.|.|.LX:Xr.l E | |.O.X.X.+.+.X.+.+.Q O.{.{.{.{.{.O.o.O.D.i.O.X.~ o.O.X.3 3 Q f ` [ 9.z.J.i.{ ` Q 0 w r r / w & & 7 q & & w ) ) ) ) / ) '.[.'.'.`.r r e `.).).).r ).r w / R 9 : : q q R R i.:X8XVXPXHXHXJXDXBXVXDXCXCXCXbXvXvXvXkXvXvXvXvXkXjXjXkXhXkXkXkXjXjXkXvXCXvXCXVXxXvXVXvXbXVXVXVXVXDXGXGXHXHXGXDXDXMXDXDXvXxXkXjX9X9X9X8XrX@X@X X7XJXZXqXuXuXuX:X:XJ._ 6.6.5.6.C j 6.9.[ u.H.9.[ 5.e.e.e.e.w.g.f.d.d.d.0.0.w.g.w.0.3.d.f.f.f.f.f.d.d.d.d.j.j.j.f.h.f.f.d.d.j.j.d.d.j.g.g.g.g.g.g.w.e.0.0.5.5.5.0.q.q.e.q.q.9.0.9.w.u.u.9.t.O.O.| ~ ^ X.Z.Z.Z.D.A.D.G...K { [ k [ { H Q T R R R 9 Y Y ' r.9.u.F.F.|.XX&X&X@X@XQ.Q.Q.#X#X*X",
"%X%X*X*XQ.Q.Q.Q.#X*X%X|.D.D.Z.o.H.*XQ.E.E.K.T.j.K.*X3X=X*X%X*X-X*X#X#X*X=X*X2X7X7X8XtXrXrXtX8X9XL.L.@X&X&X&X=X9XjXxXvXCXCXBXBXBXxXBXVXCXxXjXxXbXMXvXkXkXkXMXvXvX4Xv.K.SXuXLX; +.( ) ) e e S.S.S.e e ) ].C.+.{.( 0 Z.].].OX].^ ( +.O.{.].( ( +.].( ^ ^ R R ~ +.+./ 0 0 w r r e e r e e e e r r ) ].}.{.{.+.T T 9 ^ ( Z.].OXOXOXoXoXoXoXoX{.X.X.+.Q Q Q Q ~ X.X.X.[ l..X&X:XXXt.i.t.:XXX.X|.i..Xi.F. .{ J.8XHXHXDX#Xx.L.6.[  .E F.{.|.aXt.} < W |.oXXX{.{.{.D.i.O.o.W i.|.|.XX|.|.|.i.i.F.i.i.{.{.O.O.O.W o.i.` _ ] 6.9.] _ [ [ E R q 8 q w w w ) r / w w '.'./ ) C./ e e '.'.S.e e S.'.'.`.`.`.`.e e r q q R R 9 0 ( +.+..XaXVXGXGXSXGXGXDXCXxXxXvXbXvXbXvXvXvXvXbXxXjXjXxXvXkXhXhXjXhX5X4X5XjXkXjX8XxXCXvXVXGXDXbXDXDXGXGXGXGXGXDXbXvXvXvXvXnXkXkXkXkXkX8X8X8X8XxX5XxX8X7XSXSXSXBXaXaXtXtX&X5.[ q.L 5.[ [ 9.9.9.9.u.9.[ 5.5.e.e.u.w.0.0.g.x.g.0.0.e.e.w.f.g.K.T.j.j.j.j.j.x.x.x.j.g.j.f.f.f.f.d.k.j.j.j.j.j.j.j.d.f.f.f.w.q.0.0.0.0.0.0.q.q.q.q.q.q.q.f.l.x.l.g.w.e.t.t.O.....O.D.G.G. .[ e.w.0.5.L s V K k ` W X.X.Q Q E '  .y.H.L. XP..X&X*X@X#X>X>X>XQ.>X#X#X",
"R.R.R.E.E.Q.Q.E.*X@XP.G.O.D.Z.| w.*X^.E.Q.T.E.E.^.1X3X*X*X*X*X*X2X*X1X2X7X8XrXrX8X8XrX8X8XzXzX8X9X8X8XtXtX9X9XxXCXxXkXvXCXVXBXBXxXcXbXvXnXnXkXnXkXvXkXkXkXkXvXvX4Xm.VXrXtXaXJ Y +.) C.C.e S.S.r e `.) C.].].].( {.OXOXOXOX{.{.OXoX:XdXdXXX{.{.{.{.D.Z.O.o.| | Q ].+.+.].) / R 0 w ) / w w w / ].{.|. XaXJXqX.X{ o.t.F.{.{.{.{.|.|.{.{.{.{.{.O.' ' G g W o.O.o. .|.F.t.i.F.O.o.O.o.|.i.O. .E  .[ .X X*X8XDXGXDXGXDX>XT.7.] _ k F.{.{.|.g E g ' oXXXXX|.{.F.F.t.r.t. .|.oX&X:XXX XXX|.|..X|.|.XX&XXXoXXX.X&X:X.X.Xu.6.6.z. XL.z.|.( q 0 R 0 0 / ) / C.'.) ) ) / ) ].].].'.'.[.[.[.'.'.[.[.'.`.`.`.e ).e r e e 0 8 0 / ].{.:XaXVXHXDXDXGXGXDXCXxXxXkXxXvXMXMXMXMXvXbXxXjXjXvXvXkXjXkXjXhX6X4X4X5X8X8X5X8XzXzXvXbXxXvXvXvXvXvXvXvXvXkXkXkXnXvXvXkXjXjXjXkXxXjXjXjXjX5X6XnX5X#X9XtXxXtXtXBXBXSXSX7X7XL.,.4.4.4.] L 6.] 9.9. . . .[ e.e.e.e.e.l.K.g.0.w.e.5.5.q.f.g.f.T.m.x.x.j.j.f.f.g.g.g.g.f.f.d.d.h.h.h.k.k.h.h.h.k.d.d.d.d.d.d.d.d.d.d.d.d.f.0.d.d.d.f.g.x.x.j.j.g.g.H.H.w.e.e.w.I.P.H.w.5.0.K.T.f.,.y u a a C H H E E E ' i.J.L.L.@X*X@X@X*X#XE.Q.Q.~.~.Q.Q.E.E.",
"T.T.T.T.T.T.T.K.R.P.J.t...t.Z.| w.%XE.E.Q.E.Q.Q.*X1X1X*X*X*X*X*X2X>X1X2X8X8XrXrX8XrXzXzXzXnXnXnXzXrXtXtXtX7X8X8XCXxXkXkXxXvXxXtXcXxXnXnXzXjXjXjXjXkXkXMXvXkXkXlX!.5XvXCXtX&XXXE ~ ^ C.C.) e e 7 e '.].].}.+.T 3 ~ Z.Z.Z.D.o.| t.[ { i.|.t.o. .` {.|.|.|.|.F.t.O.' O.{.{.{.}.}.Z.X.+.+.].}.oXfXsXLXBX+X#X8XBXSXZXaXaXaXwX:X:X:X:XF.{.|.|.|.F.|.|.F.t.r.i.|.|.F.t._ H o.{.D.O.| Y Q | | i.|. .|.:X&X8XxXxXDXDXFXKXKXvX#X8.L ] K t.F.o. .> ' ' ' i.|.XXXX|. X@X XJ. XF.XX&X:X:X&X:X X X&X:X&X X&X:XJ..X.Xi.y.z.z.+X X9.5.z.@XL.l.z.O.T T ( ^ ^ +.].) ) ) / w w / ) ].C.'.].[.].[.[.].[.[.[.[.[.'.'.'.r r ).).r 7 r 0 q O.oXqXaXBXHXHXHXGXDXBXCXxXvXkXkXvXvXMXvXvXvXxXvXbXvXxXjXxXvXvXxXkXjX5X5X8X8XjX5X8X8X5XjXjX5XnXjX5X5X5X8XjXjXjXkXkXvXvXvXnXjXjXjXkXkXjXjXjXkXkXhXjX5X2X8XzX8X8XtXVXxXrX8X2X9X+X4.V V h h h C _ {  . . ...[  .[ w.l.H.K.H.g.e.H.w.w.w.l.H.j.g.m.x.j.j.f.d.d.d.g.g.g.f.f.d.d.d.d.h.d.d.d.d.f.k.k.k.d.d.d.k.d.d.f.k.k.d.d.d.0.d.d.d.f.f.j.j.j.j.j.j.g.g.g.w.H.K.K.R.R.K.j.K.!.Q.x.<.m i y y a h d f k _ 9.J. XE.K.E.#X@X@X#X#XW.!.!.!.!.!.T.T.T.",
"!.T.T.T.T.K.K.K.K.P.J.e...D.D.t.P.*XE.E.*X^.1X1X6X1X2X*X*X*X-X*X6X1X1X5X8X8X8X8X8XrXzXzXnXxXnXzX8X9X9X7X7X7X9X8XvXxXxXxXxXxXtXtXcXcXzXzXzXnXjXjXjXjXkXkXvXvXkXhXGXGXkXGXBXz..X> Q ^ ) C.) ) ) C.].OX].( ~ T Y O.Q D.oXoX&X&XP.z.q.5.[ 6.6.9.9.[ _ { .. .e.[ [ e.w.H.%X=X@X&X:X:XaXuX:X&X:X&X%X&X2XxXjXjX8X8XvXxXVXBXtX8X7X7X7X:X:X:X&XXXXXXXXX&XF.J.J.J.J.J.u.9.9.o.F.t.W | D.+.+.O.{.:XaX|.J.J.*XtX9X9XVXHXDXDXjXDXvXv.,.4.5.9.i._ { _ `  .t.O.|.XX&X&X&X-X-X&X-X&X-X-X:X7X%X%XP. X-XwX-X&X&X&X&X$X+Xz.y.y.@X=X7X7X&Xy.6.z.L.y.{.Q E Q Y ! X.X.^ R T 9 9 R ( +.].( ( ].OX].].Z.].}.OXOXOX[.'.'.[.r 7 r ).e e ) 0 R {.:XaXZXSXHXGXSXAXCXtXtXxXxXxXvXvXbXbXbXvXvXvXvXDXbXvXvXvXbXvXvXvXvXxXkXjX8X8X5X8X8X5XzXxX8XjX8X5X8XjXzXjXjXjXjXkXkXjXjXjXjXxXxXjXjX8X8XjXkXnXkXjX5X5X8XzX9X8XtXBX8X2X2X#X#Xy.D F i = a h h K _ K _ .. .` [ 9.u.l.l.l.l.g.g.5.5.0.q.l.x.K.T.j.j.h.h.j.h.j.j.h.h.h.h.h.f.f.f.f.j.h.k.k.f.j.f.k.f.d.p.p.d.d.k.d.k.k.d.d.d.0.0.d.d.f.h.j.j.j.j.j.j.j.j.g.g.K.K.g.K.T.T.T.T.T.T.d.,.m x x m m m V j C [ y.J.L.l.T.E.E.E.Q.Q.Q.!.!.!.!.!.!.Q.E.R.",
"^.^.!.T.T.K.K.K.H.P.J.t...G.|.t.P.%XP.E.*X^.*X1X1X1X2X*X*X*X*X*X6X1X1X6X5X3X3X3X2X3X8X8X8XzXjX5XnXrXrXtX8X7X8X8XjXkXxXxXnXrXrXrXzXrX8X8X8XzXzXzXxXjXjXjXkXvXvXkXMXMXVXxX=X.XJ.E Q ^ ^ ^ ) C.'.[.OX}.X.1 Y D.D.{.D.XX:X&X&X3X6XR.@Xl.q.q.9.q.9.[ u.u.9.9.H.u.w.P.=XR.E.=XE.l.P.:X X XJ.L.*X*X@X#X2XxXjX8X5X8XVXBXVXBXBXaXaXtX7X:X:X XJ.J.XX&XJ.y.q.l.L.J.J.L.J.l.[ [ i.F.|.:X:X|.k o.&X:XBX*X*X*XL.7XtX8XxXDXCX8X8XDXDX9Xk.N S c.9.K 9.9.`  .|.|. XXXXXXX%X&X=X&X-X-XwX7XwX7XE.E.%XE.=X7X&X&X-X=X:X&X.X.Xc.c.=X$XL.:X:XJ.9.q.L.L..Xi.r.t. .| W g E < 3 T Y R X.+.O.+.].}.].+.X.].O.XXoXoXoXOX) e ) ).).e ).`.e q 0 Q XX7XtXHXHXDXBXVXBXBXtXxXxXjXxXvXvXvXvXvXvXvXbXbXvXbXMXDXbXvXvXvXvXvXvXxXjX8X5X5X8X5X2X8XnX8X5X8XzXxXvXxXrX8XjXkXxXjX8X9X8XxXxXxXjX8X8X8X8XjX5XjXjXzX6X1X8X6X9X3XvXxXzXVXjX#X] h h t * h d t j j d j [ ` ` [ u.9.1.,.0.g.g.0.5.0.e.e.q.0.f.h.h.h.f.d.f.h.h.j.h.h.h.h.f.f.d.d.d.d.d.d.d.f.f.d.f.k.f.d.d.d.k.k.k.k.k.d.d.d.d.d.f.f.j.j.j.j.j.j.g.j.K.j.j.j.j.g.j.j.j.T.T.R.E.R.j.7.,.M M &.M N A B j [ y.l.l.l.Q.Q.Q.E.E.E.E.!.!.!.!.Q.Q.Q.R.R.",
"^.!.T.T.K.K.I.P.H.I.J.e. .F.|.t.H.^.P.^.*X^.^.*X^.1X*X^.*X*X*X*X6X1X1X2X6X1X*X2X3X7X8XrXrXxXnXzXzX8X8XrX8X9X9X9X8XjXkXnXxXzXzXrXrXrX3X3X8XrXrXrXtX8X8X8XjXkXCXCXMXKXGXDX,.&Xj k | +.R R ].].C.OX{.D.{.i.XXqX|.F.qX:X:X&X#X1X6X<XE.c.L.E.L. X@XL.u.u.[ 5.P.P.P.-XE.q.l.@X XJ. X:X X XJ.L.%X@XE.@XAXDXtX8XtX8XaX7XaXaXtX7X:X&XXX.X.X X&X&X XJ..X X X X@X&X=X7X7X7XBX3XL.l.l.J.J.5.z.&XJXtXvXQ.1X8Xl.&XaXaX8XxXDXVXDXDXDXDX,X=.=.T.5.5.5.9.9.u. X&X:X&X&X&X-X-X-XwX-XwXwX3XrXwXE.@X*XE.*X-X*X=X3X=X7X9X$X=X+XL.7X*X X&XqXaXwX&X-XtXL.@X X X&X XJ.i.r.' o.O.| Q o.| W  .O.+.X.( o.i.o.oX:XXXoX{.R R / ].].(.e ).e 8 Q _ @XxXDXKXHXVXVXBXBXtX8XtXxXxXxXxXxXxXxXxXxXvXbXvXvXbXMXMXbXvXvXvXvXvXvXvXjX8X5X8XrX3X#X2X8X7X3X8XzXxXxXrX8X8XjXxXxXxXjX8X8XtX8X8X8X8X8X8X8XjXjXnXkXvX8X2XzX2X9X2XvXzX5XzXQ.7.C d k l d l t * h h d j _ _ K [ 0.I V N 1.0.0.1.l.l.l.g.d.d.d.h.j.h.f.k.k.k.k.k.h.h.h.h.f.k.k.f.0.q.q.q.q.f.d.q.f.f.d.d.d.d.d.d.k.k.k.d.d.d.d.d.f.g.j.j.j.j.m.j.g.g.j.j.j.K.j.j.T.T.T.T.R.E.E.E.T.f.p.=.$.*.M *.A s p L 9.q.y.L.#X*XQ.E.R.R.E.E.T.T.!.!.!.R.P.P.",
"T.T.T.K.K.K.K.P.P.P.J.t.t.|.XXw.w.^.^.*X-X^.^.1X*X1X1X*X*X*X*X*X6X6X6X2X2X*X2X3X=X3X3X3X5X8XrX8X5X5X8XtXxXxXtXtXxXxXxXvXbXvXxXrXcXtXrXrXrXrXtXtX8X8XxXxX8X8XjXvXFXMXCX8X$Xc.[ ` o.D.^ ~ OXOX) }.F.F.oXXXI.J.J.uX:X&X=X7X2X1X~.~.>X+X#XR.v.z.@X*XL.L.0.w.=X%XH.E.L.l.J.@X@X@X XP..X XL.P.%X%X@X=XtXaXtXBXBX:X7XtXtXtX7X:X:X&X:X:X:X:X&X&X:X:X&X&X7X@XL.*X7X=X=X2X*X5XxXrX=X@X*X7X@X@XCXxXGX4XhXvXtX7XaXaX7XtXVXCXxXHXHXDXbX,Xn.<.1.d.L 5.L. X X&X:XXX X&X&X-X-XwXwXwXwX*XwXrX*X3XE.L.E.*X*X=X-X=X$X=X2X2Xc.y.7X7X:X:X&X&X:X:X;XL.@X&X Xy.l.J.J.|.&X XoXoXi.o.O.o.t. .E g | |.{. .i.:X:XXX{.+.R ( +.].'.e r r e +.O.k L.GXHXGXVXDXGXDXBX9X2X9XxXvXxXxXxXjXxXxXvXvXkXvXFXDXvXnXvXMXvXvXnXnXxXxXkXjX5X8XrX3X#X3XxXxX8XrXrX8X9X8X8XxXrX8XzXjXzX8X8X8X8X8X8XjX8X8X8X8XjXjX6XnX8X2X8X#X2X2XCXzX1X1XT.4.D - k U k k d d j k j k K K k [ K P P L ,.5.5.5.L L L L 1.0.g.j.f.f.k.k.f.f.j.j.h.h.h.f.f.k.f.k.0.f.g.g.g.l.g.d.d.0.d.d.d.d.d.d.k.k.d.d.f.f.g.g.d.g.g.j.j.j.j.j.j.K.j.g.j.T.T.T.T.T.T.E.E.E.E.Q.x.7.p.N c *.N ,.1.a s L q.9.u.@X*XQ.E.R.T.T.E.Q.T.T.!.!.!.R.P.I.",
"0.d.d.g.j.K.T.E.P.U.P.e.t. XP.H.K.P.^.^.*X*X*X^.*X*X*X*X*X*X*X3X3X3X3X3X3X2X*X*X5X5X5XrXzX8X8XzXvX2X#X2X2X#X#X7XxXxXxXxXzXrX8X8XrXrXrX5X8XzXxXrXzXzXrXjXxXvXVXVXDXDXGX#XE.l.{ ' o.+.+.OXOX}.oX| J.=XtXtXtX7X=X7X7X7X3X2X*X#XQ.#XQ.#X#X#X#X*X2X2X3XQ.l.K.*X%XP.;Xu.F. X XP. XJ. XL.@X@X@X*X8XrX7XtX=X@X=X8XtXtXtX7X7X7X7X7X7X:X&X:X:X:X:X:X:X:X*X=X=X3X7X2X*X=X8X2X8XnXbXCXCXCXCX#X#XvXDXxX4X4XVXCXCXCXvXCXAXVXxXVXVXGXvXbX4XW.-.=.j.k.4.*XyX&X&X&X X X;XwXwXwX-X3X7XwX7X3X3X7X7XrX*X%X*X*X*X-X7X7X:X&X=XL.c.&X:X=X@X X@X XL.q.5.[ u.I.J.t.u.J.|.F.F.|.|.|.|.|.|.XXt.` t.F.F.9. .XX|.|.XX{.+.Z.].Z.X.) ) ) (.(.( X.k z.tXHXBXSXGXbXvXbXvXvXvXxXvXxX8XzXjXnXbXxXvXvXbXbXbXbXbXvXvXvXnXnXvXvXvXkX8X5X8XzX8X5X8XzXrX8X8XjXrXrXrXrXzXzXzXzXjXjX8X5X5X8XzXzXnXzXjXjX8X5X8X8XzX5X6X6X2X1X8X9XxX2XW.4.L D C k k C g > > k k f f j j j j K j j K [ P [ 5.[ e.e.5.5.q.g.f.K.4.7.g.7.7.x.x.g.g.j.f.d.k.d.d.d.f.j.j.j.j.g.d.g.d.d.k.d.d.d.k.d.d.f.f.j.g.g.g.g.g.g.g.j.j.g.g.j.j.j.j.K.j.j.K.K.K.R.Q.E.T.Q.Q.T.k.<.*.A A V A m m a 0.w.g.w.E.Q.*XR.E.T.H.E.Q.!.!.!.!.K.H.g.d.",
"0.0.g.g.K.K.K.K.P.P. Xt.w.P.P.I.K.E.^.^.*X*X*X^.^.*X*X*X*X*X2X3X3X3X3X3X3X*X2X2X5X5X5XzXzXjXjXjXxX3X2X9X8X8XrXBXxXxXxXxXtXtXrXrXtXtXrXrX8XzXzXrX8X8XzXxXbXVXVXVXGXDXDX+XL.y.{  .| {.fXdX+.9 O.XX@XxXCXvXvX8X3X8X2X3X5X2X1X*X#X*X#X#X#X#X#X*X2X2X6XQ.K.R.3X%XK.P.Y.G. XI.I.P.J. XL.@X@X@X*X8XxXtX=X X X=X8XtXxXvXtX8X8X8X8X8X9X:X:X:X:X:X:X:X7X=X3X=X3X3X2X*X=X3X8XjXnXvXvXvXvXxX5XW.4XDXCX9X2XVXCXDXCXvXcXAXAXbXVXxXnX2XjX4XM.M =.*.c x.xX3X;X-X;XXX%X-XwXwXwXwX7X7X7X3X-X-X3X7X7X@X@X=X=X*X=X=X@X7X7X7X=XL.:X7X:X:X=X@XL.c.L.@XJ.t.e.i.|. XJ.t.u.F.F.J.J.|. XXXF.|.oXXXF.[ [ 9.t.O.G.{.+.( Z.].+.( / / e ) ) @.Q }  XBXHXBXBXBXzXnXnXnXnXnXxXxXvXnXbXnXnXvXnXvXvXvXvXvXvXvXvXvXvXvXnXvXvXvXkXjX5XzXzX8X5X8XzXzX8XjXjXjX8X8X8X8XzXzXzXzXjXjX5X5XzXzXzXjXjXzXzXzXzXrXzXrX5X6X6X6X1X2X5X2X2Xv.4.S D h h d f d - > f f f G J K P P K H H _ I I ..e.H.J.H.l.0.e.g.K.f.q.l.xX#XK.1.7.g.f.h.h.d.d.d.k.j.j.j.j.j.k.d.k.k.d.d.d.d.d.d.d.d.d.h.j.j.j.j.j.g.g.g.g.g.g.g.g.j.j.j.j.K.j.j.K.K.K.E.Q.Q.Q.Q.!.n.s.,.A P P L L A m y 1.g.K.H.%XE.Q.T.T.T.K.Q.E.T.K.H.k.0.3.3.3.",
"0.g.H.K.T.K.K.Y.H.P.XXw.w.P.P.P.K.^.*X*X*X*X*X*X^.*X3X3X3X3X3X3X3X3X5X3X3X2X2X3X8X5X5XzXzX8X8X8XxX8X9X5X2X2X5X8XxXxXxXxXxXxXzXzXtXzXtXrXrXtXzXrX8XrXxXbXVXbXbXvXbXvXvXT.l.q.9.t.+.}.oX{.X.! ' .X=XvXCXvXxX8X3X8X2X5X5X2X2X*X*X*X#X#X#XQ.Q.Q.*X2X3XQ.K.R.3X%XH.P.F.G.P.I.J. XJ. XP.@X@X@X@X=X7X7X@X.X X:XtXxXBXVXvXxXvXxXtXtX8X7X:X7X:X=X=X&X7X:X7X7X2X2X=X=X2X3X8XjXnXnXnXnXjXxXxXW.,XVXVX2X,XGXDXDXCXxXxXVXAXBXcXrX5X!.>X>XM.c M *.N #XxX#XwX-X;X%X;X-XwX:X3X3X3X3X-X-X-X3X3X3X-X%X%X-X-X=X-X=X*X7X:X@X9XL.@X+X&X:X7X=X@X X@X&X:XXX.XI.J.u.J.&X X&X XJ.J.J.J.i.G.i.9.[ I 5.J.&X X X|.t.o.Z.{.+.+.( ( (.'.(.) @.< { :XSXHXBXtX7XzXnXnXnXvXvXvXvXvXnXbXnXjXnXjXnXvXvXvXvXvXvXvXvXvXvXxXxXvXxXnXjXjXzXzX8X5X8XzXzXzXzXjXjX8X8X8X8XzXzXzXzXjXjXjXjXnXzX8X5X5XjXzXzXzXrX8X5X5X6X6X6X1X>X5X+X,Xf.4.S 4.D t t p - - > , f H _ ` [ I I I _ _ _ I ` e.u.u.u.H.H.w.3.0.K.2X#Xg.d.7.q.f.E.f.g.j.f.k.d.k.j.j.j.j.j.d.d.d.d.d.d.d.d.d.d.d.d.d.k.h.j.j.j.j.j.j.g.g.g.g.g.g.g.j.j.j.j.K.j.j.K.T.T.E.E.!.Q.Q.m.2.1.,.V K ] ] K V s y P K.K.H.P.R.Q.K.K.T.T.Q.K.K.g.d.3.1.3.3.d.",
"Y.Y.K.K.T.T.K.K.H.P.P.t.e.P.P.E.K.^.*X*X*X*X*X*X*X1X3X3X3X3X3X5X3X3XrX5X3X1X3X5X8X8X8XzXzX8X5X5X1X2X3X2X3X8XxXxXzXzXzXzXxXxXzXzXtXtXrXrXrXrXzXrXrXxXvXbXbXxXzXzX8XjXjXT.c.q.9.o.' oXdXX.G Q  .:X7XxXvXxX8X8X9XrX9X5X3X2X*X#X#X#X#X#XQ.Q.Q.Q.Q.*XrX*Xg.K.*XP.H.P.J.F. XI.I. XL. X@X%X@XL.L.L.E.@X&X@X*X7XxXxXxXBXCXBXCXCXxXtX8X7X:X7X7X:X=X=X7X7X7X7X=X*X=X3X3X5X8XjXnXnXzXnXxXxXvX#X2XCXVX2X#XGXDXDXCXxXxXcXBXbXrXxXxXR.h.j.h.M $.*.<.,X8X=XrX-X-X;X-X-X-X-X=X-X-X=X*X-X3X7X7X7X-X%X;X-X-X=X-X*X*X=X@XL.tX X*X:X&X=X=X:X7X7X*X Xu.u.J. X&X|.u.9.H.J.J.i.u.u.e.9.[ [ [ 9.L.=X7X-X-XwX X_ E {.{.G ( / 0 0 / 0 8 6 < o.:XJXPXAXtX7XbXbXvXvXvXvXvXvXnXjXvXnXnXnXjXnXvXvXvXvXvXvXvXvXvXvXnXnXxXxXxXkXzXzXzXzX8XzXzXzXrXzXzXzXzXrX8X8XzXzXzXzXzXzXzXzXzXjX8X5X5X5X5XjX5X2X2X3X6X1X6X6X1X1X2X#X$Xv.8.=.b.S h u p t p > G H _ ` ` ` I I K I _ _ ` [ e.u.w.u.H.L.H.w.0.f.q.E.#XL v.d.j.7.g.g.j.j.g.g.j.j.j.j.j.d.k.d.d.d.d.d.d.d.d.d.d.d.k.h.j.j.j.j.j.j.j.j.j.j.g.g.g.g.j.j.j.j.j.j.j.K.T.T.E.T.T.^.Q.d.<.,.A j K [ K f a a m m H.P.P.g.K.Q.T.j.H.K.E.j.g.d.3.3.3.d.g.K.",
"H.Y.H.K.T.!.T.K.I.I.H...e. X^.^.E.^.*X*X*X*X*X*X3X3X1X1X2X3X3X3X3XrXtXrX3X3X3X5XrX8XrXzXzX5X5X5X5XzXvXxXxXbXbXbXjXjXzXzXzXzXzXrXrXrXrX8XrXtXxXrXrXxXxXxXxXzXzXzXxXjX5XT.x.4.[ ` o.oXfXX.g '  .:X8XvXvXjXxXxXzXxX8X5X2X*X#X#X#X#X#X#XQ.Q.Q.Q.#X*XrX=XK.H.%XP.H.I.J.F.I.J.J..XJ. X X@X@XP.L.L.E.+X=X*X7X8XtX9X9XtXxXCXBXCXxX8X8X9X7X7X8X9X7X9X7X7X7X7X=X*X3X8X8X8XjXzXnXnXzXzXnXxXvX8XjXxXxX5X,XDXCXDXVXvXxXxXxXxXrXvXvXM.p.<.s.*.-.c p.8XzX3X-X=X-X-X-X-X-X-X=X3X=X=X-X3XwXwX7X3X3X%X*X-X*X=X-X*X=X=X=X X-XI l.&X-X=X%X*X7XtX7X&X%X%XL.u.u.J.H.9.0.9.[ [ [ [ [ [ [ l.E.@X*X2X=X@X*X-X@X9...XXXX| X.( q 8 q 5 & : E r.@XSXPXHXtXxXxXxXxXxXnXnXnXnXvXzXvXxXbXDXxXnXvXvXvXvXvXvXvXvXvXxXkXjXkXxXxXxXzXzX8XzXzXzXzXzXrXzXzXzXzXzXzXzXjXzXzXzXzXzXzXzXzXzXjX5X5X5X5X6X1X#X1X6X5X6X1X6X>X2X1X2X#Xm.4.4.f.A u a t * p - H _ ` _ _ I I I J J H _ [  .e.e.e.w.w.w.g.H.w.3.g.#X@Xm f.f.T.j.j.j.j.j.g.g.g.g.g.g.d.d.d.d.d.d.d.d.d.d.d.d.d.d.h.h.j.j.j.j.j.j.j.j.j.j.j.j.j.j.j.j.j.j.j.j.j.K.E.E.E.E.Q.1XQ.d.,.L V j H K H d p V K i e.P.^.Y.H.Q.T.j.d.d.K.g.k.d.d.d.g.g.g.g.",
"H.Y.Y.H.T.!.!.T.P.I.H.e.w.%X%X*X^.^.*X*X^.*X*X^.2X*X*X*X*X*X2X3X5XrXtXrX5X3X3XrX5X5X8XzXzX8X5X5XAXDXGXDXbXxXzX8X8XjX8XzXzXzXjXrXrXrXrX5XrXtXrXrX8XrXzXxXzXzXzXxXbXkX>Xx.x.L [ { |.{.X.Y o.t.r.@XxXCXvX8XxXxXrXxX8X5X1X#X#X#X#X*X#X#X#X#XQ.#X*X*X3X3XE.H.@X XY.F.J.F.I.J.J..XJ.P. X@X@X@X@X#X$X2X7X7X8XtX8X7X7XtXxXxXxXxXxXtX8X7X7X7X9X7X7X7X7X7X7X3X2X2X3XrXrXrXzXnXnXnXzXjXzXzXxXvXvXjXjX9X2XDXCXDXVXCXxXzXzXxXcXxXnXm.p.<.2.M x <.hXvX5X3X3X3X-X-X-X-X3X-X3XwX3X3X3X7X7X7X3X-X3X*X*X*X%X*X-X*X7X-X-X%X-XI 0.J.P.@X=X=X-X7X-X@XP.-X7X&X&X-X&XJ.l.e.5.[ 5.9.w.H.@X*X*XE.R.#X2X3X=X=X-X&XJ.J.F.O.+.Z./ / ) q & 6 W o.z.aXLXHXtXcXzXzXzXzXnXnXxXxXbXnXxXxXbXVXjX8XxXxXvXvXvXvXvXxXxXxXjXjXjXjXkXnXzX8X5X8XzXzX8XzXrXrXzXzXzXzXzXzXzXzXzXzXzXzXzXzXzXzXzXzX8X5X6X1X1X#X1X2X5X6X1X1XQ.2X#X9X#XR.,.=.8.m u m t t j d K _ _ K H H I ` J J J W ..9.e.[ e.e.5.5.w.K.K.g.d.@Xx.f.g.x.0.K.j.x.K.x.j.g.g.f.d.d.d.d.d.d.d.d.d.d.d.d.d.d.d.j.j.j.j.j.j.j.j.j.j.j.j.j.j.j.j.j.j.j.j.j.j.j.j.T.Q.E.Q.Q.Q.1XQ.d.,.P K K H H k j d V j + P H.E.K.K.Q.T.j.0.3.g.d.d.d.g.H.K.K.K.Y.",
"K.Y.Y.K.!.^.E.T.P.P.P.w.Y. X%X*X*X*X^.^.^.*X*X^.*X*XQ.Q.*X*X3X3XrXrXrXrXrX5X5XrX8X8XrXtXzX5X3X5XcXvXvXbXbXvXnXnXzXzXzXzXzXzXzXzXrXrX3X3X5XrXrXrX3X8XxXxXzXzXzXxXvXjXW.x.c.L 6.{ O.O.E Q t.r.J.=XxXCXxX8XjXjX8XzX8X5X2X1X1X1X*X#XQ.#X1X1X#X#X*X*X*X7X%XH.L..XF.F.I.F.P.J.J. XJ.L. X X@X*X=X:X7X9X8X8XxXBX8X=X2XtXxXtXxXxXxXxX8X7X7X:X2X=X=X7X7X3X3X9X8X3X8XrXzX8XzXzXnXnXnXzXzXnXjXxXvXjXxX8X2XVXCXDXDXVXxXzXxXbXCXzX8Xm.k.<.<.M b <XKXGX2X2XtX7X-X-X-X3XwX3X3XwX7X7X7X3X3X-X3X3X3X*X*X=X%X*X=X%X%X%X%X-XrX-X7X-XH.%X-X-X-X-X;XP.P.J.w.H.-XBXBXwXL.w.e.H.@X X-XtX7X7X3X3XrXrXrX7X3X-X-X&XJ.u.t.` R ) / ( ) 9 2 < } t.y.:XSXHXtXxXzXnXnXxXxXxXxXxXvXjXxXnXxXvX5X6XjXzXxXvXvXxXxXnXnXnXnXzXjXjXzXnXzX5X5X8XzX8X8XzXzXzXzXzXzXzXzXzXzXzXzXzXzXzXzXzXjXjXjX5X5X6X1X1X6X1X1X6X6X6X1X1XQ.1X#X,X>Xc.4.*.7.x y m i t C C K _ _ H H H I ` W W W W `  . .[ e.w.w.w.w.H.E.%Xg.R.d.x.d.x.0.E.K.K.K.K.g.g.d.d.d.d.d.d.d.d.d.d.d.d.d.d.d.d.j.K.j.j.j.j.j.j.j.j.T.T.j.j.j.j.j.j.j.j.j.j.j.j.T.!.Q.T.!.Q.Q.Q.T.d.,.P K K K k f k h h i a 1.K.K.K.K.E.K.j.0.1.d.f.g.g.g.K.E.^.E.K.",
"K.K.K.T.Q.Q.E.T.E.P.%XH.H.^.^.*X*X^.^.^.^.*X*X^.*X^.E.^.*X2X3X3XtXrXrXrXrXrXrXrXtXrXtXzXtX3X1X2XGXbXvXbXbXnXjXjXzXnXnXnXnXzXzXzXrXrX3X3X3XrXrX5X3XrXxXcXxXzXzXzXvXjXW.m.T.L ] k o.{.' ' t.z.&X=XxXCXxX8XjXxXzXxXzX8X5X2X2X1XQ.Q.Q.#X1X1X#X#X#X#X*XrX*Xw.l.P.J.J.|.J. XP. X%XL. X@X@X@X*X=X7X2X7X8XtXxXtX2X@X=X9XxXtXtXxXCXxXtX9X9X9X2X=X2X8XrX8X3X8XrX8X8XrXrX8X5XjXzXnXnXnXnXxX8XzXjX8XvX8X#XDXCXDXDXVXxXxXcXVXcXrXzX!.k.*.;.*.M.vXvXGXxX*XrX*XwX-X-X-X3X-X-X-X7X7X3X-X=X-X3XwX3X=X=X=X*X*X*XE.P.=X&X-X%X;XwX=XwXwX-X-X-X7X-XE.L.%X-X:X=X@X@X@X;XH.H.=X-XP.P.-XrX7X7X8X7X3X2X3X7XwX7XP..X:XXX` ^ ) R 9 R : 1 Q } _.i.&XVXLXxXxXxXxXxXnXnXnXzXzXnXjXvXxXxXxX5X5X5XjXnXxXvXxXnXjXjXzXzXzXjXjXjXzXzX5X5X8XzX8X8XzXzXzXzXzXrX8X8X8XzXzXzXzXzXzXzXzX5X5X5X6X2X1X1X>X6X1X>X1X6X1X1X6X>X>X1X+X2Xv.8.=.7.x y m i i V C _ ` ` _ G G J I ` | | W ` .. .[ [ 5.e.w.5.I 5.H.0.K.x.d.g.x.K.R.K.K.K.K.j.g.d.d.d.d.d.d.d.d.d.d.d.d.d.d.d.d.j.T.j.j.j.h.h.j.j.m.T.T.K.j.j.j.j.K.j.j.j.j.j.j.T.Q.Q.T.T.Q.Q.T.j.0.1.P K [ K f p j j a y 7.K.Q.K.Q.E.R.g.j.f.3.f.f.K.H.H.K.K.K.K.K.",
"g.g.H.!.Q.^.T.E.P.P.P.H.H.^.*X3X*X^.^.^.^.*X*X*X*X*X*X*X*X2X3X5XrXrXtXzXcXzXrX3XrXtXbXZXrX*X3XzX8XxXbXcXzXzXzX8XzXzXzX8X8XzXzX8X*X3X3X3X-X3X3X3XtXcXcXxXrXrXzXzXnXkX!.R.q.L h k g |.{.i.i.J.:X=XVXCXxXjXjXjXzXzXxXzX8X5X5X2X6X6X#X#XQ.Q.1X1XR.g.E.=X*Xw.L.&X:X X X X@X%X&X&X&X@X@X@X@X=X2X7X7X2X9X8X7X8X9X=X7X2X9X8XvXvXxX8X8X8X9X2X2X2X9X8X8X8XzX8X5X5X8XrX8X5X5XjXnXnXnXnXxXxXzX8XxXjXjX8X>XGXCXCXVXVXVXCXbXbXbXzXjXM.h.<.p.M >X4XjXbX5X6X*XtX3X-X3X-X*X*X-X7X3X3X3X3X3X3X3X3X-X*X*X-X-X-X*X%X*X*X;X-X-X-X;X;X-XwXpX-X;X%XE.P.E.%X-X7X-X-X-X%XK.P.*X3XwXwX-X%X=X7XwXrX7X3X-X-X=X&XwX:X X:XoXW 9 9 R R ( : G g { z._ &XJXGXzXvXxXxXxXxXxXxXzXzXxXxXxXxXxXzX8X5XjXjXzXzXzXjX8X8XnXzX8X5X5X2X2X2X8X8X8X8XjXzXzXzXzXzXzXzXzXzXzXzXjXjXzXnXnXnXnXnX5X5X2X1X1X1X1X1X1X1X1X1X2X2X1X*X1X1XW.>X>Xj.8.;.p.+ c m + m 5.5.5.9.[ K K H H .._ W ` ` .. .O.t.[ u.e.I I 5.w.H.g.1.1.x.E.x.g.R.K.K.K.K.g.d.0.0.g.d.d.d.j.j.j.d.d.d.d.d.d.d.j.K.j.j.j.j.j.j.j.j.T.T.j.j.j.j.j.j.j.j.K.j.j.j.T.E.^.K.T.Q.T.T.T.3.d.m P j H j k a a Z ,.k.T.K.K.Q.K.K.K.j.g.g.g.g.H.K.K.K.K.g.g.g.",
"K.H.K.!.Q.^.!.E.E.P.P.H.H.%X*X1X*X*X^.^.*X*X*X*X*X*X*X*X*X3X3X5XrXrXrXzXcXzXtXrXcXcXcXcXmXZXbXtX5X5X5X8XzX8X8XzX8XrX8X5X8XzXzXrX*X3XrX3X-X-X3X3XzXcXcXzXrXrXzXzXvX5Xm.m.f.6.p d E {.|.F.i..X=X9XCXvXxXxXxXxXxXxXzXzXnXzXzX5X#XQ.*X*X1X*X#X#XQ.T.E.*X*Xl.@X&X:X&X-X-X=X=X*X&X@X@X@X=X7X8XtXtX8X8X9X9X7XtXtX7X7X2X8XtXxXCXvXxX8X8X9X7X5X7X8XjXzX8XxXrX8X8XrXrX8X8X8XzXnXnXnXnXnXxXxXzXxXxXxX9X2XGXDXDXVXVXVXCXbXbXxX8X5Xm.h.p.p.M h.<XkX4X>XW.R.E.tXwX-X*X*X=X7XrXwXwXwX3X3X3X3X-XwX3X-X-X*X*X-X-X%X%X%X%X*X-X-X-X-X-X3X-X-X;X%XP.P.P.*X-X-X-X3X=X7X3X3X-X3X3X-X-X7X7X=X*X*X=X7XtXwXXX&X:X X|.|.o.9 9 9 9 ! > E E { r._ J.BXBXzXCXxXxXxXxXxXxXnXnXzXzXzXxXxXxXjX8XzXzXzXzXzXzX8X8XzXjX8X5X5X5X5X5X8X8X8X8XjXzXzXzXzXzXzXzXzXzXzXzXnXzXzX5X5X6X6X1X2X6X1X1X1X1X1X1X1X1X1X1X2X2X2X1XQ.1XW.#XR.7.<.8.s.x x c + u A 6.] 9.9.[ [ I K ` | ` ` ` [ [ ......[ I I e.w.5.I 3.1.5.g.K.K.K.K.K.K.K.K.g.f.0.d.f.d.d.g.j.j.j.d.g.g.g.g.g.j.j.T.j.j.j.j.j.j.j.K.K.j.j.j.K.j.j.j.j.K.K.j.K.T.Q.*XQ.K.Q.2XQ.*XT.1.1.7.L.e.p p p j m N *.2.T.T.T.!.K.K.K.K.K.K.T.R.K.K.K.K.K.g.g.g.",
"K.K.T.E.Q.^.!.E.E.P.P.H.H.%X*X*X*X*X*X*X1X1X*X*X*X*X*X*X2X3X3X5XrXrXtXzXtXtXtXtXcXcXrXrXmXSXAXrXbX5X2XrXzX8X5XrXrXzXrXrXzXcXcXtX*X3XrXwX-X-X3XrXbXbXcXtX8XrXzXzXvX~.h.j.0.5.= k ' {.|.{.r.@X$XxXCXvXxXxXxXvXxXxX8XzXxXbXxXzX2X#X#X1X2X2X6X5X8X8XzXtX8X@X7X=X7X:X=X=X*X*X@X@X@X#XE.#X7X9X9X2X2X9X8X7X2XBXVX8X8X2X9X8XxXCXCXvXjX8X8X8XjX8XxXxXxXxXxXzXzX8XzXzX8X8XzXzXnXnXzXzXzXzXxXzXxXvXxX2X2XDXDXDXVXVXVXCXBXBXcX8X5XM.x.a.s.M M.kXkXp.m.W.5XxX*X*X%X*X=X3X3X3XwXwXwX3X3X-X-X-X3X3X-X*X%X%X*X-X-X;X%X^.%X;X;X-X;X-X-X;X;X*X*X%X@XE.*X-X=X-X3X-XwX7X-X*X=X-X7XwX-X=X=X=X-X-X:X:X:X X&XqXXX|.D.~ 9 ^ ( ! g = E } { r.] u.tX9X9XzXzXzXzXzXzXnXxXxXzXzXzXzXxXxXzX8XzXzXzXzXzXzXzXzX8X8X8X5X8X8X8XzXrXrX8X8XzXzXzXzXzXzXxXxXxXzXzX8X5X5X6X6X6X1X1X1X6X1X1X1X1X1X1X1X1X1X1X1X2X2X2X6X5X5X1X,XM.<.;.p.p.x z x y y m 6.5.q.q.9.u. .I I ..| [ [ ` ` | | ` [ ` [ ..I J J I 0.g.g.K.P.P.K.K.K.K.H.g.d.d.d.d.f.g.g.g.g.g.g.j.g.g.j.K.K.K.K.j.j.j.g.j.j.j.x.j.j.x.j.K.K.j.j.x.g.g.j.K.E.Q.*XE.K.E.*X*X*XT.P P 0.d.5.= j p h V A N <.k.n.k.k.g.f.f.g.Y.K.R.E.K.K.K.K.K.K.H.H.",
"I.K.T.E.Q.Q.^.E.K.I.P.H.H.%X^.*X*X*X*X*X*X*X*X*X*X*X2X3X3X3X3X3XrXrXtXtXrXrXtXzXtXzXzXrXrXcXcXtXSXzX5XrXzXrX5XrXzXzXzXtXzXcXcXtX*X3XrX3X3X3XrXcXbXbXcXrXrXrXzXzX5Xm.j.7.L ] * o.o.i.{.F.r.&X+XvXvXvXvXxXvXvXxXxXzXzXzXzXzXzX5X5X*X3X5X5X5XnXVXDXGXVXcX7XxX7X7X8X2X3X2X=X#X#X*X=X2X9X9X9X2X2X2X9X9X2X2XCXVX9X9X=X2X8XxXCXvXxX8X8X8XjXxXxXxXxXxXxXxXzXzXzXzXzX8X5XzXnXnXnXzXjX8X8XxX8XzXbXzX>X2XVXDXDXVXVXVXVXBXBXBXxXzXR.h.p.s.M s.lX4Xp.n.!.>X6X3X3X7XrXrXwX7X7X7X3X3X3X3X3X-X-X-X-X3X-X*X%X%X%X-X*X%XP.E.%X;X-X-X;X%XP.P.%X-X-X-X*X=X3X-X-X3X3X=X*X*X=X-X3X7XwX=X=X3XwXwX:X&X XXX XoXoXXXXX{.^ T R ( ' E = k _ { { r.i.tX7X7X8XxXzXzXzXzXxXxXxXxXxXzXzXzXzX8X8XzXzX8X8X8X8X8X8X8X8X8X8XrXzXzXzXzXzXzXzXzXzXrXrXzXzXnXxXnXzX5X5X1X1X1X1X1X6X6X6X6X6X6X6X6X6X6X6X1X1X1X1X6X2X3X5XxX8X2X5XW.p.p.;.*.z + x M x u v.q.g.w.u.H.u.[ [ ` ` [ [ [ ......` ..| ` I J J [ e.l.L.H.H.L.P.K.T.K.H.g.g.k.k.k.d.g.g.g.g.g.g.g.j.g.j.K.T.T.T.K.g.g.g.g.x.x.K.K.K.K.K.K.K.T.j.j.H.g.f.j.K.E.Q.Q.Q.T.T.E.*X3XR.1.,.L V j p K f j L ,.N *.2.k.d.3.d.w.f.g.g.K.K.K.K.K.K.K.K.K.K.E.",
"I.P.E.E.Q.Q.Q.T.K.I.P.H.H.^.E.Q.*X*X*X*X*X*X*X*X1X1X3X3X3X3X3X3X5XrXrXrXrXrXtXcXtXtXtXcXtXpXwXcXrXrXrX7XrXtXtXrXrXtXrXrXrXrXrX3X3X3X3X3X3XrXcXbXcXcXtXrXrXzXzXrX#Xp.p.8.L 6.f i.o.i.{.i.y.&X$XVXvXvXvXxXvXvXxXnXvXxXnXzXjX5X5X2X8XrXrX8XzXxXDXDXbXxXjX5XBX8XxXCXtXtXtXrX9X2X2X9X9X8X8X9X9X2X9X9X2X9X9XvXBX2X=X=X7XtXBXCXjX8X8XjXjXxXvXvXvXxXxXvXvXvXnXnXnXnXzXzXnXnXnXnXzXzXjXjXnXjXnXbX8X#X5XCXDXDXVXVXVXBXBXBXBXcXnXm.k.7.p.*.M.lXM.<.2.h.p.x.8XrXtXrX7X3X-X3X-X-X3X3X3X3X3X3X3X3X-X-X-X-X*X%XP.P.P.P.@X;X-X-X=X=X;X%X%X;X-X-X-X*X-X7X-X-X-X-X-X-X3XwXwX3X-X-X7X3X2X2X-X-X-X&XoX X|.|.XXoX}.+.( T Y '  .p k C } { r.r.:X7X8XrXxXxXxXxXxXxXxXxXxXxXzXzXzXzXzXjXzXzX8X8X8X8XzXzXzXjXjXjX8XzXrXrXzXzXzXzXrXzXzXjXzXzXzXzX8X5X6X#X2X6X1X1X1X1X1X6X2X2X6X6X6X6X6X6X6X6X1X6X6X6X3XrX8X5X2X5XM.p.s.;.M z z c A c u v.f.g.q.e.H.u.e.5..... . . . . . .O...I H | ..| t.u.u.H.H.l.g.H.K.K.K.j.g.k.k.k.k.k.g.g.g.g.g.g.g.g.g.g.j.T.T.K.K.g.g.g.l.x.x.x.x.K.K.K.K.K.K.j.j.K.H.K.K.E.Q.E.E.E.E.R.E.*X-XP.1.1.P 1.V K f p K V L A *.2.k.k.d.d.f.g.K.K.K.K.K.K.K.K.K.K.K.K.P.",
"K.K.E.E.Q.Q.Q.T.E.P.P.H.K.^.E.Q.^.^.*X*X*X*X*X*X1X2X1X1X3X3X3X3X3X3X3XrXrXtXtXcXzX3X3XtXyXrXpXuX3XrXrXrXrXtXtXrXtXtXtXrXrXrX7X3X3X3X3X3X3XtXbXbXcXtXrXrXtXzXtX8XR.p.<.7.6.u.K o.o.i.{.i.J.&X9XVXvXvXvXvXvXvXxXnXxXvXvXvXbXxXzX8XrXrXrXrXnXbXDXDXvXjX8X5XCXxXvXCXxXxXxXxXxXzX8XxX5X9X8XjXxXjX8X9X8XxX8XCXBX9X7X=X8XxXBXxX8X5X5XjXjXxXvXvXvXxXxXvXvXvXbXbXbXbXvXbXbXNXNXnXnXzXzXzXxXxXvXVX8X1XxXVXDXDXVXVXVXBXbXcXxXxXjXx.p.7.h.<.~.<Xs.-.*.2.,.h.g.T.*X3X3X=X@X@X-X-X3X3X3XpXpXwXwX3X;X%X*X;X*X*X%X%X%X%X;X=X-X-X*X-X-X-X-X-X*X%X-X%X=X3X-X-X-X-X-X3X7X-X-X-X-X3X3X2X2X*X=X=X-X:X:XXXXXoXoX{.+.X.+.X.o.o.[ = C r.r.o.r. ..X=X=X3XzXzXzXxXxXxXxXzXzXjXjXzXzXxXnXnXnXzXzXrXzXzXzXnXzXzXzXjXzX8X8X8XzXzXzXrXzXzXzXzXzXzXzXzXzX8X2X1X6X1X1X1X1X1X1X6X2X2X2X6X6X6X2X2X6X1X1X6X6X2X3XtX5X8XjX5Xa.*.2.-.M x x M Z c x f.f.f.0.0.u.u.e.e.9.9.9.e.e.9.t.O...t.O.| ` ` ` ..t.e.e.u.w.w.Y.R.K.K.j.g.k.k.k.k.g.g.g.g.g.g.g.g.f.g.g.j.K.K.j.g.g.g.l.g.g.g.g.g.K.K.K.K.H.H.K.H.K.H.K.P.E.E.E.T.K.L.P.E.*X%Xw.P L V 5.K 9.j p C B A A P 1.3.3.d.0.f.g.K.K.K.K.K.K.K.K.K.Y.Y.Y.Y.",
"H.K.E.E.Q.^.Q.T.E.P.P.H.K.^.E.E.^.^.*X1X*X*X*X*X*X*X*X*X2X3X3X3X3X3X3X5XrXtXtXtXrX3X3XpXwXwXpXpXtXtXrXrXrXwXrXrXtXyXtXrXrXtXrX3X3X3XwX3XwXtXcXcXyXtXrXrXtXcXrX3Xx.j.<.7.q.y._ ` ' i.{.t. X@XvXCXvXvXvXvXvXvXvXvXxXvXbXbXDXDXbXbXrXtXxXxXbXbXDXDXVXvXnX5XVXxXvXvXzXrXjXjXjXxXxXxXxXvXbXDXDXDXVXCXxXCXxXCXxXtXtX2X8X8X8X9X5X5X8XjXxXvXvXvXvXvXvXvXvXvXbXbXbXbXbXbXbXbXbXbXNXnXvXbXxXVXVXDX9X2XAXVXDXDXDXDXVXbXxXzX5X5X5Xh.p.p.h.;.<.2.-.-.<.<.N A A 3.K.*X3X3X-X=X3X3XpXpXpXpXpXwXpX-X;X%X%X*X*X*X-X-X-X-X=X=X=X*X*X-X-X-X-X-X*X%X;XP.;XwX-X-X-X3X-X-X-X-X-X-X-X7X2X2X5X3X3X-X-X-X:X&XoXXXXXO.Q Q X.Z.{.o._ t ] i.z.t.r. .i.&XE.#X5X8X8XzXxXxXzXzX8X8X8XzXxXxXxXxXxXzXzXrXzXzXzXzXzXrXrXrXrXrX8X8XzXjXrXzXzXzXzXzXxXnXzXnXxXnX5X2X1X1X6X2X6X5X5X5X6X6X2X6X6X2X6X6X6X1X1X6X2X*X3XzXxXzX5XW.2.-.s.&.M x c c m x m f.d.f.0.q.l.u.e.e.e.9.9.e.9.9. . .| G.G...H J J ` e.[ 5.w.w.w.g.K.K.K.j.j.j.j.k.k.j.g.d.d.d.g.g.g.d.d.g.j.g.g.g.g.f.w.g.g.g.g.f.f.K.K.K.j.H.K.K.K.K.J.L.P.E.E.R.P.L.P.L.E.@Xl.I V P V K K r...d f V B N L 1.1.1.0.0.f.g.g.H.K.K.K.K.K.K.Y.g.g.g.Y.",
"Y.K.E.Q.^.^.Q.T.E.I.P.w.Y.E.T.E.T.^.*X3X1X1X*X*X*X*X*X*X*X2X3X3X5X5X3X5XrXrX5X3X3XtXcXrX3XpXrXwXcXwX3XrXrX3X3XrXrXrXtXrXrXrXrX3X*XwXtXtXrXrXtXtXtXtXrXrXzXxX5X1Xj.T.7.7.] _ E E Q i.{.r.&X+XVXxXvXvXxXvXvXbXbXbXbXbXbXbXbXbXvXvXxXbXVXVXbXbXbXbXMXvXnX5XCXvXvXvXCXxXjX8X8XjXjXjXxXxXvXvXvXvXbXVXxXBX8X9X8X8XtX#X7X2X$X$X2X9X8XjXvXvXvXvXbXvXbXvXnXvXbXbXbXVXVXVXbXbXbXbXbXbXbXbXxXAXAXVX5X3XGXDXDXGXDXDXBXcXrX8X2X2X1Xk.p.p.h.*.<.-.-.M <.*.<.,.,.,.1.0.K.E.2X3XwXwXwXwX7X7X7X7X-X3XwX3X=X;X%X*X*X%X%X%X%X;X;X*X-X-X;X%X%X;X;X;X;X^.;XwXwX-X-X-X-XwXwXwX-X-X-X3X5X5X8X3X2X=X-X:X&X:XXX .Q | O.+.Q ~ Q Y ' ` t.{ r.{ 6.y.l.7X@X#X2X5X8XzXnXxXzXzXzXzXzXzXxXxXrXrXrXrXrXrXrXzXzXzXrXrXrXrXrXrX8X8X8X8XrXzXzXzXzXzXzX8X8XzXzXzX5X2X2X5X5X5X5X5X5X5X2X6X5X5X5X6X2X6X6X1X1X6X1X*X6XzXbX6Xm.a.;.s.n.Z M y c x x x M k.d.g.f.w.l.u.9.[ ...... . .......O.D.O.~ ..O.X.Q ` ` .. .e.w.w.g.K.K.H.j.j.j.j.k.j.d.0.0.d.g.f.d.0.d.g.g.g.f.d.f.q.q.q.q.q.q.0.0.K.K.g.j.H.K.T.R.P.P.P.P.@X%X%X@X%X%XP. XP.e.K K K [ K _ ` o.d j j j m L d.0.0.g.Y.g.g.g.g.Y.H.K.H.K.Y.Y.g.g.Y.K.",
"T.!.^.^.Q.E.E.E.E.E.K.g.H.P.%XE.E.^.*X3X3X1X*X*X^.^.*X*X1X3X3X5X3X3X5X5XrXrX5X3XrXrX5X5X5X5X5XrXrXrXtXrXrX3X5XrX5XtX5X3XrXtXtXrX5XrXtXtXtXtXtXrXzX8X8X8XrXvXrXQ.x.T.6.K r.` > E ' t.i. X7X2XjXvXCXcXxXxXbXVXVXbXbXbXbXbXMXMXbXbXbXbXMXDXMXDXDXDXVXbXxX5XbXxXvXvXvXvXvXvXxXnXnXnXnXnXxXvXvXvXnXzXzX8X8X8XtXtX8X7X9X2X2X7X9X8X8XxXvXvXbXVXVXvXvXvXbXvXCXCXVXVXVXVXbXVXVXVXbXbXVXVXbXvXVXGX#XCXCXVXDXGXGXAXBXBXBX7X-X=Xl.7.1.p.n.-.<.-.*.&.%.=.<.*.*.*.,.3.j.T.T.T.E.*XrXtXrX7X7XwX7X-X7XwX-X XP.@X@X*X*X@X%X=X&X;X-X-X&X%X%X%X-XpX-X%X;X-X;X;X-X-X;X-X-X-X7X*XE.-X#X3X7X3X=X3X7X-XP.u..... .| | O.~ 3 8 0 0 ) (.' { q.y.f.x.2X7XE.2X5XzXjXjXjXzXjXzXzXzXrXtXrXtXtXrXrXrXrXrXrXrXrXzXrX8X8X8X8XzXzXjXjXjXjXjXjXjXzXnXzXzXnXvXnXjX5X2X3X3X3X3X3X3X6X5X5X3X3X5X5X5X5X1X6X6X1X1X6X6X2X2Xm.a.Z =.h.=.c i m ,.7.A *.N p.k.f.f.q.u.t.o.| W W ~ ~ | O.O.O.O.| ~ ~ | ~ T 3 G Q | ' ` ..t.F.Y.H.w.0.k.k.k.k.g.0.0.f.f.q.q.g.g.g.f.f.f.f.f.f.g.w.e.e.e.w.g.g.P.P.P.K.K.K.T.L.I.|.|.J.J. X&X&X:X XF.F.F.o.E G G `  . .{ ` G f V B m L 7.j.f.7.g.g.g.g.Y.P.P.K.K.K.K.Y.Y.g.g.d.",
"T.!.Q.Q.Q.E.E.E.^.R.H.w.H.P.%XE.E.E.^.*X*X*X*X^.*X*X*X*X3X3X5X5X5X5X5XrXrXzXrXrXrXrXrXrXrXrXrXrX5XrXrXrX3X3X3X3XrXtXrXrXzXrX3X5XrXrXrXzXzXzXrXrX8X8XrXrXrXxX9XE.m.c.6.[ o.W , < E F.z.L.@X7XxXvXCXbXbXbXbXbXbXbXbXbXMXbXbXbXbXbXMXMXMXMXVXVXVXVXbXvXxX5XVXvXVXvXvXvXvXvXvXvXvXvXbXvXbXvXnXzXzXjXxXtXxXxXvXxXxXtX9X7X2X7XtXxXvXvXvXvXvXvXbXvXbXvXVXVXVXVXDXVXVXVXDXDXDXVXVXVXCXVXDXVXCXVX+XBXVXGXDXbXbXcX3X&X&X X XJ.q.4.1.p.k.$.-.<.<.<.-.-.*.&.<.*.*.,.1.k.m.!.T.x.K.R.*X7X8X8X2X7X3X@XP.@X*X%X=X2X2X=X=X=X=X%XP.%X&X-X-X&X%X%X-X%X-XwXwX0XpX-XwXwXwXwXwX=XE.@X=X=X=X=X=X@Xl.5.[ [ ` `  .o.| ! T q ) (.e e ) X.{ ] 0.m.T.T.*X3XxXzXzXzXzX5XzXzXzXzXrXrXrXrXrXrXrXrXrXrXrXrXrXrXrXzXzXzXzX8X8X8XjX8X8X8X5X5X5X5XjX8X8XjXzXzX5X2X2X2X*X*X2X3X5X5X6X2X3X6X6X6X6X5X1X6X6X>X1X5X6X#Xj.<.<.<.s.a.Z c c A ,.7.=.=.M p.p.k.f.q.9. .| Q ~ W W ~ | O.+.+.Z.+.~ T Y T T T ^ +.| E ` i.t.` [ e.e.e.f.j.j.m.K.l.g.g.g.w.q.f.g.g.g.g.g.g.g.g.l.H.H.H.H.l.w.w.P.P.P.L.K.K.K.K.F.F.|.XXXXXX|.|.t.F.G.O.| ~ Q T Y Q ' Q E H G j K B m A 1.7.d.0.f.Y.Y.g.Y.I.P.I.I.K.K.Y.Y.Y.K.K.",
"T.T.E.E.E.E.E.^.%XP.g.w.Y.^.%XE.E.E.E.^.*X*X*XE.*X^.^.*X1X3X3X3X5X5X5XrXrXzXzXzXrXrXrXrXrXrX5X5X3X3X5X3X3X3X3X3X5X5X5XtXzX3X^.3XrXrXrXtXxXcXtXrXrXrXxXzX9X5X1Xx.l.f.5.{  .W < > g .X.X@XE.xXCXxXbXbXVXbXbXxXbXbXVXVXVXbXbXbXvXvXbXbXbXbXVXVXVXVXvXvXxX9XVXvXCXvXvXvXvXvXvXvXbXbXbXvXxXzXzX5X5X5X8X8X8X8XxXxXvXCXxXtX8XxXvXCXvXvXVXVXbXVXMXDXDXDXDXDXDXDXDXDXDXDXbXbXbXbXVXVXVXVXGXGXVXCX#XVXVXBXGXDXDXBX7X&X&X Xu.q.5.6.f.k.k.&.<.s.s.2.<.-.-.*.-.-.-.*.*.<.k.n.T.j.j.T.#X9X8X8X2X8XtX7X2X7X8X2X#XQ.Q.*X2X=X=X=X7X3X3X=X*X*X*X*X%XK.E.-X-X;X-X;X%X X;X:XwXrXtXrX=X@XL.z.l.e.5.[ [ [ _ G E | o.' 3 T ( ) r q w ( ' _ q.L.z.l..X:XcXrX8X8X8X5X3X5X5X5X8X8X8X8X8X8XrXrXrXrXzXzXzXzXrXzXnXxXzXrX5X2X5X5X5X5X6X6X6X6X5X5X6X5X5X5X5X2X2X1X1X1X2X3X3X3X2X6X6X2X2X2X2X6X1X1X1X>X>X1X!.k.p.*.<.a.h.<.z z N <.<.<.<.<.c p.p.f.l.q.9.{ ........| | ..O.t.D.O.| T : 1 3 R ( T | | W _  .9... .t. .e.w.g.j.T.l.H.g.f.0.0.q.q.f.f.g.g.g.j.x.l.g.K.L.L.L.H.H.H.P.P.P.E.R.P.T.K.F.F.I.XXoX|.F.t.| G.D.| W Q Q Y Y ! W Y g g k H V a a A 1.7.d.j.g.K.K.Y.Y.K.P.P.^.^.K.K.K.K.T.^.",
"!.E.E.E.E.E.E.E.^.E.H.w.H.P.^.^.^.E.T.E.*X*X*X^.*X^.^.*X3X5X3X3X5X5X3X5XrXrXrXrX5XrXrXrX5X5X3X3X3X5X3X3X3X3X3X3X3XrXrXtXtX3X^.2XrXrX8XrXxXcXxXrXxXrX8X9X1X1X#Xx.l.5.[ 9.| ' ! , f XX&X7X#XVXCXvXvXbXbXbXbXvXbXbXbXbXbXbXbXbXbXbXCXCXvXvXvXvXvXvXvXvXxX9XCXvXvXxXvXvXbXvXbXbXbXbXbXxXxXnXzXzXnXzXvXvXvXvXvXvXVXVXxXxXvXvXbXVXVXVXbXbXvXvXvXvXvXbXvXbXbXDXDXDXDXDXDXVXbXDXGXGXGXGXDXVXVXvX2XGXDXCXVXbXDXAX7X@XL.J.J.q.5.q.f.p.7.M <.2.s.2.<.-.-.<.*.-.-.*.&.&.<.<.,.,.<.1.7.p.d.p.j.j.m.W.Q.x.j.m.W.!.W.>X1X1X1X2X3X*XR.K.K.^.2X1XrX*X*X3X-X-X-X:XuX&X;X%XJ.K.K.q.L.l.q.6.P V K { 9. .` H G W | | Q Y 8 8 7 r 0 / Q t.z.u.9.z.XXXXtX7X7XrXrX3X2X3X5X8X8X8X8X8X8X8X8X8X8X8XzXrXzXzXrXrXnXnXzX5X2X6X1X1X1X6X6X6X5X5X6X2X6X6X6X5X6X2X2X2X2X2X3X2X2X*X6X6X2X2X2X2X2X2X1X,X1X4X1XW.h.2.p.;.p.a.s.b . z &.7.<.<.p.<.@ <.p.f.l.q.9.9.9.9.[ [ [ ..` .. .t.Q T 3 , < Y ~ +.Q ! ' o...H _ O. .O.....e.w.w.K.l.K.K.g.g.H.K.K.g.g.g.j.K.K.K.K.K.K.K.K.H.H.P.P.H.H.H.L.P.L.K.H.u. . .t.F.G.O.o.o.O.Q G G | Q < Y ! ! g , f k K j s a L 1.3.k.T.K.T.T.K.K.K.E.^.^.^.E.K.T.T.^.Q.",
"^.^.^.E.E.E.E.^.^.^.^.K.K.P.^.^.^.E.R.E.*X*X*X*X*X*X*X*X3XrX5X3X3X3X3X3X5XrXrXrX3X3X5X5X3X3X3X3X3X3X3X3X5XrXrXrX5XcXcXrXrXrX3X3XrXrX7XrXxXxXzX8X8X5X5X2X#X#XW.x.l.] { r.' ' ' g  .uXtXAX9XVXvXvXbXbXbXbXbXbXvXxXbXbXbXbXbXbXbXVXCXBXBXCXvXvXvXvXvXvXxX8XDXVXVXVXDXDXDXVXVXVXbXbXVXbXbXvXxXvXbXVXbXVXDXVXbXvXvXvXjXvXVXVXVXVXDXDXDXFXFXFXDXMXbXbXFXFXDXDXDXDXFXDXbXvXvXvXbXVXbXvXDXVXbX8X5XGXDXDXGXDXDXDX8X@X X.Xz.9.L 4.4.S S y M -.;.-.-.-.-.-.-.-.-.-.-.*.*.=.<.7.p.7.<.<.<.<.p.<.<.s.p.<.<.p.<.<.<.<.<.,.*.,.d.f.j.m.Q.1X6X1XQ.j.k.f.0.0.w.q.l.5.5.5.] 9.l.q.1.1.4.5.] j f k E E ' ' Q g g Y O.Q : 7 r ) ) ( X.O.r.[ ` F.XX|.uXwX7XtXrX7X3X8X8X8XzXzXjX8X8X8X5X5X5XrXrXrXrXrXzXzXrXrX5X5X2X2X1X1X1X6X6X2X6X6X2X6X6X6X6X2X2X2X6X6X2X2X3X2X2X1X6X2X2X2X2X2X2X2X2X>X4XkX5XR.h.h.;.<.2.2.&.n n v *.s.<.-.<.<.+ *.7.f.f.q.q.q.9.5.[ [ 5.[ H G H ` E E W W ' ' ' ' O.Q E |  .` G E Y Q Q |  . .e.H.H.H.H.w.w.l.K.g.K.K.K.K.T.T.T.T.R.R.R.L.H.z.H.J.u.u.u.u.u.w.e.5.[ K j H ` | | ~ o.Q 3 < Y Q Q E 3 Y Y g g g j j j a V 1.3.1.1.d.T.!.^.T.T.T.E.^.K.K.K.K.T.T.T.T.",
"E.E.E.E.E.E.E.E.E.^.*X^.E.T.E.E.^.E.T.R.E.*X*X*X*X*X*X*X3X3X3X3X3X3X3X3XrXrX8X5X3X3X5X5X5X5X3X3X3X3X3X3X5XrXrXrX5XcXcX5XrXzXrXrXrXrXrXrXrXrX8X8X8X2X2X1XW.m.x.f.q.] [ { H G Y f  XJXSXHXvXCXvXvXbXbXnXnXnXxXnXzXvXbXbXbXbXbXbXBXBXBXCXBXvXvXvXvXvXvXvXjXGXDXGXGXGXDXGXAXAXDXDXVXbXbXvXvXvXvXvXvXvXvXvXbXDXMXMXDXDXDXFXDXbXvXvXMXbXbXMXbXvXvXnXnXMXvXvXnXkXkXkXjXnXnXnXvXMXDXGXGXvXCXDXvXvXVX5X2XW.M.T.x.q.5.9.9.[ L h D D S S u + v *.;.<.;.-.*.-.=.*.*.=.<.<.,.<.*.N N *.=.*.M M *.*.$.$.*.&.b -.<.<.*.M N N N c *.1.k.m.T.T.j.m.j.j.g.d.f.l.q.e.5.5.L V K L L A A S 5.6.[ H g g , E ' Q g > , Q ( R 0 ) ).(.'.].Q H H _ o.{.|.wXtXwX7X7X8XrXzXrXzXzXzXzXzXzXzXjXjX5X5X5X5X5X5XrXrX5X5X3X3X2X2X2X2X2X2X6X6X1X1X2X6X6X6X6X2X2X2X5X6X1X1X6X5X5X5X5X5X5X5X5X3X3X2X5X2X5XjX>Xh.p.s.*.s.s.;.$.z #.#.-.s.<.<.<.<.i N 7.q.q.q.q.q.5.] [  .9...H f g H ` ` ' ..{ ` H , Y Q Q E E E Y < Y Q ~ X.o.` _ 9.H.H.w.w.e.w.w.q.K.K.K.T.T.T.T.T.T.R.E.E.P.L.l.u.J.H.u.w.9.5.[ K P P H H ` | | Q X.^ T Q ! G W | G Y Y G g g k j V V P 7.d.p.p.k.T.T.!.Q.Q.E.Q.E.T.T.K.K.T.T.T.K.",
"K.K.K.K.E.E.^.^.E.^.^.^.^.^.^.Q.^.E.E.E.Q.^.*X*X^.*X2X1X1X1X6X3X3X3X3X3XwXrXwX7X3X3X3X3X3X7XwXrXrX5X5X5XrXrXrXrXrXzX5X5XrXrXrXrX8X7X8X8X8X8X5X5X5X6X2XQ.k.7.p.f.q.] _ H d - > d L.AXHXHXDXVXbXnXnXnXzXzXzXzXnXnXcXbXbXbXcXcXcXcXvXvXvXvXCXCXVXVXVXvXvXjXDXDXGXGXDXAXDXAXbXbXbXbXvXbXbXbXbXvXvXvXFXMXMXMXFXFXFXMXvXkXjXhX4X6X<X~.W.W.!.M.M.M.M.!.!.M.M.n.n.n.n.n.h.h.n.n.m.!.~.>X,X,XhX6X4X>Xk.p.7.<.7.8.,.4.6.5.h j h h D S 4.u + z b M &.*.*.Z *.A Z A =.=.=.=.A M c c M Z &.M $.;.<.-.-.<.=.$.M -.<.M c m A N p.x.Q.~.<X1X<XW.n.m.T.f.7.f.l.6.4.q.q.6.[ ] K K 4.1.L L _ ` ` E Y < < < Y Y g g < Q / / ) e e '.+.G g { { ` 9.|.@X7XrX7X7X8XtXzXzXjXjXjXjXjXjXzXzXzXzXzXjX5X5X5X5X5X5X5X5X3X2X2X5X6X6X2X6X6X1X1X6X2X2X2X6X6X2X2X6X6X1X6X5X5X5X5X8X8X8X8X8X5X3X2X4X,X>XW.h.<.=.;.<.s.;.-.$.n :.$.-.2.<.<.,.1.y a L 5.9.9.] L L K _ | | | W E H E ' ' { ` H j p * ; T X.! < , Y Y Q ~ ~ ~ Q G G { J.l.w.w.u.l.l.l.l.K.K.R.R.R.R.R.R.L.L.E.E.L.l.u.u.u.9. . .[ [ K K ] [ _ | +.O.^ R ^ X.+.~ G J | Q Q Y g g g G j V V P 1.0.h.j.j.k.j.T.!.^.^.E.E.E.E.T.T.K.K.K.T.",
"Y.H.K.K.E.^.^.^.^.^.^.^.^.Q.^.Q.Q.Q.E.E.Q.^.*X1X2X3X5X5X3X3X5XrX2X*X3X3X7XrX7X7X3X3X3X3X3X7XwXrXzXrXrXrXrXrXrXrXzXrX5XrXcXrX5XzX7X8XrX8X8X5X5X5X1X>X#Xj.=.=.j.E.q.5._ k d * p j 6.8XHXHXHXGXFXjX5X5XjX5X5XzXbXbXcXcXbXbXcXcXcXxXxXxXvXvXVXDXDXDXDXVXvX5XDXbXDXbXMXbXbXbXMXbXbXbXbXbXDXDXDXDXDXDXFXMXkXhXhX6X<X~.~.M.n.n.m.M.n.h.a.s.2.2.2.s.s.h.h.s.s.2.2.s.s.a.a.a.s.s.2.s.k.h.h.p.p.<.p.<.*.1.,.<.7.8.,.4.] B h C D D h D C i i i + + i c B m m B V A V B B m u B A A M M Z *.M z + + @ + x M M 7.p.A m Z ,.,.L g.Q.>X>X>X!.h.m.R.x.,.u m A a a 5.9.9.t. ._ [ 6.q.6.K f d > > ! 9 : 1 < Q Y > 1 0 0 0 / e w ) 0 < W i.9.] ] q.l.1XxXxXzXvXxX8XzXjXjX8X8X8X8XjXnXzXzXzXzX5XjX5X5X5X5X5X5X5X2X6X2X2X6X6X6X6X2X2X6X2X6X6X2X6X6X2X1X6X5XjXjX8X2X>X5X5X5X5X6X2X1X>XW.#XM.p.=.<.<.;.7.8.b $.v z :.&.-.=.<.8.A L t p h K [ K j p p p G G T Q Q Q E Y ' ' ' H d - p d T 0 R R T 3 < 9 Q R T 3 < , H t. .K K [ e.w.w.l.K.L.E.E.#X*X*X#X#XE.L.L.L.J.u.9.[ ` K K ` [ [ [ L 5.[ _ ` O.+.^ : 3 R | | W W ' O.~ Y , , g G j K K V A 1.d.k.d.3.p.k.T.^.^.E.T.E.T.K.j.j.j.j.H.",
"K.K.Y.H.K.R.E.E.E.E.Q.^.Q.!.Q.1XQ.E.T.K.K.E.R.K.g.K.E.Q.*X*X3XrX2X*X*X3X3XwX7X7X8X8X7X7X7X7X3X7XrX5X5X5XzXzXrX5XzXrXrXrXrXrXrXtX7X7X7X3X2X2X>XQ.Q.j.<.=.=.1.j.T.q.5.] k p t a V A h.hXMXFXMXMXMXvX5X5XnXDXDXVXVXbXbXbXbXzXzXxXbXnXvXbXvXvXvXbXbXbXFXjX6XbXDXvXMXbXbXbXbXbXMXvXnXbXnXhX4X,X>X~.>X~.~.~.M.h.a.a.h.h.s.2.<.<.2.2.2.-.-.2.2.s.s.s.a.s.a.s.<.<.2.2.-.2.2.2.<.-.-.-.-.2.<.<.<.<.<.<.<.<.<.8.8.4.4.,.L D D D B h h h h i i u u u u u u D C C D V V h t B B B u u c m Z c c y i i i i i i i i y a V V C V L l.L.T.W.W.p.v.8.+   + a 6.K ] h K ` _ t.o.= = = B K * ; > % 2 < T Y 1 % ; ' Q 0 0 q 7 r w q : Y  .9.] L ,.7.<.a.j.x.>XxXVXvXjXjXxXxXjX8X8XxXjX5X5X5X8XjX8X8X8XzXzXzX5X2X2X2X8X8X5X2X1X1X2X2X>X6X5X1X#X>X2X2X5X4X5XjX8X2X>X2X,X>X#X#X#X#XE.m.h.s.=.=.=.=.;.4.4.Z c v M &.$.M *.,.6.5.K j j j f k G G k j j k W Y Y ! ! Q X.Q Q Y 1 1 G E E Q 0 0 / 0 0 R 9 ( : & 2 1 , E  .9._ H H H H [ u.u.q.u.l.l.l.g.g.x.l.q.5.L K K K ` ` K H H G H K _ 5.5.] K E Q Q R T R X.~ T | O.E O.Q G < g H G j j j V P 0.f.f.d.k.d.d.j.T.Q.*X*XQ.Q.T.K.K.K.K.K.",
"K.Y.Y.K.R.Q.Q.E.Q.E.T.K.j.k.j.T.j.g.d.0.d.g.d.0.1.3.0.d.d.f.g.j.*X3XrXrX3X3XrXtX5X3X3X3X3X3X3X3X3X3X3X3X3X3X2X1X5X3X3X5X3X2X*X*X=X*X3X8X5X#XW.T.m.k.,.N M =.k.T.y.6.] C p p B S j.2.-.n.hXGXFX5X5XQ.T.R.Q.>X6X5XzXzXxXxXzXzXnXxXjXjXkXkXkXkXnXnXkXbXjX2XvXvXjXvXzXNXbXbXnX5X6X1X6XW.n.n.h.h.s.2.s.2.<.*.$.$.%.-.<.2.2.2.2.<.<.<.s.s.s.2.2.<.-.-.-.<.-.-.-.<.<.<.-.-.<.2.2.2.s.2.<.2.2.2.p.p.p.p.<.<.<.<.,.S S S V h h t t t t t h h h h h h t t = t h h d d h h = t u h B h u u c c c u u u u u B V V j p t d k 9.[ L V + u m i i u i i i a ] _ p   = E E Q o.o.k O = f d > , < 1 2 2 < ! Y < Y ( @./ 0 q w / / / Q E [ 6.8.<.<.<.2.<.<.p.m.W.>X5X2X2X8XxXtX8X8X8X8XzX8X5X5X5X5XnXnXzXzX5X2X2X2X#X>X5X8XjX8X6X2XjX8X5XjXvXCXnX2X,X>X,X4X2X>X#X#X>X#XW.R.m.j.p.<.p.<.;.;.<.=.=.=.Z c y c b b b c B V C C C k k k E H J G H H H H g g E W Q Q Q T 9 9 9 R ( ( ( ) / q / ) Z.]./ R R : 2 1 < E { { H f f I [ 9. .K [ K K K L I P V V V V V K K K K H H G k k f j j V V V k ` o.X.X.+.R R X.| | D.|.o.Q Y g G H H H K K V P ,.7.0.7.0.0.0.0.d.j.j.K.T.T.K.K.K.T.T.R.",
"^.E.E.Q.Q.Q.T.T.T.j.d.p.3.1.2.d.d.d.d.0.d.d.d.3.d.d.d.g.d.d.d.0.d.x.#X2X2X*X1X*X2X3X3X3X3X2X2X2X5X5X8X5X#XE.R.Q.Q.Q.Q.1X1X1X6X3X#X2X2X#XW.T.h.p.<.<.=.=.A =.7.f.y.9.[ ] K V A =.<.2.2.2.2.n.~.1X1XT.k.7.1.1.7.f.T.W.Q.Q.Q.W.W.W.~.~.~.>X<X<X>X>X#X4X#X#X8X8X9XxXBXBXxX5XQ.R.R.#X1Xm.p.<.<.<.<.<.<.-.*.$.M M $.*.M &.-.-.*.*.*.-.v M $.$.$.%.-.-.<.-.-.-.-.$.$.$.M $.*.-.-.-.-.-.-.-.-.-.*.*.=.=.Z Z M m c u c u A V B h h h h h h d d f k k k h d H ` k p * * - d * t h h t u B m B B h h h h h j k K k d - > g * d d C   u u i i t V t i t d k { > = g R 9 3 T i._ f g g > ; ; 1 2 % < X.X.! 9 R R R 0 8 0 ) / ) R G K 6.7.p.2.<.<.<.p.<.=.=.8.,.,.6.f.c.R.+X+X#X,X3X9X9X8XxXvX8X5X5X5X5X5X5X5XjXjXjXjX8X4X5X4XjXxXVXVXjX,X#X#X,X>X#X+XW.W.!.m.m.x.j.h.a.p.<.<.<.<.<.<.=.S A A a u i u m c c a h p p d k E H G E W Q Q W ! Y J H K K k G Q ^ q q w e ) '.e e C.e 5 0 ) ) +.R 9 9 & 2 < g g d * , ; , W |  .` f f d p p = = p f L L ] ] [ [ ` ` ` ` _ H k f d p t t t d H ' | Q X.~ 3 2 2 1 , , ! Y G g g g f j H V V V ,.7.0.0.7.0.0.7.7.7.d.f.d.d.f.j.j.x.x.x.",
"0.0.0.d.d.d.d.d.j.k.d.k.d.k.k.k.d.d.d.d.d.g.f.d.d.d.d.k.g.d.d.3.1.7.f.T.1X2X2X1X5X2X#XR.x.g.d.d.d.f.j.f.d.d.f.j.Q.R.R.T.R.Q.#X1X*XE.K.j.p.<.<.<.<.=.*.=.A A S L [ [ [ [ [ K V m =.2.2.2.<.<.1.7.7.4.1.1.1.7.7.k.j.x.x.m.j.h.h.h.n.n.n.n.n.n.j.k.f.v.l.l.+X@X@X&X7X7X=XE.g.q.l.L.K.f.1.<.,.,.,.=.&.M M M M M M c v M M M b M M $.*.*.%.$.M $.*.-.s.2.-.-.%.v x v v v M $.$.$.$.$.-.$.v v c c b M N m c x y y y i y u u u u u h C h h k _  .r.r. .i.{.|.t.' E H H _ k k _ D t u B B h h h h h f d f d d > > g , , , g g _   h a h k h _ f d g = * E E , 1 9 R 9 T Y o. .g g U g > ; ; 1 ! O.+.Q ! R R R 0 q / C.) 0 9 3 G K ,.<.s.<.<.7.7.<.=.S S 4.4.4.,.S S 4.0.f.l.L.E.@X=X9X9XzX8X8X8XjXjXxXjXW.M.j.a.p.p.p.a.p.M.4X4XM.p.h.#XW.T.x.v.x.m.m.h.p.p.<.<.<.p.p.s.2.<.;.=.A A A S B h h h h a a h d > - d k E H g Y W | X.Q Y 3 G K ] k d G ~ ( R w ) ) e e e e '.) 8 / +.^ R ( ^ q & : T Y , > * ; ; < G g , , , ; - - - - - G ` r.9.{ ` _ _ _ ` ` _ H H k j h h t t t * d k g , G Q G ; , G G G g g g g g f f j f j K L 5.0.7.5.5.5.0.0.0.0.d.d.d.d.d.d.d.d.d.d.",
"j.j.f.f.f.h.h.f.k.k.k.k.d.k.k.d.3.d.d.d.d.d.d.0.d.d.d.d.d.d.3.1.d.3.1.7.j.Q.1X1XQ.R.m.j.k.d.d.d.f.f.d.d.0.d.f.j.j.j.j.j.x.T.Q.Q.Q.7.,.p.p.&.-.n.M.p.*.m m m V C j k H H k j a y A =.<.<.<.1.,.A L S ,.7.7.7.p.f.j.h.h.h.h.h.k.h.n.h.h.h.j.h.p.7.6.q.5.[ { { { { r.r.u.r.9.5.5.5.P 1.5.7.1.A N N m c c c c c x z c c x x c c c x v x z @ x b &.-.s.2.<.2.<.-.*.;.-.-.-.-.*.-.;.;.2.*.M &.*.=.=.=.A m x x m M m x x c B B u i a C h k E { r.r.{ `  .r.t.t.o.o.t.o._ ` 9.i.[ h t a B a t t d k g d f f > > 1 , 1 2 G E k }   = = = * * k g g E ; 2 % ! R : 4 q 0 / 2 Q X.! Y Y g , ; > 3 Q +.X.T T 9 : : : 8 w ) e q 8 4 3 k V S ,.,.4.L V D 5.q.6.6.6.6.4.,.4.4.4.6.4.4.4.4.4.8.8.f.0.8.8.7.7.7.<.p.s.p.s.a.a.a.s.7.4.7.s.7.;.<.p.8.8.8.8.8.a.a.p.p.7.2.2.2.2.2.2.-.-.-.*.A V V C k h h h j j D K g g g k H H k g g E | Q 3 : : G g H f , ~ Z.) ) '.'.'.C.'.'.'.'.w 4 q R 1 2 3 9 R 4 & & 2 ; , , 1 1 < < % % % % > ; ; , W ' W G - * = = = = = = > - - - p d j V V h t * t d d * = = % , T < 1 ! G E E E E H H K H K P I ] I L P 5.5.I 5.0.0.0.7.f.f.f.d.d.d.0.0.",
"j.f.k.d.d.d.d.f.j.j.j.k.k.k.k.k.d.g.j.g.d.g.d.d.g.j.j.j.g.d.0.3.,.1.7.p.d.k.f.j.k.d.d.p.d.h.j.m.j.f.d.7.7.7.7.7.d.j.T.R.Q.Q.Q.T.d.k.7.1.h.!.~.~.m.p.A m m B V C f g g f d d h a m ,.7.1.,.L 4.5.4.4.,.,.,.,.<.8.p.p.p.p.2.s.p.a.h.h.h.h.k.f.0.5.9.{ ` } ' W E E W W W E E H k j j V K K m a a N N m x x c m M M M m N A *.Z c z c x v $.p.n.W.>Xn.h.h.h.n.n.n.m.m.n.h.a.s.p.p.s.s.<.<.a.h.h.h.j.h.k.k.h.j.x.h.h.<.8.8.4.V u a C p f k ` [ _ K k k H K _ ` ' ..` K _ [ [ C t i u u i = * d f f d > g E , ; 1 : : 1 , U } = t t * ; ; < > ; ; ; : 1 R R q 8 7 & q 0 q R ~ ! , ; > > , , 3 ~ R 8 : < 1 1 1 8 w / r e q 5 : < g h h C _ _ k _ { 6.] k j D S 6.0.8.L S D V V D S D S A A A A A Z Z M Z Z Z *.;.7.s.8.a.7.=.*.=.=.*.Z 8.4.,.,.,.=.=.=.<.p.s.a.s.s.<.-.-.<.-.*.Z V a t h d d f k k H ` G Y E E E k k k H E E < 1 2 4 R | | 3 1 ^ C.C.].'.].].].[.OX].].}.D.Z.D.O.~ | 9 q 8 5 & 2 2 : , 1 % 2 1 2 % % % 2 1 < Y Q T < > > > g , g > > > * * = = = t p h h h t i * t p * - f f G Q Y G Q E E ` ` _ H K K H H K K K K P P 5.[ P P 5.5.1.,.d.7.7.7.7.7.7.7.",
",.,.<.1.p.h.m.R.j.m.m.x.j.h.j.j.j.j.j.j.j.j.j.j.d.d.d.d.7.1.1.1.,.1.h.m.j.h.p.1.2.1.1.1.,.,.,.,.d.d.d.j.T.T.R.Q.R.Q.#XQ.Q.R.T.j.7.m.m.p.n.hXhXM.2.=.Z Z V V V k H E E g f f j V ,.,.A A L 5.] K V V B B A ,.7.p.<.<.<.<.2.2.s.s.2.2.7.7.<.4.] ] [ H H Q Q Q R T R ! Y < , , G G G p - = p s s a u y y i x c m Z Z A =.,.,.S N c M M M *.s.n.M.M.m.m.n.h.h.n.m.m.M.M.n.h.h.a.p.p.s.p.s.h.h.p.a.x.<.1.p.d.p.p.p.p.p.7.7.8.S u u a h k _ { { { [ [ [ [ [ ` ` ` ` K H k f p i i s a t t p p d f f f > H E g 1 : < < } Y U l O = h l < < 1 ; 2 % 1 < 9 q q q w r 7 r 0 & 9 ( Q G G g f , , < T R 4 : ! E ! R / +.'.e e r 7 & : , d d d E X.o.X.' E l _ _ [ 4.4.,.A a h h D C ] S S S B A A S *.*.&.&.&.Z Z &.=.4.8.8.=.=.=.*.*.;.8.8.0.4.4.8.4.Z c Z *.=.<.2.2.2.-.-.-.-.-.A A L C j H g g g G H J E Y E E E E H K K _ _ H , 1 < R ( +.) 0 8 ) / ) [.].OXOXOXfXqXXXG.oX0XXXoXXXG.D.~ ( ) ) / w ) ) q 1 % 2 : : 1 2 2 % 1 T T : 2 1 < < < < > 1 ; 2 = > d d * t t t t t t t t t t t * = - J J G Q ~ T J H H H H H H G f f j j f j K [ ` K K P L L L A ,.,.*.A =.,.,.,.",
"M M M M v M M M M <.p.p.p.p.p.7.7.0.d.f.d.g.j.g.7.0.f.d.7.1.7.7.7.1.1.p.j.j.f.7.,.1.1.1.3.p.p.p.1.p.k.f.f.k.d.0.d.f.j.j.m.Q.#X#XR.j.d.h.!.!.m.h.p.,.Z m a a h k H W Q Y g f k j B A ,.,.] ] K k j h a a B S L S A A A Z *.*.*.*.*.=.,.=.A A L K k - , ! R R T : 2 1 6 9 9 9 Y T W G f H ` ` j t t u u a a m m m A ,.1.1.,.A A A Z M M -.p.n.h.s.s.p.s.<.<.p.a.p.s.p.a.h.h.m.m.M.a.s.p.<.=.M <.h.<.7.h.h.k.p.p.k.k.8.1.4.,.B a a a j K ] K K L [ _ [ ` K H K H H H k f p p h j h f k K _ H g g g E ! ! < < 9 < ; , 1 g g = = t * 2 1 2 : 9 : R 9 4 0 0 8 7 7 r r & & R ( Y G J , f G G G T T 9 9 ! Y Q Q ^ / ) e r 7 7 & & : < Y 1 6 Q X.( ! 3 Y g { r.6.V m Z A h k ] ] C h a a h B D S A B m c B V =.8.s.s.;.:.=.;.=.Z A =.4.S ] C C [ ] h u V m m m m m m m N m m u s K 9.t.i.| Q ! ! T Y 3 < T Y Y Y E _ _ ` _ E J G T ^ ( ) 7 e e ) [.'./ ].OXdXdXfXqXqXXXI.I.qX0XqXuXqXqXoX].].].) / ].].( R 4 3 q 4 1 1 1 1 : : 1 2 & 3 T Y G < 1 ; ; 1 > > d d d h h a a * d h h p p p * p - J O.Q G T T E H k g k k k j f j G j f f f f f f f j h h B B N m m m m N Z Z ",
"x v v v #.#.#.#.v v v c c c m B S B a m m V S 4.4.,.7.,.A A V L V L L A ,.q.v.l.7.7.0.q.q.f.j.x.<.<.<.7.8.8.1.8.7.7.7.v.Q.1X1X#XR.R.R.,.,.m A Z V m a a p p a j f H Y < < 1 ; f a A A m B p * - ` k d d k C C C p a j t a a a A y <.<.m 0.A h C d ` g g Q Q Y 6 9 8 : 8 9 0 R R 9 T o.oX:XXX|.:X:X:X Xl.u.q.] S L 4.V 7.,.A A =.*.*.=.p.p.2.2.s.2.2.2.2.<.<.<.<.p.p.p.p.h.k.<.<.p.k.k.k.k.k.p.1.d.k.d.p.k.h.k.7.1.1.1.P K j f p a K ] 5.K j K 5.V K [ K G g g G g f f H - ` ..E = ; , Y G < 3 q R 9 9 R 9 1 2 1 ; 1 < , g Y g ! T 9 0 R R 0 0 0 q 8 8 8 7 7 r 7 : : : ^ R ; , G J G , 3 T q 8 8 0 R R R R w 0 0 w 7 & 8 0 q & & : / / 8 0 ( / 6 X.! g f h u u B j _ _ k d d d * * = > H _ _ _ _  .} ] S S *.v v %.$.M A B 6.k E o., 3 ! , , G , 1 G J G J G G G ....J O.fXfX}.].) R R ^ ^ 4 & 2 : R T 1 , G G J J G G 3 0 R / / r e C.C.C.].].].Z.}.OXoX}.D.D.}.G.XXXX|.|.{.G.}.qXoXD.Z.Z.Z.{.{.].^ 0 ^ ^ T 9 4 4 1 : 3 T 3 3 3 < < < : : 1 < 3 , - f j f - p k k H H k f f d > f , G | | Y G Q E H g g g G G g - > > g f > g E < 1 < E > * h a m B B c y y c m ",
"&.b n n n #.#.#.#.#.b b b c B B a a h V V B m m a u S L L L V L C h a a a m V S 5.5.5.q.l.f.1.A 7.<.7.p.f.0.8.4.f.4.A B A 1.7.7.k.7.1.m B a m t i i t a h h f j j H g 1 2 % % - t m m u u p g ' , f g E _ k d * d d k j C K V a 7.m i + +   t i * f H H g ! Q ! +.( ( ( +.].+.+.{.{.oXoXoXXX|.XXXXaXJXJXaXaXtX7Xl.q.A B + ,.q.Z m M M <.2.2.k.n.k.s.2.<.<.7.p.8.,.<.7.f.m.m.k.p.f.d.k.3.p.d.k.d.d.k.d.d.3.7.0.3.5.3.P P J f f j f d j 9.u.9.L K [ K j j H E W E < G W Q , G W W Q ; 2 T ( q 9 R q 9 q R ( +.+.+.Q Q X.Q X.+.~ +.X.( ( R 0 q q q 8 8 q r r r r r & 3 3 T T : < , , , ; 3 ~ ) w w q q q 0 0 w / / w 8 & 8 w w 0 w ) 0 & & 5 5 0 ].R : ; - p p a V [ _ j p * * * ; , E E ' i.o.k H > * d t i c n #.$.v =.A ]  .' Q T 8 4 4 : 4 4 q R ^ ^ ^ w ^ ^ ^ C.Z.}.}.OX}.) C.].C.) / R 0 ^ C.R Z.Z.+.{.{.A.O.| | ~ T q q / '.C.Z.].Z.Z.Z.Z.Z.Z.Z.{.}.{.{.{.{.Z.Z.D.|.XXXX}.}.oXfXqXqXqXoX}.{.Z.) ( ) ^ ~ +.+.~ ~ R T T T T Y T Y 3 : : : : 1 G f - p f f j H _ g > * = - > , G , , G E W E ! > ; > E E , , G g > ; ; > , g g ! 6 9 < = * h u i i c Z Z A Z y ",
"v @ + @ v %.%.$.$.$.$.M Z Z A A L S V m a i + + u i V A L K h j k d t a a u a V a t = t p a y + y y y m B V B h h h h B V V a a i i u i a i s a t t t p h d d d k H g 1 2 2 2 d p a u u s * * g > f g H k d f k f p h h i h C B m m.8X9XVXtX&Xz.r.` t.i.| | {.{.X.( ( X.+.+.+.X.X.{.|.|.XXoXoX.X:X:XtX:X X.X Xu.9.@XtX7XV j 5.V m M M M M *.<.2.2.2.<.<.<.<.<.<.k.k.p.p.j.j.7.7.1.1.1.3.p.d.h.j.x.x.x.d.7.0.q.q.H.5.P K _ H G f f f G [  .[ ` [ H k f G G G g , , 1 Y G < , Q | X.( X.Z.].}.OXOXoXfXoXOXfXdXfXoX}.{.}.{.D.+.~ ~ X.X.( q 8 8 9 0 0 0 / C.'.`.`.e q ^ 8 4 8 q ^ T < : 1 9 ) ) w q q q q q r r 0 0 w q w ) C.e r q & 7 7 r r 7 7 e ) R Y g f d V ] k - = * > f E ' Y | g ; E G * > l d h t i u x Z Z c L p H G ! : 9 q & & q 0 q w 4 0 / ) C.Z.].[.].].OX].].].].OXC.].].C./ / ) ].Z.].Z.Z.}.oX|.D.| | +.Z.].].C.) ].].Z.Z.Z.Z.Z.Z.}.{.D.D.D.D.D.D.D.A.D.G.O.O.G.oXqXqXsXsXsXdXdXdX}.].Z.Z.~ | X.~ ~ X.+.~ ^ ~ ~ Q Q ! Y 9 q 9 4 : , , - - f K _ H * * - f G E ` ' ' W G , G G g 1 - > g E E g g G g f > ; > > > > 1 1 < > * t t   V m y + + + + + ",
"o o   . v $.#.v %.*.*.*.*.A A A a a y + O   O O O   O O t p = * f > * * t t a V j j f p t p B S V B m a u t t p p p p t i = = i m a m V V u t p h p t p p p p d p f , 1 1 ; ; d a u i y h t = = % = = = = = p j [ 9. XtXL.l.z.q.9XVXHXAXAXl.] &XJXt.E ' O.Q G > X.o.o.O.O.O.O.O.i.|.oXXXXX:X&X X=X*XtXaX:X:X&Xi.J. XqXSX&X[ j i m *.*.M m M M v <.<.2.2.p.p.p.p.<.<.<.<.p.7.7.d.d.p.f.x.R.R.R.R.K.K.l.q.5.L I ] P j H ` ..W G < E ` ` W H g f f , g G Y G < < 9 9 4 ( Z.}.+.X.T Z.}.}.].].OXOX].OXoXoXoXoXoXXX{.+.o.F.{.{.{.o.| E ! Y T q 9 R ( ( / ) '.'.'.`.`.'.C.q 7 0 ) C.^ 1 : 4 q ) ) e e e ) C.'.'.) e w r e / '.) r 7 & r / ).).).e e '.(.].].X.E > d K f d > f g g g Y E ! > % > g f g d t D h B V B S f.L { g Y 3 R 8 q 8 5 q ) ) w w w ) C.Z.Z.].Z.Z.Z.C.[.Z.].OX].OXC.[.OX[.].].].].].].].{.}.oX}.D.{.D.Z.Z.].].].].OXOXOX}.}.OX}.}.XX}.G.G.D.D.G.G.O.O.|.XXG.O.D.G.G.|.0XqXqXqXeXdXsXdXdXfXoXfX}.+.Z.Z.Z.O.O.O.Z.D.| | X.( ( / R 9 2 - , f K  . .K j H ` { ` E H H W W ` | O.D.O.| | i.i.| ' t.t. .t.F.|.{.t.o. .{ , g E ' { { L V i =.W.8XjX4X#XW.",
"n.M.Q.<X6X6X6X<X~.>X>X#XW.E.E.E.L.#X3X8X8X8XtXcXtX=X-X&X&X&X|.|.' } H p = a f p - f f f d p t p t u a t i t p d = = * * = = p p i O O i t p t t t = = * p - d d * d , > < ; = * t y + + t t * d  .t.F.|.|.|.|..Xy.y. XJX7XL.L.l.tX8XHXHXBX@Xz.J.:X{.{.o.|._.O.oX{.{.{.{.{.F.|..X:X:X:X&X@X&X7X9X2X1X9X7X X&XsXsXsXqXXXqXsXXXz.J.B A *.Z M *.M v v &.*.*.=.=.<.7.<.p.k.k.f.<.,.1.7.1.7.d.l.l.f.q.0.5.5.6.q.q.u.y.i.r. .' E g ! X.o.D.{.D.{.XX{.| W Y Y Y 3 9 ^ +.}.( R R Z.+.].{.oX].+.].{.].].Z.{.OXoXoX}.{.{.{.O.' i.D.O.+.o.| W g Y X.+.( ( Z.+.( ) ) e `.`.`.'./ 7 e '.'.) q q R R R ) e e e e e C.'.'.) e e '.'.'.'.) e e e ) r r e e 7 7 e ) (.].+.Q > > d > g E g , < < , < > g E E ' o.k f h ] 6.y.l.y.z.r.k g ; 2 : 0 5 q 5 w '.) e C.e ) C.[.].C.C.C.C.].C.].C.Z.}.Z.Z.].}.].Z.C.'.[.OX].].].}.}.XX}.D.O.D.}.OX].C.) C.fXfXfXfXfXoX}.|.A.D.A.A.G.D.G.G.G.G.G.U.|.0X0X|.G.I.XXXXoX0XqXdXqXqXdXdXdXgXsXqX}.D.O.| ~ W O.{.t.G.{.{.Z.) R q 2 < H K [ 9. .` ..[ ` H f - - G H E | i.D.O.o.o.i.{.i.{ ' i.i. .` 9.i.t. .` _ _ E g k ` 9.5.5.f.#X,X2X,X#X#X2X9X",
">X1X6X4X6X<X6X6X<X<X1X,X#X#X@X@XE.*X3X3X3XrXcXBXBXwXwX:X&XXXt. .i.F.r.k d k k p f f f G H H j p i a h h p p p p d f f - = O     O = = t   O = h = = * - - - - d K ` ` E E g > d 6.L.E.v.q.6. .t.` 9.t.t.t.r.9.9. XL.f.BX9X#X#X>XDXSXDXR.9XAX&X] { :XJX{.t.' o.XXXXXXXXXX.X|.XX&X&X&X&X=X$X=X9XjX8X8XBXGXBXaXsXqXXXqXXXF.XXt.t.&XS A A Z A A N c x v v x x c M *.p.p.<.,.A m y A N L 7.q.g.g.7.L L L ] 9.u.l.u.u.r.` H H Q ' ' Q | D.{.+.O.D.D.o.~ Y 3 3 T 9 T R : 4 q ( ].Z.].}.fXoX{.].].].].].{.{.{.{.O.| O.{.oXG.|.F.o. . . .t.{ ' i.{.+.+.+.Z.( ) / r e `.`.'.e 7 e '.`.) e 0 ) ) / w e e e e e e e e e e e e e e e e e e e '.'.'.'.'.).r r / ) ) +.+.o.' E g E ' ! Y Q X.X.| G X.i.' o.i.E r.y..X@X&X Xz.{.oXo.Q R 9 / ].w 7 5 C.[.e r C.C.w C.C.C.C.C.Z.].].].].Z.C.Z.}.{.fX}.].C.) ) C.].C.+.C.Z.Z.D.{.D.{.Z.| ^ 0 w C.[.}.OXfXoXXXXX|.G.XXoXoXXXXX;X0XeXqX0XXXG.G.;XiXqXuXqXXXU.U.XXXX;XqXqXqXXXG.D.G.t.G.O...O...J ' D.G.XXXX}.Z.) R 0 : 3 G H H K K K j f f p = = f _ ` ` | o.| E G ' o.' ` '  .{ { { [ _ _ _ ] K K _ { ` [ u. XL.L.2X1X#XR.W.>X>X1X2X",
"5X5X6X6X1X6X4XhX1X1X2X2X1X*X*X*X1X2X#XE.R.E.*X*XP.H.I.I.|.|.O.o.o.o.{ k d j f - f > ; ; , J G j a a t = = = = O * = = = - f ..i.9.J.J.l.K f = = p - - - - - g _ t.i.t.o.o.{ ` { q.=X2XT.f.q.6.{ i.J.J.i.9.9.q.y.6.L.l.VXjX5X2X>XxX9X#Xx.GXCXq.z.l. XaXi..XoXXX{.:X:X:X&X:X:X:X:X:X7XtXtX8X9X2X2XxXjX8XtXaXaXdXdX|.oXXX{.&X|..Xz.v.8.A Z Z m x x N M M M M M M M z @ @ c =.,.7.x.x.@X=X@XE.@XL.l.y.9.6.6.5.L C k k _ { {.:XdX:X{.oXoXoXD.' Y Y ! ! G 3 T Q 9 : 1 4 T q ( Z.{.}.fXfXdXfX{.+.X.X.~ +.D.D.O.i.{.XXoX|.t.|.|.t.i.{.|..X|.F.{.{.D.+.+.Z.+.( ) w e `.'.[.'.r e e r e '.q ) ) ) C.'.'.[.[.[.'.'.'.'.'.'.].[.[.OXOX[.[.].].[.'.) ) '.) / ) ].].{.}.|.|.{.{.{.{.+.+.+.D.{.oX{.{.{.i.D.|.F..X.X&X&X.Xi. .o.oXX.Q R ( @.{.q 5 r C.C.w e C.C.C.C.C.C.C.Z.Z.Z.C.[.[.fX}.}.qXXXqXfXfX}.].) e C.].~ ~ +.~ A.}.|.Z.~ T ~ Z.Z.C.C.}.oXfXfXoXoX;X;X;X;XXX XP.%X;X0X0XuXeX-XXXXXXXXXXXXXXXXXU.G.e...t.t.G.G.e.G. X XF.G.G.I.G.t.O.G.t.F.|.D.Z.) / 0 4 < , f f f f j j p f f p * - f _ '  . . .o.t.F.O.' ' t.i.t.u.J.u.5.[ [ [ K K 9.[ 9.q.l.@XL.K.#X#XW.R.>X2X2X1X#X",
"1X>XQ.Q.Q.Q.Q.Q.>X>X1X1X*X*X*X*XQ.#X#X*X2X3X1X%X@XJ.P.I.I.F.O. .o.o.{ ` K k f f , , < , ; - f j j a t s L l..X.Xl.J.J.|.|.|.|. X X&X.X-X&X&XK   p - * * * f { F.i.i.r. .o.r.r.z.c.=X#Xf.f.L.L.l.u.J..Xz.q.6.q.q.7.9X#XDXjXjXvXDXCX,XCXjXvX9X+X$X@Xz.SX&X.X.X&X X X X X&X:X7X7X:X:X7XtX7X7X9X9X9X#X8XxXtX:XXX|.oXoX|.{.i.XX.X:X@X=Xv.,.A Z m m m x x x v M b @ . x M <.M.8XxX8XvXtXxX=Xq.V 5.e.q.q.q.y.y.y.9.q.u.u.z.r._ } {.:X:XXX{.D.{.D.| W ! ! E ! Q Q Y T ~ +.Z.~ X.+.D.O.{.oX{.{.XXXXD.O.i.i.F.i.o.F.&X:XXX.Xt.XXXXi.i.F.J.&X:X:X|.i.{.{.D.O.+.+.) w e '.'.'.'.`.).r 7 e e [.OXOX].].].].].].].].].].].].[.OXOXOX[.}.OXOXOXOX[.].OXOX].) ].].}.oXoX|.|.oX:XqXoX}.XXXX{.}.oX{.{.{.{.|.F.{.XX X X:X:XXX{.i.|.{.! ( T +.Q OX: q C.e 7 e ].].C.].].].].OXOXOX[.OXfX}.}.G.G.sXqXoXXXXX}.Z.^ w C.+.T R | ^ ~ O...D...~ +.Z.C.Z.Z.D.XXfXoXXXXX;X;X;X;XP.P.P.%X-X0X0XpX0X0XuX-XP. XI.I.I.Y.Y.I.I.I.Y.w.Y.I.U.;X0X-X;X XF.t. ...t.G.w.G.G.O.~ ( R 9 9 1 > g j f f j k p p f f d f H _  .r.' ` o.t.t. . .9. .9.u.J.L.@XJ.J.J.9.K 5.J.%X-X%XL.E.R.R.6XQ.W.W.Q.#X#X#X2X",
"Q.Q.Q.Q.Q.Q.Q.Q.Q.*X*X*X*X*X@XQ.1X1X*X1X2X3X1X*X*XP.H.I.|.G.D.t.i.i. .{ [ K H - , , , , ; ; - p V y A q.q.K.@Xl.J.L.l.[ [ u.J.F.u.e.&X:XF.&X&XO - p - * k { r.t.i.r.o.r.i.z.z.z.@X2X2X2X$X$X#X=X=X XL.L.c.y.v.m.#XCXHXDXDXGXFXkXkXkXkXFXFXkX,X+X+X9XBX8X=X$X$X$X X.Xz. X:XaXaX9XaXBXaX7X=X9X8X8X7X=X:X:X:XXX|.|.XX|.|. X&X&X7XxXBXVXVXc.A B m m + m M M + . x z M A j.x.,X,X2X9X2XBXAXSXBXSXSXBXJXJXJXJXSXSXBXaXtXz.y.9.d d i.:XXXF.t.t.t.o.' ` W E W ` W W | O.o.D.O.O.i.o.W o.| i.{.:X&Xi.|.|.|.|.t.` F.i.XX|.oX|.i.|. XF.J.J.7X=X&X&XXX.XXX.XF.D.Z.+.) '.[.'.'.[.'.e '.r r ].OX}.{.Z.}.].].].}.oXoXOX}.}.}.{.{.}.}.}.}.}.}.}.OX{.].}.}.{.}.oXoXXXoX:XoX&X:XoXqX:XoXoXoXXXXX|.F.oXXXF.|.|.|.oX@X&XuXXXt.D.O.oX{.Q G Y , , g , ( w q ^ w C.Z.Z.].].].].Z.}.fXfXdXdXdXdXsXsXiXiXXXG.G.oX}.A.^ 0 ~ ^ A.Z.}.qXqXG.A.D.W +.X.X.( ~ A.XXoXoXoXXX;XwXU.U.^.%X^.I.H.I.P.U.U.XX%XXX%XXX-X;X0XpXwXeXuXuXwX0X;XU.P.I.P. X XI.e...e.....I.I.P.G.D.Z.+.( R < > > k H j f f K H f f d - f .. .{ [ { ` _ _ [ 9. . .t.J. X@X@X*X*X&X&X X9.5.J.%X-X*XL.g.K.Q.1XT.Q.Q.Q.1X1X2X2X",
"Q.Q.Q.E.E.Q.Q.Q.1X1X*X*X*X*X*X*X1X1X*X*X*X2X*XE.P.H.H. XXX|.G.G.i.i.9. .` K K - > , , , , - - p t 7.+Xf.m 7.@XL.@X*X*XP. X&X%XP.P.e.F. XI. X&XJ.* - d ` ` { { r.z.J..X.XJ..X&X9X8X2X,X>X2X2X2X$X=X X+X=X2X=X#X#X4XDXGXvXbXFXFXMXFXvXkXMXFXvXkXjX4XxXVXvXjXjX8X9X7X=X&X=X:X7X7X7X9X7XtX9X7X$X&X&X=X X&X&XXX.X.X|..X|..X&X9X8XvXVXDX8XBXDXVX2X=.+ + y + c M c b + Z ,.k.#XVXVXVXGXHXPXPXLXHXHXHXGXHXHXHXHXHXHXHXJXAX=X@X7X&X@X&X&X&X|.F.i.t. .[ ` r. . . .[ ` ` ..t.F.t.'  . . .9...|..X&X&X.X&Xu.wX:X XJ..X[ z.F.F. XJ.J.u.u.@X&X2X=X7X7X:X:X&X.XXX{.|.}.{.].[.[.[.'.r 7 e & ) OX}.oX}.{.{.XX{.Z.{.{.}.XXoXoXoX{.|.}.XXXX}.XXXX}.oX}.}.XX}.}.XXoXoXoX:XqX:X&X X.X|.|.XXXXXXXXXXXX:X.XXX&XJ. X:XXX:X@X:X X|.XXo.| +.W G G f > - - : 4 4 ( Z.OXOXoX}.Z.D.G.G.}.fXqXdXdXiXiXiXiXiXiXiXXXG.I.G.| ~ A.A.G.fXsXsXdXqX0X}.}.| {.}.Z.~ W ..XX0XXX;XqX0XU.^.^.^.*X*X^.P.P.I.U.%X;X-X0XpXeXpXpXwXwXwXwXpXpX0XpXpX0X-X;X%X%XI.I.Y.P. XG.e.w.I.;XI.t.O.+.X.Q Y , d k k j j k p f d f f d f ` [ [ ` [ [ ` ` [ 5.[ 5.q.z.L.K.l.f.f.f.l.q.L L e.q.g.g.g.g.T.Q.1XT.!.Q.Q.*X*X*X*X",
"Q.Q.E.E.E.E.Q.Q.1X1X1X*X*X2X2X2X2X2X*X*X*X2X*X*XE.P.P. X XF.G.i.i.z.u.9.K K [ p - - , , , , - p V d.#XR.7.x.3X3X*X7XtXrXrXrXpX;X%XP.J. X&XI.J.&Xu.f * 9. .z.i.z..X&X&X@X+X+X$X9X#X5XvXDXDXvXjX4X,X+X+X2XxXxX8X4XbXGXDXvXMXMXMXFXFXMXMXMXMXFXFXFXFXDXDXFXvXCXkX4X7X:X=X=X:X:X7X7X:X=X:XtX9X&X X&X&X XXXXX.XoX:XXX&X&X=X7XxXCXVXCXVX$XE.$XxXSXAXHXBX2X1.M M z z @ =.k.p.4XKXHXGXKXPXLXHXHXGXAXGXHXHXHXHXHXHXHXHXHXGX2X#X7X7X7X:XL.J.u.9.9.q.J.&XqXu.J..X&X:X:XtXaX&X&Xu.9..X:X Xy.z.J.l.tXBX7XBXZXtXtX:X9.J.q.J.9.u.u.] J.L.&X:X7X2X9XtXaXtXtX7X&X:X.X XoXoXOXOX[.].'.e e e & ].fXoXoX|.F.t.|.|.oXF.|.oX:X:X:X&XXX XXXXXXXXXoXXXXXoXXXXXoX:X:XuXaX:X&X:X7X&X X X.XF.|.XX&X:X:XqX:XwX:X&X&X&XI. XwXtX7XuX.XF.|.O.O.O.| E H k - = - 1 ~ ~ Z.D.oX}.}.XXG.G.}.}.oXqXdXdXiXiXiXiXiXiXiXmXeX0X0XfX}.U.oXfXdXiXdXoXG...G.G.U.A.{.D.Z.+.Z.G.XXoX;X0X;XI.H.^.^.%X;X*X%X%X%X%X%X;X;X0X0XpXeXeXeXeXeXwXpX0X0XpXpXeXeXeX0X-X;X%XP.P.P.U.I.Y...Y.-XXXG.O.O.O.! E k f k k j j K f f f f j f j ` 9.9.e.9.q.9.5.5.5.5.0.q.l.x.d.7.j.j.l.x.g.L P w.g.g.g.j.j.j.j.T.T.!.Q.Q.Q.Q.Q.Q.",
"Q.Q.Q.E.Q.Q.*X*X1X1X1X1X1X2X6X2X*X*X*X*X2X3X3X2X*XE.P.L.H.u.u.F.u.l.l.q.K K 5.p - - f g G , - p 5.q.E.2X2X5XzXrX3X8XrX3X3XrXwX3X%X-X-X&X-XP.u.J.-X9.j z.9. X.X.X X X@X$X9XCXGXGX4XkXDXDXbXvXMXDXVXxX8XxXDXDXDXDXDXDXDXFXFXFXMXFXFXMXMXFXFXFXFXMXFXFXDXFXFXMXkX4X=X&X$X&X$X:X7X:X7X=X=X:X:X&X&X:X:XoXoXXX&X7XaX7X:X7X8XxXxXCXvXkXxX8XvXxXxXBXxXBXcXPXPXPXjX,.x c <.m.<.jXKXGXDXHXHXGXGXGXGXVXVXGXBXVXVXVXDXGXGXGXGXVXvXtX7X9XtX2X@XK.q.9.q.H.@X:X:X:X:X:X*X@XE.L.c.=X7X&X&X&X Xz.&XL.6.tXBX7XtXAXBXBX7X5.&X7XBX X Xq.V :XtXBX7XrX8XxXBXxXtXBXBX7X7X&X&XqXqXoXOX].'.'.C.[.C.& }.oXoXoX|.&X%X XXXaX&X7XaXaXtX&X-XwX&X&X X.X XXXXX XXX|.|. X X X&X:XtXwX7X3X@X@X=X&X&X&X:XuXaXBXBXBX7XtX7X:X-XL..XSXyXBXZX&XF.|.|.XXt.t.` G k - = - % ~ | Z.{.oX}.XX}.}.XXfXqXdXdX0XiXiXiXiXiXiXiXiXeXiXiXiXsXqXfXdXeXsX0XU.XXXXG.G...G.......Z.D.|.XXXXXXXXU.Y.Y.%X*X*X*X*X*X%X%X%X;X;X;X;X;X;X;X-XpXpXpXpXpXpX0X0XpXpXpXpX0X-X;X;X-XXXP.P.Y.Y.Y.[ Y.%XXXG.D.O.O.' E k j j j j k H H G f d d - H 9.z.J.J.J.l.u.l.l.w.g.x.K.R.R.T.j.Q.Q.#X*XE.q.0.K.R.T.T.T.T.j.d.j.!.Q.Q.Q.Q.Q.Q.Q.",
"Q.Q.Q.Q.Q.Q.1X1X*X*X*X1X1X1X1X2X*X2X*X*X1X2X2X2X#XE.E.L.H.H.J.L.l.J.z.q.L L 5.V p s G J J s p p 5.L.3X3X3X8XrX3X5X5X3X1X1X3X3X3X3X0X-X;XP.@X XJ.L.J.J.:Xy. X X&X=X=X$X$X,X4X,X>XDXCXvXvXMXFXMXMXGXCXvXvXFXDXDXFXFXFXMXFXGXFXMXFXFXFXFXFXFXFXMXMXMXFXFXFXFXFXMXkX8X9X=X=X2X9X2X=X9X7X=X&X&X&X:X:X:X:X:X&X=XtXBXtX9XxXCXCXxXvXCXvXjX9XjXrXcXAXbXAXSXbX5XcXxXm.A . ,.j.=.jXKXGXDXHXHXGXGXGXGXvXxXcX8X8XzXcXVXDXGXGXGXHXKXHXAXVXAXBXGXVXcXcXtXtX7X:X@X@X*X=X=X=X=X=X=X8XVXBX7X@Xc.q.@X=Xx.xXVXVXDXCXcX8X=Xg.7XBXSXaX7X*XL.SXAXBX7XcXxXvXCXvXxXVXSXxXxXtXtXuXuXdXoXZ.].].) ) 8 & {.{.oX&XuXBXSXtXtXSXBXAXSXAXtX7XrXZX-X&X@X X@X&X:X&X:X-X-X:XwXtXcXBXAXBXcX8X=X3XxXBXtXaXBXSXSXSXSXAXBXtXSXSX-X=XaXZXcXZXZXwX0XqXXX|.t.D.| E G ; O % % | | +.D.}.G.}.}.XXqXdXiXsXiX0XeXiXiXiXiXiXiXiXiXsXiXeXiXeXqXsXiXsX0XU.0X0XI.e.0XG.W ....D.O.G.G.;XXXY.Y.P.%X;X%X%X;X%X%X%X%X%X%X%X%X%X%X%X;X;X;X;X;X;X-X-X-X-X0X0X0X;X;X;X;X;X;X;X-X;XP.P.H.I I./.Y.G.G.t.r.{ h h h h j d f k > f > - - - K J.J.J.L.L.x.x.L.E.E.@X#X#X>X>X1X1XW.Q.#X*X@Xq.0.K.g.f.j.T.T.j.T.Q.E.Q.Q.Q.Q.W.W.W.",
"Q.Q.Q.Q.Q.Q.1X1X#X#X*X1X1X1X6X2X2X2X2X*X*X1X*X#X#X*X*X*X@XP.L.L.L.E.l.q.1.L ,.P s f f f f s s s J.@X=X7X3X3X3X5X5X5X5X5X5X3X3X3XrX;X-X7X%XE.%XL.H. X@X:Xl. X X X.X=X9XjXvXFXDXFXvXvXFXFXFXFXMXMXMXMXMXMXMXvXMXMXFXFXMXMXFXFXMXFXFXFXFXkXkXFXFXFXkXvXFXFXFXMXkXkXCXjX9X9X8X8X2X$X=X$X&X@X&X&X:X:X:X:X7X7X7XtXCXvXjXvXVXVXxX8X8XxXVX8XvXDXZXtX3XcXbXbXBXGX5Xf.,.@ <.p.=.,XGXDXVXHXGXDXDXGXDXvXkXzXxXcXcXbXVXDXDXDXbXVXDXAXAXSXAXBXBXvXxXBXAXBXtXtXyXBXBXxXtXxXzX8XGXBXCXVXAXVX=Xy.6.q.4.8XxXxX8X9X2X8X8XK.#XtXBXtX7XtX7XSXBXBXcXcXxXvXVXCXBXAXGXvXbXVXBXtXtXsXqXD.+.'.w 8 5 & ].X.|.qXSXBXHXAXGXGXHXDXVXBXbXxXBXSXtXtX7X7XwXyXaXyX-X-X-X7XtXcXBXDXVXBXVXcXrXxXAXAXAXAXAXAXDXDXAXVXGXDXAXAXBXBXAXBXbXbXBXyXyXuX&XF.t.D.O.~ ! , % % 3 Z.A.Z.Z.}.D.}.XXoXqXeXeXsXsXqXeXiXiXiXiXiXiXiXsXsXiXiXiXiXiXsXqX0X0XeXSXSXsXsXuXG...G.G...J I.U.U.I.Y.^.;X%X%X^.%X%X%X^.;X;X;X%X%X;X%X%X%X%X%X;X%X%X;X%X;X%X;XXX;X0X0X0X;X;X;X;X-XpX0X;XP.Y.[ I./.I.I.|.t.{ K t t u a p d f f > f f f f d H u.l.L.L.K.x.K.#X1X*X1X1X>XQ.~.<X6X~.#X#X*XE.0.[ l.d.j.x.T.T.T.R.#XE.Q.Q.Q.Q.Q.W.Q.",
"Q.Q.#X#X#X>X#X#X#X#X1X6X6X6X6X6X2X2X2X=X*X*X#X#X1X1X1X*X*X#XE.L.E.*Xj.0.d.L A 1.s f f f s s s j %X X@X7XtX3X3XrXrX5X5XrX5X3X3X3X3X;X3XwX-XE.K.H.E. Xc.c.c.@X+XL.L.9XCXvXkXkXMXMXMXFXFXMXkXnXFXKXFXFXGXGXGXFXFXFXMXFXMXMXFXMXMXDXFXFXCXkXkXkXFXFXFXCXMXkXkXkXkXjXvXxXkXkXkXkXjX8X$X$X$X$X&XXX&X&X:X:X9XtX8XjXbXCXDXCXvXxX8X2X:X9XxX8XcXcXrX3XrXGXyX3X3XtXR.f.7.+ p.,.,.M.DXGXGXGXHXGXGXGXGXGXDXVXDXAXAXZXAXAXbXbXbXbXxXxXAXSXSXSXGXAXBXBXBXBXBXBXtXtXtX8X8XrXrX8X8XxXDXVXtXBXtX@X=X@Xy.GXVX8X2X8X5XGXGX#XE.VXBXtX7X7X*XtXBXGXGXxXvXxXvXVXCXVXDXbXVXDXVXcXcXaXqXD.].) w r w 0 ].+.XXaXZXtXBXGXGXDXGXAXbXbXbXbXVXAXAXAXBXBXBXSXSXZXSXSXSXAXZXZXBXbXVXbXVXBXxXBXAXBXAXAXDXDXDXDXDXDXDXHXbXxXHXAXrXBXcXZXBXBXwX;XXXXXF.+.+.( T 9 4 1 3 ~ ~ Z.Z.}.XXfX0XXXqXiXeXqXeXiXiXiXiXiXiXiXiXiXqXqXdXiXiXiXiXqXiX0X0X0X0X0X0X0X;XG.G.XXG...J XXXXI.H.%X0X;XP.%X;X;X;X;X%X;X;X;X;X;X;X;X%X%XU.U.;X;X%X;X;X;X;X;XXX0X0X0X0X0X0X0X0X0XpXpXwX;XH.e.I.;XI.H.H.9.] h i u u a p d f g G G G G H f H 9.J.J.L.z.x.R.Q.#X1X>XQ.Q.Q.~.~.~.6X1X1X#XL.0.5.H.R.Q.E.R.T.T.T.T.T.R.Q.Q.Q.Q.Q.Q.",
"1X1X1X1X1X1X#X#X#X#X1X2X6X6X6X2X2X2X3X2X2X2X1X1X#X#X#X#X#X1X2X*X#X2Xj.d.j.P m 1.j j s - - s j J u.-XwX*X-XrX5X1X5X3X3X5X3X3X*X3X*X3X-X%X%XE.K.E.z.L.L.l.L.c.L.@XR.9XCXCXMXFXMXkXkXkXMXFXFXFXMXkXMXFXFXFXFXFXMXMXkXFXFXMXFXMXvXMXkXCXFXkXkXvXMXkXFXvXkXkXkXvXvXkXCXCXFXDXFXFXFXCXCX9X=X7X:X.X|.XX&X$X7XtX8X8XvXDXDXkX8X8X7X=X*X7X2XrXAXcXtXmXyXyXmX3XrXrXg.7.d.+ h.Z <.m.GXKXKXKXHXGXGXVXCXVXVXvXVXBXbXcXZXAXAXDXzXcXcXbXAXBXbXVXcXBXBXVXBXtXtXcXBXBXxXrXrXxXxXzX8XxXVXvXxXSXBX X@X7XL.CXtXDXDXVXVXVXrX=X@XBX7XBXtX7X*XxXGXAXAXbXDXvXvXCXvXBXAXDXDXVXDXDXBXBX7XF.OX+.^ R Z.+.}.XX&XaXBXGXAXGXcXVXbXGXGXVXzXzXcXVXAXAXSXBXBXBXaXtXyXcXbXbXBXAXAXDXDXVXAXBXcXVXSXBXVXDXVXVXDXAXGXGXGXbXDXGXcXxXBXcXxXcXcXZXyX&XXXXX{.O.| T : 8 0 9 T W ~ Z.Z.}.oXqXqXXX0XsXsX0XqXiXiXiXiXiXiXiXiXsXsXeXeXiXqXiXiXqX0X0X0X0X0XeXeX;XXXU.I.F.G.I...G.Y.P.%XP.%X;X;X;X;X0X0X;X;X;X;XU.XX;X;X;X;X%X%X%X;X;X;X;X;X-X0X0X0XqXqXqX0X0XqX0X0XqXeXiXSXeXH.e.;X0XY.I I [ 9.L u m m a h f g Y G < , , H G H  .J.J.l.f.x.R.!.T.1X#XQ.>X1X6X>XQ.Q.W.T.K.l.5.5.L.T.R.R.T.T.Q.Q.T.T.T.W.W.W.W.Q.Q.",
"1X1X1X*X#X#X#X#X1X1X1X6X5X5X5X2X2X2X3X5X3X2X1X#X1X1X1X#X#X#X#X1X>X1X>Xd.7.7.P K P J - - - , J I w.-XrX-X*X3X3X3X3X3X3X3X3X3X3X*X*X=X2X7X-X*X@XE.P.L.L.@XL.+X2XR.,X#X2XCXDXvXkXDXbXMXMXMXMXMXMXMXMXFXFXFXFXFXMXvXMXFXFXFXFXMXMXMXFXFXMXMXMXMXMXMXMXMXvXkXkXkXvXkX4XvXGXvXDXkXMXkXbXGXVX9X=X:X&X|. X@X&X8XtX8XtXVXcXtXtX9X7X7X7X7X=X7XBXwXtXwXyXyXuXwXyXE.d.d.x.A p.b b <.jXHXDXKXGXGXDXVXVXVXbXxXBXBXBXBXBXAXAXBXxXxXcXVXAXVXAXDXVXDXDXAXcXxXcXcXBXcXtX8X8XrXtX8XrXcXcXBXCXBXBX#XL.tXl.aXBXBXVXbXCXCXxXtXl.9XHXSXCXVXL.BXGXVXVXGXAXCXVXAXcXxXBXCXGXbXxXBXBXBX7XJ.:Xt.| W | | |.oX:XyXSXAXHXGXxXBXbXGXHX5XQ.5XcXAXAXSXSXSXAXBXbXbXGXzXAXAXcXAXGXGXGXSXAXZXZXVXZXVXBXDXDXVXbXVXDXGXAXGXDXVXAXAXAXBXBXSXBXZXSXwXI.I.G.O.W 3 9 & & R ~ ~ J D.U.fX;X0XXXI.;XiXiXqXqXsXiXeXiXgXeXsXqXsXiXiXiXiXiXiXiXeXiX0X0XiXqXXX0X0XXXU.I. XG.G...Y.P.^.;X;X;X%X;X0XeX0X0X0X0X0X0X;X;X;XU.U.XX;X;X;X;X;X;X;X0X0XpXqX0X0XqXqXqX0X0X0XqXqXuXuXuXeXI.Y.iXwXXX` ..` [ P a u u m j k g Y 3 3 3 G ` ....[ J.L.L.K.j.n.M.!.Q.#XQ.T.T.Q.#XE.R.K.d.q.l.0.0.E.R.W.W.R.T.T.T.T.Q.W.!.T.!.Q.Q.>X",
"1X1X1X1X#X#X#X#X1X1X1X1X6X2X2X2X2X3X3X3X3X2X1X1X6X6X1X1X1X>X>X>X<X1XQ.d.1.1.P P I I J J J J W ` e.^.3X3X3X*X*X3X3X3X3X3X-X3XpX3X3X$X#X*X*X@X*X7X@X3X=X2Xf.+X+X2X+X+X2XxXCXvXvXDXbXMXMXMXMXMXFXFXFXFXFXMXMXMXMXFXFXFXFXFXFXFXFXFXFXFXMXMXMXMXMXMXMXMXMXkXkXkXvXvXvXvXhXkXMXDXMXFXvX5X>X7XtXtX:X X&X:X*X X=XyXBX7X=X=X*X*X*X*X=X=X#X@X@X@X-X:XpX-X0X%X-XP.j.x.#Xh.&.$.$.-.W.vXDXKXHXHXGXVXcXcXcXcXAXAXAXBXBXVXBXBXAXAXGXGXDXCXbXVXxXcXbXbXcXbXBXAXcXcXxXrX8XtXrX8XtXcXvXbXbXbXcX@XJ.tXJ.aXBXBXBXbXCXVXxXxXc.2XGXVXDXDX+XtXSXSXJXHXGXCXBXAXcXvXCXcXxXxXBXVXcXvXxX2XyXu.= - _ [ i.e.-XHXGXAXGXVXAXZXAXAXGXxXzXSXAXAXSXSXSXSXAXAXAXAXAXbXGXGXbXGXSXcXSXSXAXAXZXZXAXVXAXVXVXBXbXbXBXVXVXDXDXAXAXDXAXbXZXJXcXrXSXSX-XF.F.G.| T 4 & & w ^ | J | ..XX;X0XXX0XeXqXeXsXsXqXiXqXsXqXqXsXsXiXiXiXiXiXiXiXiXiXiXeXqXeX0X0X;XU.XXY.w.t...e.[ Y.%X%X;X;X;X;X0XpXeXpX0X0XpXqXpXpX0X0X0X;X;X;X;X;X0X0X0X0X0X0XpXqX0X0X0X0X0X0X0X0XqXqXiXiXiXeXXXXXuXiXuXXXO.` ` P a y u m V k g Y 3 9 G G ` ` I [ H.L.L.K.x.n.M.!.j.T.R.T.R.R.T.g.d.g.d.l.L.q.5.L.R.W.W.T.T.T.W.W.Q.Q.Q.Q.Q.Q.>X>X",
"1X1X1X1X#X#X#X#X#X1X1X1X1X2X2X5X2X3X3X2X2X2X6X1X1X1X1X1X1X1X1X1X<X1X>Xf.7.1.P I K I [ ` ` W J J e.K.*X3XrX*X*X3X3X3X3X3X*X-XpXpX3X2X*X2X*XE.@X3X3X3X8XR.7.W.+XjX2X9XjXvXvXvXvXbXMXMXMXMXMXFXFXFXFXFXMXvXvXvXvXMXvXMXMXMXMXMXMXMXFXFXFXMXMXMXMXMXMXMXvXkXvXkXvXxXbXvX4XFXMXFXjXvXxX2X2X8XtX:X&X&X&X X@X&X7X:X&X@X@X@X&X&X&X&X&X&X*X*X*X7XwXuXwXpXpX%X*XE.K.x.#Xm.b &.$.-.M.kXKXHXHXKXHXVXvXcXVXVXBXBXBXcXcXBXVXBXBXBXVXVXVXcXbXVXAXVXBXBXbXBXBXBXcXcXcXrX8XrXtXrXxXBXvXbXbXbXbX#Xz.:XJ.aXBXcXBXbXBXVXBXxXL.=XVXVX8XCX#XxXHXHXAXCXGXCXCXVXBXBXCXvXBXxXxXcXcXCXxX=XBX Xp J _ I G.u.P.GXbXbXAXcXHXbXSXbXZXcXbXGXZXAXSXSXAXZXAXAXAXGXGXbXAXBXbXGXAXbXSXSXSXSXAXAXAXZXAXBXcXBXVXbXCXVXVXAXDXAXAXGXAXZXyXSXSXyXZXZXuX-XI.G.X.Q 9 & & 0 ~ X.J J ~ U.XXXX0XU.;XiXsXqXeXsXLXqXsXiXgXeXeXiXiXiXiXiXiXiXeXeX0XiXiXXXI.Y.I.U.XXY...e...Y.Y.;X;X;X;X;X;X0XpXeXeXpX0X0XqXeXeXqXeXeXqXpX0XpXpXpX0X0XpXpXpXpXpX0X0X0X0X0X0X0X0X0X;X;XeXqX0XqXXXI.iXuXiX0X..`  .e.a s a h k k g < : 9 G f f j P e.l.L.R.T.m.m.m.m.j.T.R.R.T.R.K.d.d.d.g.K.E.0.1.R.T.T.T.T.T.!.Q.Q.Q.Q.~.>X>X>X>X>X",
"1X1X1X1X1X#X#X#X#X1X1X1X#X1X2X5X5X3X3X2X2X2X1X1X#X#X>X>X>X>X1X1XQ.>X1XT.g.7.V P K K I ` I J J I w.I.*X3XrX3X1X3X3X3X3X3X-X3X-X-X2X2X3X2X2X*X*X=X3XK.*XN p.m.2XkXkXCXDXCXvXvXvXkXMXMXFXFXFXFXMXMXMXMXFXMXMXMXvXvXkXkXkXMXMXMXMXMXFXFXFXMXMXMXMXMXMXMXvXkXvXvXxXxXkXbXkXbXkXkX4X8XxXxXtX7X&X.X.X.XJ.J.&X:X&XJ.u.J.@X&X&X&X&X&X&X@X@X=X7XyX-X-X;XpXpX;X-XE.R.v.x.p.x %.b ;.M.kXKXGXKXHXGXVXbXBXVXVXcXBXBXxXxXBXVXAXxXxXzXvXbXbXbXCXGXDXAXAXAXAXBXcXBXBXcXrX7X8XtXxXcXBXbXVXbXbXCX2Xz.@XL.BXBXxXVXVXCXVXVXBX@X@XBXVXHXGX2X2XVXHXHXHXGXBXVXVXcXcXBXcXAXvXxXcXcXCXxX*X;X X- I J f e.F.e.tXtXbXGXAXGXbXZXbXAXcXrXzXxXGXAXZXZXZXAXAXGXGXHXbXBXZXAXAXZXGXGXSXSXSXSXSXAXAXDXxXxXVXDXVXVXGXVXAXVXBXbXAXAXAXcXBXZXSXZXyXuXsX XF.O.~ T 4 4 q ~ W J W G.0X0XXXU.0XeXiXiXiXsXqXU.G.XXeXgXqXeXsXiXiXiXiXiXiXiXiXiXeXY...Y.U.Y.Y.w.I [ e...Y.Y.;X;X;X;X;X0XpXeXqXeXeX0XpXqXqXqX0XeXeXeXeXeXeXqX0XpXpXpXqXpXpXpX0XqXqXqX0X0XqXqXqXpX0XeXqXqXqXXXU.iXqX0XeXG.Y.t.e.K m a j j g < 3 < G f p p B 1.K.K.R.E.T.T.T.M.m.T.W.R.T.K.T.T.x.T.K.x.R.E.7.1.Q.R.T.T.T.W.Q.Q.>XQ.Q.~.>X>X>X~.Q.",
"1X1X*X1X1X*X*X*X#X#X1X*X#X1X2X5X8X3X3X2X1X1X*X*X1X*X*X#X>X>X>X>XW.Q.6XQ.x.7.j j I J K ....J J ..H.;X-X-X3XrX3X3X3X3X3X3X3X3X-XE.#X2X5X2X2X3X3X3Xg.1.j.+ 1.M.5XvXkXFXFXCXvXFXFXMXMXMXMXFXFXFXFXFXMXFXFXFXFXMXMXMXMXMXMXMXMXMXMXFXMXMXMXMXMXMXMXMXMXMXvXvXvXvXxXvXkXvXkX,X8X8X8X9X7X:X@XJ.z.z.J.u.J.&X&XJ.q.u.u.u.J.@X&X&X&X&X=X&X@X7X7XuX XI.I.;X;X-X:XJ.H.z.x.8.z b z ;.M.<XFXGXHXHXGXVXVXVXbXxXAXAXAXBXcXBXVXBXVXxXzXxXBXBXvXxXxXxXcXBXAXAXBXcXBXBXBXxXrXrXtXtXvXbXvXVXbXbXVX8XK.L.L.BXBXxXVXbXvXVXAXBX=X@XCXAXAXBX$XL.9XtXBXBXBXBXAXVXxXxXcXcXxXcXAXVXxXtXxX8XwX-Xp [ t.t.I.I.l.=XtXcXGXGXbXAXAXZXGXAXxXzXcXGXBXbXbXZXAXSXAXAXAXAXGXcXcXSXZXGXGXGXSXSXGXSXAXAXDXxXxXVXGXAXAXGXVXAXZXbXcXAXAXAXGXbXcXZXZXmXyXwX;XI.D...T 3 : 1 T G G J ..A.G.G.0X0XU.U.U.XXqX0XG.I.XXeXeXsXsXiXiXiXiXiXiXiXiXiXsX0XY...I.U.Y.Y...I e.Y.w.G.Y.;X;X;X;X;X0XeXeXpXeXeXqXqXqXqX0X0XeXeXeX0XpX0X;X;XqX0XpXpXpXpXpXqXeXqX0X0X0XqXqXqXeX0XpX0XpXqXXXI.iXqXeXsXXXI.e.K P V s f f g < < g g f h V A 7.m.T.W.W.T.T.T.!.T.T.T.T.j.j.x.m.x.Q.Q.T.E.R.0.7.Q.W.T.T.!.Q.Q.>X>X>X>X>X>X>XQ.Q.Q.",
"1X*X*X>X1X1X1X1X#X#X*X*X1X1X2X3X5X3X2X2X1X*X*X#X6X6X1X1X>XQ.Q.Q.Q.Q.#XR.x.5.s j I J K e...I J [ P.3X3X-X3XrX5X3X3X3X3X3XwXwX*XR.E.1X3X3X3X3XQ.H.P ,.d.,.x T.hXMXvXvXFXvXvXMXMXMXMXMXkXkXMXMXFXFXFXFXMXMXMXMXFXFXFXFXFXMXMXMXMXFXMXMXMXMXMXMXMXMXMXMXvXvXvXvXvXvXkXvXkX#XxXtX7X XJ.i.r.i.u.u.J.&X X XJ.t.r.u.u.z..X&X:X&X&X&X&X&X7XtX-X%XH.I.I. XXX-X-Xw.q.f.l.7.n %.v -.n.n.4XKXHXGXDXbXbXVXxX8XvXBXBXcXxXcXCXCXAXcXxXcXVXVXvXzX8XrXxXbXVXVXBXbXcXBXAXBXBXcXxXrXxXvXxXbXbXbXVX8XL.z.L.cXVXxXVXbXCXBXAXVX9X@XBXGXVXAXxX8XGXAXCXxXcXBXAXBX8X8XxXxXxXxXcXvXrXrX8X=XrX-Xj J  . .F.Y.P.-XtXrXbXZXrXZXAXbXGXSXAXSXbXAXZXbXbXBXAXSXAXbXBXHXZXR.E.BXAXZXSXSXGXGXGXAXAXVXGXCXbXVXDXVXVXDXVXAXAXbXbXmXAXbXtXcXbXcXzXSXSXrXwX%XF.O.J G 1 % 1 , W ..A.A.XXqXgX0XG.XX0XXX0XU.0XqX0XsXiXsXiXiXsXiXiXiXiXiXeXeX0XXXU.I.Y.e.e.I.G.Y.G.I.Y.I.Y.0X;X;X0X0XeXeXeXqXqXqXqXqXqXqXqX0XqXqXqXqX0X0X0X0XqXqXpX0X0XpX0XqXqX0XpX0X0X0X0XpX0X;X;XXX;X0XU.I.0X0XeXiXU.I.Y...[ K f f f , : : g k h V =.A *.2.M.W.W.T.T.T.T.T.m.m.m.m.m.m.m.x.T.W.T.Q.Q.f.d.W.W.T.T.W.Q.>X>X~.1X1X>X>X>X>X>X>X",
"#X#X#X#X1X1X1X1X1X#X#X>X1X2X3X3X2X2X2X2X*X*X*X#X2X2X1X1X#XQ.#X#X1XQ.Q.R.K.0.j P J J K I I J j j %X-X3X3X3X3X3X5X5X3X3X3X3XwX3X*X1XQ.!.Q.Q.K.3.1.1.0.j.p.+ h.nXMXFXkXkXkXMXMXkXkXMXMXMXMXMXMXFXFXFXFXMXMXMXFXFXFXMXMXMXMXMXMXMXFXFXCXMXkXMXMXMXMXMXMXvXvXvXvXvXvXvXvXjX4X8X7X X9. .r.t.J.J.J.@X:X Xt.9.F.J.i.t.F. X:X:X&X%X&X&X@X:X:X&XF.Y.F.I.G.XX-X&Xw.q.6.6.8.n %.$.&.n.n.M.HXFXDXDXbXbXVXcXrX2X8XtXxXxXcXBXBXBXxXxXbXVXbXvXxXxXbXCXVXbXbXcXcXcXBXBXBXZXAXbXxXxXvXxXVXbXvXVX8X@Xl.L.xXVXvXDXbXCXVXDXVXtX@XxXGXGXVXxX2XVXxXxXVXBXBXAXBXrXrXxXrXBXrXrXxXcXcXrX@XZXBXJ.[ u.t.F.J.L.rXrXrXbXbXbXZXZXbXGXAXAXGXZXZXSXZXbXbXAXAXAXZXZXSXrXg.R.bXZXAXAXAXDXGXGXGXAXVXAXBXBXBXAXAXBXBXbXAXAXAXZXAXZXbX3XrXZXZXzXZXGXcXrX-X XD.H G , % 3 G ..J J 3 ......XXXX0X0X0XXXs 0XXXU.iXsXiXsXiXqXqX0X0XqX0X0XXXXXY.w.Y.I.I.Y.Y.Y.Y.w.Y.w.H.Y.XX0X0X0XqXqXqXqXqX0XqXqXqXqX0XqXqX0X0XqXeXeXeXeXeXqX0X0XpXpXpXpXqXpX0XpX0XpXpXpXpXeX0X0X;X%X-X;X-X0X0X0XU.I.Y.G.Y.[ I f f G , : 1 l l B B M z @ $.m.M.!.T.T.T.T.T.m.m.T.T.T.T.T.T.T.Q.W.W.Q.j.h.T.W.T.T.Q.Q.>XQ.Q.Q.Q.Q.>X1X>X1X1X",
"*X#X#X#X>X1X1X1X1X#XQ.>X1X6X3X2X*X*X*X*X*X*X*X*X#X#X#XQ.Q.#X#X1X1XQ.Q.E.E.w.K P J I K s s J J s ;X*X-X3X3X*X*XrX5X5X3X3X3XrX3X3XnXT.1.1.1.P ,.3.K.j.m.<.. 2.FXvXFXkXlXkXMXMXMXMXMXMXFXFXMXMXkXjXvXvXFXDXDXFXMXMXMXMXMXMXMXMXMXFXFXCXMXkXMXMXMXMXMXvXvXvXvXvXvXvXkXvX4X9X=X&Xi.i.o.t.t.t.|.:X&Xl.t.i.t.t.t.F.F.i.I.XX&X X X&X&X&X-XwXuXI.I.J.XXF.I. X&Xl.z.4.4.8.@ #.b v m.M.h.MXDXFXDXbXVXAXAXVX3XrXcXBXcXBXBXBXBXBXAXDXVXvXxXvXxXbXCXbXxXxXcXBXBXBXcXcXbXSXSXAXcXBXbXDXbXbXVX8X#Xl.L.xXAXbXDXbXVXVXDXCXxX+XxXGXDXCXVXtXGXCXtXVXAXAXGXBXxXxXcXrXxXxXBXAXBXAXBXtXcXyX X[ G.t.e.[ e.cXtXbXGXZXLXSXAXSXGXbXcXSXAXGXGXSXbXbXbXAXAXZXbXtX3X*XcXSXcXGXAXAXDXGXGXAXAXbXbXBXBXCXBXAXAXBXbXAXGXGXGXSXmXcXbX3XtXSXAXAXmX3XwX-X;XJ.I J k - ; , W J D.U.;XU.I.0X;XqX0XXXiXeXXX0X0X0XiXsXLXU.I.I.I.U.0X0X0X;XY.Y.Y.I.Y.I.;X;XU.Y.w.Y.Y.U.Y.XXpXpXqXqXqXpXpXpXqXqXeXeXqX0X0XqXqXqXqXqXqXqX0XpX0X0XqXqXqXqXpXpXeXeXpX0X0X0XqXqXeXpXeX;XU.;X;XpX0X0X0XI.XXI.G....._ J G Y Y < , l D B c n X X $.n.m.T.T.T.K.K.K.x.x.j.j.m.m.T.T.W.>XQ.T.Q.T.j.W.!.T.T.W.Q.Q.Q.W.T.T.Q.~.1X>X>X>X",
">X#X#X#X#X#X#X1XQ.1X6X6X2X2X2X2X3X3X3X3X2X2X2X*X2X2X2X2X1X1X1X1X1X#X*X#XE.w.J J s s p p s s O O P.l.*XtXE.f.E.rXbXrX5XrX3X*X*X3X6Xk.,.,.N N ,.1.j.T.1.*.@ <.KXMXMXMXFXFXMXkXkXkXkXMXMXMXMXMXFXFXkXvXvXvXvXCXFXMXFXFXMXMXMXMXMXMXFXCXkXkXFXFXMXMXvXMXvXvXvXxXkXkX4XjX>X+X=X&Xi.o.i.o.F.XXXX.XJ.u.t.t.t.t.t.t.i.F.I. X&X&X X X&X&X=XyXuX;X;XXXI.XX&X&X%XL.f.8.4.<.v n #.#.-.~.m.5XHXDXnXxXBXVXBXcXtXBXAXVXBXBXBXBXBXBXCXCXbXbXcXvXCXVXDXAXCXvXxXxXcXBXBXcXcXbXZXbXcXBXVXbXVXDXVXtX7X5.L.tXBXVXDXnXvXBXVXVXxX@XxXGXBXxX8X9XxXVXCXxXxXxXxXxXxXxXxXxXrXcXcXcXBXAXBXBXyXrX;X[ K [ [ H.K.V ZXHXcXcXtXSXAXGXSXZXbXtXzXAXAXZXbXbXAXSXSXZXyXrX3X3XtXZXZXbXAXZXAXAXDXDXAXbXcXxXBXcXBXGXAXAXbXAXGXGXGXAXAXZXcXtXcXAXGXmXtXtXcX*X%XP.e.j f p J G ..O.G.0XXX0XXXXX0X0X;XiXZXqXXX0X0X;XU.XX;XXXU.XXXXXXU.U.XX;XY.I.U.U.P.I.Y.Y.I.w.I.Y.Y.Y.I.;X;X0X0X0X0X0X0X0XqXeXeXqXqXqX0X0XeXpX0XqXqXpXpXeXqXqXqXqXqXqXqXqXpXpXpXeXeXpXpXeXpXpX-X%X%X;X0X0X0XXXU.;X;XI.I.|.I W W G < 3 < ; d F i $ . X @ %.-.h.x.g.K.K.K.K.j.T.T.x.j.T.Q.Q.W.R.T.m.j.j.T.!.T.T.W.W.W.W.W.W.!.!.W.Q.>X>XQ.Q.",
"#X#X#X>X#X#X>X>X1X1X6X6X2X2X2X2X3X3X3X2X2X2X=X*X*X1X2X1X1X#X#X#X#X#X*X@XP.w.j s s f - O - s J [ %X%X3XwX-X3X*Xg.P N A d.T.R.K.j.N + x ,.,.,.d.d.1.Q.d.&.v . %.kXkXkXMXMXkXkXFXFXkXFXFXFXvXkXjXjX8XjXjXvXCXDXDXDXFXFXFXFXFXFXFXFXvXvXkXkXMXvXMXMXMXkXkXkXvXCXVXVX,X,X,X=X*XJ.r.t.i.XXoXF. .J..Xu.G.G.t.t.t.t.F.F.J. X&X&X&X&X:X:XuXyXwX&X&X&X&X:X&XuXtXL.8.8.7.<.#.#.#.v $.m.n.5XbXVXVXbXcXcXcXxXcXBXBXcXcXBXBXcXxXvXcXbXbXbXBXVXVXVXGXGXGXVXcXxXrXcXSXSXSXAXbXcXAXAXVXVXbXxX8X9XtXL.K.BXxXbXvXDXvXVXGXAXvXT.2X9X8XCXBXxX8X8XxXvX8X8XrXzXxXxXcXcXBXBXcXxXcXBXBXbXcXwXP.K I e.[ w.Y.V 3X5X3XcXcXbXbXSXSXSXAXcXcXAXSXSXAXAXAXSXAXSXAXZXcXcXZXSXGXAXSXAXAXSXDXDXAXAXAXcXbXcXBXGXAXGXAXAXGXGXGXAXbXcXzXzXcXbXmXcXtXtXcX3XE.l.e.j t p I ` t...e.G.I.U.U.XX0XqXqXiXeXU.U.;X0X;X;X;X;XXXU.XX;X0X0XXX;X;X;X;X%XU.I.P.I.Y.U.Y.U.I.Y.Y.U.0X0XqXqXqXqXqXqXqXqXqXqXqXqX0X0X0X0X0XpXeXeXpX0XpXqXeXqXeXeXeXqXqXeXpXpXeXeXpXpXeXeXeXwX0X-X;X;XU.U.U.U.;XpXpX-XXX..W Y G , < < > = i i i z @ @ M <.p.q.q.l.L.H.H.K.R.E.E.E.R.R.T.Q.Q.Q.W.W.T.W.W.T.T.W.W.!.T.!.W.T.W.Q.Q.>X~.Q.Q.",
"1X1X#X#X#X#X#X#X1X2X2X1X1X1X6X2X2X2X2X2X2X=X2X1X*X*X2X2X*X#X#X#X1X*X=XE.L.u.J f - J f - O O O s ;X=X7X3X3XrXQ.A 3.,.,.0.d.1.m + N N <.d.k.d.k.3.3.j.2.x *.. o <XkXkXMXvXMXvXMXvXkXvXCXCXvXkXjXjX2X>X>X4X4X4X4XjXbXMXMXMXMXMXMXFXkXkXkXkXvXvXvXkXkXkXkXkXxXjX2X+X>X#X#X2X Xy.t.F.|.{.F. ...F.J.e.t.O.t.t.t.t.G.G.I. X&X:X:XqXwXuXuXwX-X;XqXqXqXuXuXBX8Xf.=.7.a.;.#.#.#.v v n.m.kXvXVXVXBXxXBXxXrXxXtX8X8XrXxXxXxXxXvXvXxXzXxXxXbXVXVXVXVXAXGXAXAXxXbXBXcXcXcXbXBXVXBXBXGXGXVXVXGX7XL.I tXxXbXvXGXVXCXVXGXVX2XvXGXVXVXVXCXCXCXvXxXzXzXcXcXbXbXbXZXAXbXbXbXbXAXSXcXtXcX-XK I I [ u.g.3.*X3X3XzXGXZXbXSXSXAXAXbXcXGXGXGXGXGXSXAXSXSXGXGXGXSXSXGXGXZXAXAXDXAXAXAXAXAXAXtXcXcXBXZXcXAXSXSXSXSXSXZXcXtXwXrXtXrXrXtXzXtXtXrXK.w.w.V O s s J K I e.Y.0XqX0X0XeXeXeXeXeX-XU.XX;XXX;X;X;XXX;X0X0X0X0X;X;X;X0X;XP.I.I.P.U.I.;XP.;X;XH.I.U.pX0X0X0X0XpXpXpX0XqXqXqXqXqXqX0X0X0XpXqXeXqX0X0XpXeXeXqXqXeXeXeXeXeXpXpXeXpX0XpXeXeXeXuXwX0X-X;XXXXX0X0XXXU.;X0X0Xt.W 3 3 1 1 , > = t i c b z + c ,.6.] [ e.F.u.w.w.l.K.@X*X#X#X#XT.T.R.W.Q.W.R.T.T.!.!.T.T.T.T.T.T.W.Q.~.~.Q.Q.~.",
"1X1X1X#X#X#X#X#X1X1X*X#X#X#X1X2X2X2X2X2X=X=X*X1X*X2X2X2X2X1X*X*X2X2X*XL.H.F.` H ..t.G.O...K s s %X@X-X3X*X@XK.1.P ,.1.3.3.,.P ,.*.<.d.h.k.k.k.d.d.1.,.x v $.M m.hXkXkXvXFXbXvXkXvXkXjXjX8XjXxXCXDXjX8XxXCXkXjXvXvXvXMXMXMXMXMXkXCXkXkXkXvXvXvXkXvXvXvXCXbXjX,XW.8X#X#X@Xu.u.|..X{. .'  .t.F.i. .....O.O.t.t.F.F.I. X:XqXqXqXwXuXwX-X&X:XwXqX:XwXaX7Xx.=.&.s.s.%.#.%.%.v v p.a.,XVXVXVXxXxXBXcX7X8X7X3X3X7XrXxXxXcXBXbXvXxXrXzXxXxXxXvXCXCXVXAXGXBXBXcXrXrXtXAXGXSXBXVXAXBXvXxXBXBX7X5.wXAXVXbXvXGXVXCXvXxXW.8XCXVXCXvXxXxXxXxXrXBXbXBXBXZXZXZXZXZXbXAXSXbXZXAXzXcXZXyXK I J [ H.Y.K.rXbXcXtXGXSXAXGXZXbXbXcXbXHXGXGXGXGXSXZXZXAXAXSXGXGXGXSXAXbXbXZXAXAXbXbXVXZXBXrXBXBXBXcXrXZXSXSXSXSXGXSXbXtXtXcXtX3X5XcXmXcXtX3XK.l.q.V + i L 3.K [ w.H.0X0X0XpXpX0X;X;XpXyX;X;XXXXXXX;X0X;X0X0X0X0X0X;X0X0XP.U.P.P.P.P.P.U.;XXX;X;XI.Y.^.pX0X0X0X0XeXeXeXqXqXqXqXqXqXqXqXqXqXeXeXqX0X0XpXeXeXeXqXeXeXeXeXeXeXpX0X0X0XpXpXeX0XeXwX0X0X0XwXpXqX0X;XP.I.P.I.I.O.G , < , > > > F F F B B u i u L [ _ _  .t.e.w.q.0.0.w.q.0.5.0.d.g.K.R.R.R.T.T.T.T.T.m.m.m.T.T.T.Q.>X>XQ.Q.Q.>X",
"*X1X#X#X#X#X*X*X#X#XQ.Q.Q.#X6X3X2X=X=X=X=X=X1X1X*X2X2X2X2X1X1X1X1X1X*XK.l.t.H G G J J J J J J j H.H.%X3XE.K.K.d.3.0.d.3.,.A P 1.<.k.j.h.k.k.p.p.k.p.<.M . @ s.a.M.,X4X4XnXvXxXCXVXxX9X2X=X2X7X9X8X$X$X2X2X,X,X8XjXkXCXFXFXFXMXvXFXCXCXkXkXkXMXvXvXvXkXkXkXkXxXxXxX2X@Xc.y..X&X|. . .t.O.O.D.G.| | ..O.O.D.G.F.|.I. X:XqX:X-XwXyXwX-X-XpX:X&X&X*X*Xl.,.M -.2.>.#.#.-.:.$.x &.*.p.8XBXBXxXtXtXtX7XrXrXtXtXtXtXxXCXvXBXBXCXbXvXvXbX2X8XvXCXCXvXcXCXcXBXAXSXSXSXSXSXBXSXSXBXcXBXBXcXtXwX9. XBXBXGXbXVXCXCXCXvX#X9XxXvXCXVXCX8X9XxXVXZXZXZXZXbXbXbXbXBXZXAXAXcXbXbXcXZXtX;Xj [ [ w.H.H.E.3XbXGXrXAXSXGXGXAXbXbXcXbXGXSXGXGXGXAXBXBXAXbXAXGXGXGXSXAXZXbXAXAXZXbXbXmXZXZXcXSXAXcXrXrXSXAXZXZXSXSXAXcXtXAXZXcXrXtXAXAXmXAX*XE.R.1.N m + 7.g.5.w.w.w.;X;XpXpXpXeXuXwXpXeXpX0X;X;X;X0X0X0X0X0X0X0X0X0X0X0XP.P.%X%X%X%X;X;X;X;X;X;XI.Y.;XpX0X0X0XpXeXeXeXpXeXeXqX0XpXqXqXqXpXeXeXqX0X0XpXeXeXeXqXeXeXeXeXeX0X0XqX0X0XqXeXqX0X0XpX0X0X0XpXpX0XU.I.U.;XP.e.I ` , 1 < , , d - h D F u h a t h _ ' | | O.t.t.u.J.u.u.H.H.w.q.g.q.l.L.E.R.T.T.T.T.T.T.m.m.m.T.T.W.Q.1X>XQ.Q.Q.>X",
"1X1X#X#X#X#X1X1X#X#X#X#X#X1X2X5X2X=X=X=X=X=X1X*X*X*X1X1X*X*X*X1X1X2X3XP.u. .f , , G 3 3 J ..J J 5.e.L.@XR.E.T.3.3.3.3.3.d.d.d.f.x.!.R.x.j.k.1.7.f.j.=.&.x . -.s.m.>X>X!.,X5X5XxXxX9X2X=X#X@X&X=X9X=X$X=X,X$X2X8X2X4XkXvXMXMXMXFXFXCXvXvXkXkXkXkXvXvXkXkXjX8X8X8X9X2X@Xc.L.&X@Xi.i.....t.t. ...H ` |  .O.D.G.I.|.J. X&X-X-X-XuXyXwX-X-X:X=X&X=X@Xf.8.*.;.2.>.:.#.v -.:.-.M *.Z ,.x.=XtXtX=X&X&X-XtXxXBXBXBXxXxXBXcXcXcXvXxXxXzXjXxXxXxXxXxXxXvXBXAXAXGXGXSXcXtXrX=X:X7X7XxXSXJXSXSXSX&X X7X2XbXVXDXVXVXDXVX2XCXGXCXCXCXCXvXxXvXAXZXZXZXBXbXmXmXZXbXAXbXxXmXAXAXGXrX*XP.K I I Y.%XP.K.T.1XGXcXmXSXAXGXSXAXSXbXcXAXSXGXGXGXAXAXZXZXcXbXAXAXAXGXAXAXAXAXSXSXSXZXZXZXBXcXZXcX7X7XrXSXAXZXZXZXZXmXcXrXcXyXrXrXcXSXGXGXGX*X^.R.N y N + x ,.d.H.g.w.%XuXeX0X;X0XyXyX0X;X;X;X;X;X0X0X0X0XXX;X0XqXeXqX0X;X;X;X;X;X%XP.;X-X;X-X;X0XU.Y.;X0XpX0X0X0XpXeXeXpXeXqXqX0X0XqXeXeX0XpXqXpX0X0X0X0XqXqXqXqXqXqXqXqX0XqXeXqXqXeXqXpX;X0XpX0X;X;X;XXXXXU.I.P.I.e.I ..J , 1 < , g g d F F t t h h k E G Q | X.O.o.t.G.9.9.e.u.u.u.u.l.w.l.L.L.K.K.x.K.T.T.T.m.m.T.T.W.Q.Q.>X>XQ.Q.Q.~.",
"*X#X#X#X>X1X1X1X*X1X1X1X1X1X2X3X*X=X=X=X=X*X*X*X#X*X*X#X#X*X1X2X2X2X2XP.u._ - , , G 3 3 W ..J s P 5.l.L.K.E.R.1.d.p.1.3.d.f.k.p.k.x.j.h.x.k.p.v.x.j.m M M z *.;.m.2X,XR.#XQ.E.2X#X#X@X@X@X%X*X=X$X=X2X2X=X$X,X2X,X4XjXkXkXkXvXvXCXvXkXkXkXkXkXkXFXvXvXvXkX8X2X$X$X=X+XL. X XJ.q.I. ...G.F. .` W ` |  .O.t.G.F.I.I.|. X%X-X7XtXyX-X;X-X-X-X:X=XL.8.,.;.2.2.>.:.#.n :.$.;.;.7.<.8.7.l.E.@XL..X@X&XrXrXxXBXBXcXvXcXBXvXrX8XrXrX8X8XVXCXxXjXxXvXBXCXBXxXtXrX3X*X^.E.H.l.z.L.@X=X*X@XL [ K ] 0.E.8XGXDXCXVXCXvX#XjXVXvXxX8XxXvXvXxXzXZXZXBXbXbXbXZXZXcXGXxX5XAXZXrXcX3XK.I.[ J K w.%XE.K.H.K.bXmXmXSXSXGXGXGXGXZXbXAXSXSXGXGXGXGXAXbXbXbXbXbXbXAXAXZXAXAXSXSXSXSXAXBXxXtXbXtXrXtXtXZXZXZXAXAXmXmXcXcXrXwXrXrXyXcXAXGXcX*X^.K.A + x x x A k.j.0.0.H.-XpX0XI.Y.;X-X%XXXXXXXXX;X;X;X;X;X;X0X0XqXeXqX0X;X-X;X;X;X%X%X;X-XpXpX;X0XU.Y.;X0X0X%X^.;X0XeXeXeXeXeXpXpXpX0XeXeX0X0X0X;X;X0X0X0X0X0X0XpXqXqX0X0X0XeXeXqX0X0X0X0X;X0X0X0X;X;X;XXX;XXXU.H.3.I [ t.G , 1 1 > g K k F h t * d g g Y 3 R ^ ( +.O.t.F.|.|.J.i.9.e.9.e.u.w.g.l.K.K.x.x.T.T.T.T.T.W.Q.Q.>X>X>X~.Q.Q.Q.Q.",
"1X#X>X#X1X1X*X*X*X*X*X#X#X#X1X6X*X=X*X=X=X*X*X*X*X*X*X*X#X1X2X5X5X1X#Xl.[ f ; J , 3 , ; J ` I I e.0.K.E.K.R.R.j.d.d.d.d.f.x.T.R.T.!.x.j.x.j.f.T.T.7.A c . z ;.b h.2X2X#X*X@XL.@XL.L.J.J. X&X:X:X.X&X:X=X$X=X=X2X9X8XkXkXjXjXvXvXvXkXkXkXkXkXkXkXhX4X>X>X,X,X2X#X@X@XL.L. Xl.9.u. .J.&X|.t.G.F.......O.t.D.F.F.F.XX|.I. X=XwXtXyX-X-XpXwX:X-X@X4.7.=.M $.:.:.#.#.z &.b *.=.7.,.,.7.4.,.6.l.L.@X&X7X7X8XxXVXVXBXBXBXxX8X8XtXcXcXcXrXtXxXDXHXGXcX7X*X@X@X*X*XE.K.K.q.] ] q.l.l.w.u.u.q.[ u.1.K.j.2X#X2XvXAXAX2XxXAXBXVXGXHXGXVXVXDXBXbXcXxXxXcXcXcXbXHXtX2XBX5Xg.j.cXK.w.e.K P e.w.H.K.R.g.rXmXcXGXGXHXGXSXGXAXZXGXGXSXSXGXGXGXGXAXGXGXAXbXbXGXGXAXAXAXAXGXGXSXZXbXrXtXAXBXZXSXbXZXZXAXAXAXAXAXAXSXZXBXZXZXyXpXrXZX*X^.E.K.,.+ + c N N d.d.d.g.0.I.-XwX;XP.;X-X-X0X0X;X;X;X;X;X;X0XeXqX0X0X0X0X0X0X;X;X;X;X0X0X0X0XpXpX;X-XU.Y.;X%XY.w.e.e.Y.P.*X-XwXpXpXpXpXpXwXeXiXeX0XU.U.0XpXeXpXpXpXpXpXqX0X0X0XqXeX0X0X0X;XU.;X;X-X;X;X;X0X0XpXXXY.e.w.g.e.K G , > ; 2 g ` E f k f d g g , < 9 R / ( Z.D.D.|.J.J.i.[ H `  . .t.9. .q.H.E.R.K.T.T.R.W.W.~.~.1X>X>XQ.Q.~.~.Q.Q.",
">X#X>X#X#X#X*X*X@X@X@X@X#X#X<X1X*X*X*X=X2X2X=X1X#X>X1X1XQ.W.<XjX2X=XE.7.1.I s s f f G f f J P 5.l.x.x.j.x.j.d.1.f.f.g.j.K.T.E.E.m.x.j.j.x.x.l.l.c.q.u B y + 2.:.*.8X9X$X=X X X.XJ.F.i.i.F.J.|.XXJ.|. X&X@X X#X7X9XxXGXVX>XW.#X2X2X$X$X$X+X+X$X$X9X#X#X#X>X#X#X#X=XP.L. XH.9.u. X X;X|. ...F.F. . ...t.t.t.G.D.D.|.I.I.P.-XyXtX3X;XpXwX:X7X:Xl.,.Z m Z <.<.M x x n b &.&.Z Z *.,.8.,.A V L 9.L.=X=X=X=X8XBXSXVXrXAXcXBXcXcXBXtXcXyXyXyXaXuX&XJ.H.u.l.J.w.z.L.d.0.5.w.H.l.w.u.H.L.w.0.5.q.q.0.d.g.3XE.cXBXBXe.%XHXBXBX7XAXHXbXbXDXxXVXxXbXCXzXAXrXzXzX3XvXvXq.l.7.R.l.g.5.5.I [ J.P.I.K.K.*XZXHXbXGXGXGXAXAXSXGXGXSXSXSXSXGXGXSXAXDXAXAXDXDXVXbXcXzXcXAXAXmXAXAXbXtXZXAXGXHXmXzXGXcX3XtXGXAXmXAXZXxXDXHXSXSXZXmXeXE.K.^.d.x x x x m N ,.7.d.d.g.K.g.R.*X*X*X-X-X-X-X;X/.U.XX;X0X0X0X0X0X0X0X0X0X0X0X0X;X0X0X0X-X;X;X-X*XH.5.1.0.g.0.w.Y.Y.Y.I.K.I.P.^.;XpXuXuXuXuXeX-X;X0XeXpXpXwX0XwXeXeXpXqXqXqXeXeXeX0XXX;X;XU.%X;XpXwXpX3X3X3X*Xg.0.5.1.0.9.K f - ; < 1 1 Q Q Y - d g k f > Y q 0 C.].^ ~ D.F.J.@XJ.9...O.+.^ ( ( +.O.i.l.T.W.L.K.K.W.>X6X<X<XW.>X1XQ.W.#X>XQ.",
"#X#X#X1X1X1X#X#X*X&X*X=X1X1X6X6X2X*X*X*X*X*X1X1X1X1X1X1X>XQ.~.1X2XrX8Xd.P P j J f f f f f j P ,.7.d.f.f.f.j.x.x.j.j.j.K.K.T.K.j.j.j.j.j.j.x.x.l.l.6.u B z @ ;.%.*.#X9X2X:X@X.X.X.X|.F.F.F.t. .'  .9.i.J.J.L.@X=XR.x.l.E.#X2X#XL.+X+XL.L.L.L.E.@XR.l.l.R.E.E.@X*X@XP.P.%X&X%X X XF.F.e. .t.G.t.[ ` ....O.O.O.D.D.G.XXoX:XyXSXBXrX-X7XuXtX=Xl.,.B c c Z <.,.M y x x M :.=.&.Z Z S =.4.4.S V C 6.J.@X:X7X=X=X7XtXBXrX3XtXBXSXSX-XP.;X XXX&X&X&X&X&XJ.u.u.q.y.f.f.@X%X X X XP.P.P.P.*XP.l.l.g.q.0.d.3.g.E.L 5.5.=X:XZXSXtXbXAXbXbXbXDXjXxXDXvXbXbXDXPXxXf.0.l.4.y.4.1.0.0.7.7.5.g.P.E.E.P.K.E.tXSXmXcXmXAXAXZXmXmXZXSXSXSXSXSXSXSXAXAXVXVXVXVXVXZXbXbXbXAXAXGXGXGXGXcXAXcXcXGXAXcXcXAXmXmXmXtXtXmXmXbXDXVXbXZXZXiXeXE.K.!.p.N x i u m m A 1.0.d.d.d.d.f.g.g.K.P.;X;X-X-X;X;X;X;XXXXX;X;X0X0X0X0X0X0X;X0X0X0X;XI.w.0.1.0.q.7.1.7.d.g.f.g.g.g.Y.K.K.K.K.Y.w.w.Y.H.H.I.w.w.Y.^.*X3X3XtXtXwXwX-X-X0XwXuX0X0XpX;XU.XX0X;X;XeXeX0X3XyX3XE.j.0.5.5.5.0.5.K p , ; , 1 : ( ( Y > g g g f 1 9 0 w ) ) ) +.+.O.q.L. XJ. .| +.+.].].].D.F.J.E.E.J.J.L.E.>X<X<X<X1X1X#X#X#X#X>X#X",
"u.z.L.Q.>X>X~.~.#X#X#X#X#X>X~.Q.2X2X=X*X#X#X#XQ.#X#X#X>X1X1X1X2X2X2X#X0.3.1.s j f f f f f j V L 1.k.j.j.h.j.x.T.j.j.K.T.R.E.K.K.j.j.m.T.T.T.m.v.f.6.c m x @ :.$.M a.,X9X9X:X@X&X.XF.t.i.G.t.O.t.t.r.r.6.[ K C L f.0.f.L.E.#X#XL.L.L.L.L.L.L.@X@XL.K.K.R.R.L.R.#X*X*X=X=X-X-X%XP.F.t.t.F.|.F.t.t... .t.t.t.t.D.{.D.|.oX:XuXaXtX7X-XP.%X7X@X6.S c i u m =.=.m y x c Z =.=.=.*.*.S =.4.6.] V V L 6. X=X:X@XL.@X7XBXGXBXBXBXSXJXyX:X XXX X&XqX:X%XP.l.5.] 6.l.@X+X7X:X&X&X&X&X XP. X&X@X@X@X@Xz.0.1.K.L.@X1.0.5.L.H.@XyXGXHXGXDXGXnXDXjXCXxXQ.xXx.,.A ,.1.x.@Xq.q.A h.!.j.j.p.,.j.x.2X1X*X*X^.rXmXAXcXZXGXGXGXGXGXGXGXSXSXSXSXAXAXAXAXAXZXmXZXAXZXZXmXZXcXcXAXmXtXAXtXbXrX3XtXSXGXGXcXAXcXrXcXAXAXbXGXGXAXZXSXSXyX-XK.T.T.,.N x + a a y m ,.7.d.f.f.g.f.0.0.w.w.H.K.I.P.;X-X-X-X-X0X0X0X0XpXpX0X0X;XP.U.P.I.w.5.3.0.0.0.3.1.7.0.f.d.K.K.K.K.K.K.K.K.K.g.f.f.g.H.g.g.g.H.T.T.K.H.j.j.k.T.3XzXbXyXwX-XeXeXeX;XU.XX;XXXF.;XqXXXH.H.Y.e.1.1.1.1.5.5.K K - f , , 1 < ( ~ Y g H H g , 1 9 R w r q ) Z.D.t.t.F.|.|.J.t.t.i.O.O.O.O.r.r.u.u.u.l.L.E.Q.>X>X~.>XE.R.@X*X#XE.R.",
"t.F.L.@X1X6X<X<X<X<X>X1X2X6X6X6X#X#X*X1X1X1X1X1X#X#X#X1X2X2X1X>X#Xf.d.f.f.P i j f f f f j V L ,.<.k.T.T.T.m.x.x.j.j.j.K.T.R.T.K.j.j.T.R.T.m.h.7.8.4.Z Z b z :.%.$.=.>X4X2X8X:X=X:X|.F.t.t.t.t.D.t.t.i.F.|. X@X&Xz.L.@X=XL.L.@X@X XL.L. X@X@X@X@X@X@XE.@XE.L.P.@X2X5XrX3X*XE.P.J.I.F.F.XXXX|.F.D.t.F.I.F.G.G.F.|.{.XXXXoX&X:XwXwXtX@X*X=X6.a u i u c B A Z c y c c b Z &.&.*.=.4.4.4.4.] L L L C L q. X7XtXtX=X#X3X8XSXSXBXBXwX:X-X&X:X:X:X@Xl.5.5.7.q.7.L.2X=X=X&X&X:X:X:X X.X&X X X%X-X=XP.l.w.e.5.0.5.e.P 5.e.0.0.q.7.7.#XGXHXVXCXvX2XA L.l.5.g.R.l.d.1.B 7.7.h.!.h.m.p.*.W.>XT.T.Q.^.!.Q.1X3XmXSXGXZXZXGXSXcXGXSXGXAXAXAXAXVXGXSXZXbXBXBXbXbXcXZXrXwXcXpX;XmXmXSXmXwX*X*X*X1X*XAXSXcXmXSXAXmXrXrXtXcXSXSXuX^.K.!.k.A N x i m y y y V ,.7.d.f.g.f.f.g.g.0.5.5.5.w.H.P.%X%X;X-X;X;X;X%X%X%XP.P.H.Y.f.0.1.1.0.j.K.j.d.1.1.7.d.k.H.K.T.K.K.T.T.K.K.j.H.K.K.K.j.g.g.K.T.g.d.d.p.1.*.,.0.j.K.E.*X*X%XXX;X XG.Y.F.G.G. ...G. X Xu.5.,.7.,.Z P B a K f f , G 3 < Q R E G E H g < < R 0 w 8 q ( +. .t.D.D.|.|.J.l.q.9.9.r.o.O.O.t.t.i.u.l.L.E.Q.~.>X>X1X@X@X=X&X@Xz.l.",
"Q ' ..0.0.p.2.2.<.<.<.<.3.k.k.h.>X>X1X1X>X#XQ.W.2X2X2X1XQ.R.x.x.f.7.d.f.7.m i I J J J J k K L ,.=.7.h.x.T.W.R.x.K.x.j.j.x.K.K.j.x.x.x.m.j.k.1.<.<.7.=.*.b @ #.:.-.-.M.W.m.9X7X&X@X|.J.F.|.F.D.t.|.|.F.z.F.l.H.l. XL.P.@X X@X@XL. X X X@X%X&X%X@XP.P.E.E.P.P.E.*X1X6X5X8X2XE.L.P.P..X|.|.|.F.D.D.F.I.|.|.G.t.G.F.|.|.|.|.|.&X:X7XE.l.L.l.A m S S S V V B m c m m c c c c c Z *.4.,.,.L L ] L S D C C 6.L.:XtX8X9X3XtXAXBXrXrX7XwXXX XI.l.q.0.5.4.,.v.#XE.x.L.L.7X7X:X:XwXuX:X:X:X&X&X&X&X@X@X&X:XJ.L.L.0.0.0.g.g.0.,.0.x.R.2X2XR.m.f.v.VX#X#XE.f.0.q.4.4.1.p.x.x.k.h.p.m.2.M m.~.n.k.T.!.K.K.E.E.*XcXGXAXAXHXPXGXDXAXDXDXVXVXVXBXSXSXZXmXbXcXcXyXmXZXyXwXyX-X;XiXyXiXSXSXeX^.I.K.K.AXPXSXmXmXmXSXbXcXcXZXSXZX-XH.K.E.d.N m u i c a y y a y m N ,.7.0.q.g.g.0.5.5.5.0.e.q.0.0.w.H.H.g.f.0.w.w.w.0.0.d.d.d.d.d.d.d.3.1.<.<.<.3.k.j.T.T.E.R.Q.Q.Q.T.E.R.T.j.j.h.j.x.0.q.0.,.,.7.0.1.1.1.P A ,.7.g.K.e.w.P.P.w.e.e.e.[ [ t.F.w.5.[ q.A ,.m u m t t C _ f > E E < Q Q ` ` ' E , < 4 R q r r / X.T G ' ' D.|.z.9.5.0.9.9.9. . .o.O.O.t.u.J.L.R.E.#X#XQ.@XL.J.J.z.9.[ [ ",
"R Q ` [ 4.<.2.2.<.<.-.*.,.,.,.,.M =.p.j.T.>X6X8X#X2X2XQ.x.f.f.q.7.0.0.A A L s V J J J J H K L ,.=.,.1.p.j.T.R.x.T.K.K.K.T.R.R.R.L.x.j.k.p.2.2.2.<.p.<.*.b @ n :.%.:.a.a.h.$X2X@X X|.|.|.|.|.|.{.F.F.F.F.I. X X X@XJ.J.L.L..X.XJ. X X%X&X=X&X&X@X X X@XP.P.E.%X*X6X6X5XzXrX3X@XL.J. XXX{.G.G.D.G.F.J.J.J.i.t.t.t.F.F.|.|.|. X&X:X9XE.f.1.B V V i D V B u u m m c c c y y y c B A S ,.6.4.S S L ] 6.] L ] q.L.7XxXrX3X=Xl.q.l.d.w.9.9.[ L V P ,.1.1.7.x.T.T.v.L.tXaX7X&X-XtXyXuX:X:X:X:X:X%X%X-XwX:X7X&Xl.5.1.7.1.f.1.0.d.d.g.g.K.R.x.7.2XL.L.E.0.5.5.A A =.a.h.h.m.x.j.m.*.@ <.2.T.j.T.T.Y.H.P.^.%XbXPXHXmXcXcXbXDXGXGXGXGXDXAXAXAXZXZXZXZXZXZXmXcXZXyXyXiXwX0XyX0X;XwXmXiXuXwXpXE.3XtXtXmXmXmXmXGXZXcXyXyXpXP.Y.K.T.1.N c z c u a a m y y + x A 1.7.d.d.0.0.q.0.q.q.7.1.L ,.1.3.3.1.1.,.1.1.5.0.3.1.p.k.h.h.p.1.,.,.1.3.1.<.1.p.j.j.j.j.j.m.m.j.h.j.m.j.h.k.k.h.f.0.1.Z Z ,.,.*.,.,.<.1.7.<.,.A ,.7.x.K.g.q.q.5.q.5.L V L 6.S i m m y u u t t j { H f E E g X.o.{ ` ' G : < 8 0 w r q 0 T < G  .' O.t. .[ 9.e.9.[ [ { ' ' ' ....9.u.l.g.j.x.l.l.9.9.[ ` H k H _ ",
"4 4 3 G K P A *.<.<.<.1.,.,.*.*.<.2.2.2.<.<.p.k.m.!.R.x.f.f.k.f.f.f.7.m A 7.P a K J j j j K S A ,.<.<.p.j.T.T.x.x.K.R.Q.#X#XE.R.l.f.0.7.2.2.s.s.2.p.<.M M v v :.#.%.:.p.p.f.R.L.&X&XXX|.|.F.F.|.|.|.|.J.I. X X X.XJ..XJ.u.F.J.J..X X&X&X-X;X&X&X-X&X;X%X;X;X;X*X3X8X8X8X9X3X@Xz.L. X X|.F.F.F.F.J.J.J.J.z.i.i.i.|.|. X X@X@X&X*XE.8.m c A 4.S u h h a a B V m u u u u c c u c c B S 4.4.L S 4.4.L ] 6.y.q.q.f.x.@XE.#Xx.g.l.1.P K [ [ ] L ,.1.,.<.N =.7.v.x.l.7X7X7X:X&X7XtXtX:X=X7XtX7X&X&X&X&X:X:X-X=XE.x.x.T.1.<.<.,.1.g.x.2X<.>XjX2X7.1.4.L A 4.f.x.h.M.n.n.f.f.v.p.c c 1.3.d.j.K.H.e.w.Y.Y.P 3.K.7XrX5XzXGXDXGXHXHXGXGXAXAXAXAXAXSXSXSXZXmXmXmXcXsXZXyXwXwX-X%X-X0X;X%X;X^.^.Y.g.E.5XcXzX3XQ.E.E.E.P.P.I.K.g.k.<.&.x z Z c m m N N c x c N *.p.j.d.7.f.d.7.7.8.1.,.=.=.=.,.,.*.*.*.,.1.1.1.<.-.=.=.<.<.,.,.=.,.1.1.1.A A A N *.*.N N *.*.N N A ,.<.<.-.*.*.,.A Z N A =.=.=.&.$.M M *.*.*.$.-.<.p.k.2.<.=.Z m A A N Z =.7.8.Z i i a u t a d _ ` ` E g g o.{ ` ` ` , 1 8 q w ) e w q 3 T | O. .' _ `  .9.9.[  .o.O.O.o.9.9.9.9.y.q.7.7.f.6.] [ [ ` E Y E ' ' ",
"8 9 Y Y H H j m y a A L ,.,.,.<.-.-.-.-.-.<.s.h.n.m.m.j.k.f.f.f.f.x.x.7.1.7.L P K j j f j V B V *.<.p.j.T.W.R.T.x.T.Q.*X=X@XK.g.1.,.,.<.1.2.2.2.<.<.*.c N M v -.:.>.%.s.7.Z 8.6.9.i.|.XXXX|.|.|.|.XX X|.I.|. X X.XJ.F.J.i.J.|.J.J..X&X&X&X&X%X&X-X&X%X%X;X-X-X-X=XtXtX=X@X@X@XL.L.L. X X X|.|.J.P.L.L.J.l.u.u.q.u.u.u.l.l.w.w.y.8.<.A m m u t h p h h V L 4.S a y u B B A B c u u u m A ,.4.4.L L L 4.6.0.8.0.f.,.1.7.,.1.d.p.q.[ { 5.5.7.q.p.<.<.<.<.A A 4.4.l.@XtXBXtXtXxXxXtX8X8X7X2X*X*X&X:X=X7X3X@XR.#X1X1X6Xn.1.A f.T.,.=.p.<.s.=.,.p.<.7.g.j.k.j.s.m.a.m.a.8.v.*.. m 2.1.d.j.E.P.Y.w.G.Y.I.1.1.E.3XR.T.1XbXAXGXGXGXAXBXBXGXGXGXGXGXSXmXcXSXmXZXZXZXZXyX*X-XwXSXZX-X^.P.w.K.5.0.P.T.R.*X^.E.E.E.P.H.g.g.g.3.1.&.$.z z ;.Z =.=.*.*.M c # x x <.h.p.2.k.f.7.<.=.*.*.&.$.M M M v v M M N A A M M N N Z m u y a y a m m a a N N A M m m N N m A N N c m M M M M m m M M M M M $.$.$.*.-.;.;.-.<.<.2.s.2.<.<.*.=.m y c M M M A 8.a u a t t d - d { o.E > g ' k _ H E 1 & q 0 e ) ) C.) ^ +.O.G ` H H ` ` H _  .o.o.O.O.t.t.u.u.l.l.y.7.7.q.6.L K E ! 3 < < < > ",
"q 9 9 3 G G E E , f H K L A &.-.-.-.<.<.<.<.2.<.<.h.m.j.j.k.j.T.c.,.1.p.1.,.1.V L K K K V a a Z =.<.1.k.R.>XQ.x.T.T.E.#XE.l.0.1.L 5.q.7.<.<.k.m.,.7.,.m N x x s.-.:.&.&.&.Z B B ] 6. .[  .F.|.F.|.|.XXXX|.J.|. X.X.XJ.J.F.J.J.I.J. X&X&X&X&X&X&X%X%X X X X%X;X&XuXwX@X.X@X&X7X=X@XP.L.L.L.J.u.9.5.5.6.6.6.L S A L ,.,.,.L ,.,.1.<.*.A y V V C h p d j P K j V V B u i u u u u m u u u u c V S =.4.4.,.=.=.,.4.8.1.,.,.<.k.M.!.T.z.r.6.4.6.8.7.7.<.<.=.=.A S S L 6.q.l.x.l.m.E.#XxX9X2X2X7X7X7X7X=X#X2X9X>X2X5X<Xn.2.<.2.k.p.<.<.s.s.a.s.p.p.h.m.j.h.n.n.n.n.n.n.h.v.;.*.b @ <.k.k.T.!.Y.w.Y.Y.Y.H.H.Y.Y.E.*X^.K.^.1XrXbXHXGXcX5X2X1X5XbXHXHXGXAX3XcXAXmXtXrXwXwX3X-XwXH.I e.5.5.e.w.0.g.*XE.T.1XQ.^.^.K.K.K.g.3.<.<.$.@ v &.-.=.<.<.<.-.%.$.v v v v M *.2.p.p.<.*.&.$.b $.$.M b v M *.$.v M M M c m c u u u h h h p p t p f j a m N Z m m B m u B m m m Z Z M m M b M M M M M &.b &.$.v v #.%.-.-.-.2.2.<.<.7.*.B m m B c i i y m C [ L ] _ f k E Q O.E Y , E > d > g < & 5 w r e 7 w C.Z.+.X.~ W W G G ` [  .i.i.| ' | ..[ [ q.9.l.l.f.q.7.L h f , < < < 6 9 9 ",
": : 3 3 3 : : 1 : 1 , f a y x v $.&.&.&.M &.&.*.A =.,.,.=.A A A S m N ,.,.1.7.1.P P K K V B B m ,.<.=.<.h.Q.Q.m.K.x.x.K.l.0.5.1.5.5.1.4.p.k.f.d.4.5.a y V m x =.&.&.&.&.Z Z A S C k j j H ` ....O.t.J. XXXXX X.XL.L.P.|.I.|.I.|.J. X&X&X%X&X%X X X XI.I. XXX&X;X:X|.i..XJ.[ 9.l.l.5.1.5.q.0.5.] ] ] L V V V Z Z N A A N N N N N x x =.4.V t p = H [ i.u.I j j a B u t u u u u u c u u u c B V A Z S ,.,.A A A ,.8.p.f.h.j.h.p.8.6.] ] L S S A Z A A A A S S S L V S ,.4.<.7.p.p.j.k.k.v.v.v.y.l.#X#X2X9X2XW.m.p.<.<.p.p.<.=.=.7.a.h.n.h.h.k.h.n.m.m.m.m.n.n.n.n.a.n.;.v z v 2.2.k.k.j.j.g.Y.Y.Y.Y.Y.Y.Y.H.^.^.^.^.1XrXmXmXpX^.K.Q.!.Q.1XrXcXmXAXcXrX3X5XBXGXcX*X*Xg.q.3.I e.e.w.l.w.0.f.*X*XK.j.g.H.g.0.0.w.0.1.2.<.v v v *.<.s.<.<.<.<.-.$.#.v @ v v v $.$.M M v v n z z z x z M z @ c M *.M x m u t i t D _ _ H k f d f f j j a u i i u a a h t u a a a m m B B m u u B B S S B B m B =.=.&.=.N m m Z Z A B i D h h D D D C ] K [ r. .t.i.o.o.O.X.o.i.X.Q g ; G g < : & 7 e e e r w / 9 3 R X.( R Y W t.t. .{ ` E G J '  .` k ] 6.4.L L ,.C p d , : : : : < 6 ",
"1 : : 4 : : & & & & 1 g j B N *.N m m m m m m m m u c Z N m m m Z Z Z A N A L L P [ ] K V V V m *.<.p.<.<.k.T.W.E.R.K.x.d.7.5.0.q.5.4.7.q.f.0.I L [ K j K m m <.-.*.:.*.Z m B V L D k _ ` _ K _ H H H _  .y.u.y. X X@X@X@X X X XL. X X%X&X&X&X&X&X XI.I.I.I. X|.i.' W D.r.d h L L V V 4.q.4.V a C C h t i u c c M M M M b b b c Z y c u = j 9.t.G.O...e.u. XP.[ C h t i u a m a B B B m c c c c *.=.<.=.S S ,.8.4.8.f.k.p.7.7.7.] S S S S S S S 4.4.,.L L S C V S S A A =.=.=.<.*.=.<.8.7.4.4.6.L ,.S L 4.,.Z Z A A =.<.<.,.=.<.<.2.s.a.s.2.2.s.a.a.a.h.h.h.h.n.a.M.N.&.X @ 2.h.2.2.2.k.j.K.K.K.Y.Y.Y.e.e.Y.K.K.Y.K.K.K.H.H.K.E.K.K.j.f.j.T.Q.Q.1XQ.Q.1X8XzX1XT.1X7.,.L L L P 0.0.e.1.P ,.,.,.1.1.1.P P P 3.1.1.*.v @ v $.&.*.<.p.p.<.<.*.$.v @ v v v v z @ @ @ n n v v x x x c m A =.A + . x A L D F t d k E E g , > > f f f f V t = = * * p f k k k j d a C ] _ g > > l E W ' ' g % = d g k _ = = * f K ' ' g g g g U E ' o.{ } ' { W X.+.X.X.( ! T ].X.X.< , ; 1 9 q 7 7 r 7 7 7 w / q 4 0 / e / / ~ | H f j p H W g > , , > h B m a m V j p > 1 : 1 1 & : : ",
": : 1 & & & & & & : 4 3 f p t i V V h a a a u u V i y B m m A A Z A Z m N N N N V K K V V C L ,.y M -.*.M =.p.j.E.R.L.x.d.7.0.q.q.q.q.q.0.5.[ K k _ _ ` [ K V 7.7.<.;.=.S B B h h V K ] ] C h d g f d f K { 6.6.6.6.q.q.q.q.9.9.y.u.w.u.H.J.J.J.J.J.J.J.Y.e.t.t.W Q W | ' k C V L B A 6.q.L a t = d j h a a c c M $.%.$.M $.M v Z M B y 9.e.t.' O.D.XXXXI.pXuXP.q.] h i t u a B B V A B Z m c c Z Z Z Z Z A V V S S 4.4.,.,.4.8.4.] S C D D L ] ] ] ] L C C C C S V a u u m M N M M N Z Z V S ,.6.7.S a V V h C a a m A 1.<.,.=.7.p.h.h.n.n.N.N.a.a.a.h.j.v.x.m.M.M.N.2.v + M p.2.1.1.1.3.g.K.Y.Y.Y.I.Y.Y.Y.Y.Y.Y.H.K.K.K.Y.g.g.T.E.T.j.d.g.g.d.1.1.<.<.p.m.>X8XW.k.d.f.7.L L 5.I q.0.L A S 1.1.1.3.P P K V m x N c # v M Z M N c x x x c x x v v v v v z z z z @ @ z x y i u h L L B i i i u m C k d - d g g < : : < Y ! Y G g k t = p d > > g E E g d - d H ' ~ q 6 6 q @./ / / q : 8 @.q : 6 1 ; 1 < T R T 1 9 0 q q R ( ( Q E E G 1 < R ! @.) R R +.R : 2 1 9 9 9 q q r e e 7 & & & & 8 ) '.).`./ 0 3 - - f K f = % , G , = h V B m a m a * ; ; 1 & 2 2 & & ",
": 1 & 2 2 & : 4 8 4 4 3 , - - p H k k f f d p t d t p h a t t y u m x x N *.,.L a t p f j V L 8.<.-.*.=.p.h.h.p.f.f.d.d.0.4.4.0.7.q.q.e.[ ` _ W ! Y < G | [ L L 7.,.,.4.6.4.L L t C ] C h h h p - d k _ [ ] ] L V V B B B B B V L V h j V K K K K P 9.e.[ I I ..o.+.' ' ` K C a C B B V B t t d   ; k _ j h B Z Z *.*.%.%.&.%.M N m B h SXsXsXsXA.D.G.G.G.;XyX-X Xy.C t = i u u u c B B B c b c u u c B F u i = t t h D D B h a V D D h F F d h f d d d h j V C V h t i i i y y Z m c m m B B B a V h t d * = * = t h D A A ,.7.,.,.<.7.s.s.s.a.a.s.p.8.4.5.6.6.x.7.=.=.S B a h L 5.5.P P 3.5.I I ..w.w.w.g.g.0.g.g.g.g.Y.g.w.e.L 1.5.,.P L L V ,.,.7.f.k.,.c . + + c A m i y i i i i i a B m + t s j j j j j m x c y + + m m i i + + y c x x x x x z z z x z z v x x y y t f H ` ` d * K 5.5.C { } k d > < < : 1 & 1 < 9 < < g f * - g E Y Y R R T Y Y Y Q ' ( 0 7 7 7 r e e r ).r 7 7 r 7 & 7 q 3 q R / / / q w / / / ) ) / 9 3 3 9 : 0 / w / & 2 : 8 0 9 R 9 : 8 q r r e e e 7 & & 5 7 r ) `.`.).r 8 R Q W ` - - , < , 1 G ' ] 4.,.B u i t * ; 2 2 2 2 2 2 & ",
": : : 3 3 3 3 3 : : 1 1 1 , H ' Y Y Y E ! W E E * k K _ ] k t t B m m N &.*.,.A m p p a a t a S <.*.M c M N m y N Z L ,.,.L L 1.4.5.I ] [ ` ' Q ( R T T W _ K P L A A L ] L L L D ] ] h t h D D l k C C k h a a V B m a a m B V V a p a V K K L j K [ [ K j j _ t.' > k H p p i i p h h t = * d 2 : ! E k t u A =.;.-.-.-.-.-.&.m i y j uXD...}.fXfXXXG.XXiXeX%Xu.6.C t = i u u i i u u y y z c u F F u i = * t * = = t t t = i . i u F F t - - > > * * * p h j d d d h a u i i B m B V V B a t t a p d > > ; > ; * * d h V S ,.] ] 4.8.7.p.s.s.;.;.*.S L K H H K C _ k E ' G , G | o. .| ` ` I J J J K P I 1.L 1.L A V P P ] [ K P L L L L ,.,.L B u c m c c x x b M Z N B A a a u u u u m A m j j f f p - = = + m Z m A 4.5.V a a a V A m y y x x z y x c u x b x y u p p g ! ! Q < ; H [ j p k g > ; ; < 9 9 9 & 2 2 1 1 < G g g G Q Q R 9 9 R 0 0 R / ( R 0 8 5 7 7 r r r r ).r 7 & & & 7 e 0 q / ) ) ) C.) w e e / ) / 0 : : 9 R R ) ) e / [.(.].) ].) ( : % 8 e ).'.).7 7 7 r ) '.) e e r ).).e w ) +.+.O.Q < 1 T o.| W H L S Z u i i t d > ; 2 2 2 2 1 1 ",
"4 8 9 T E J G g < 1 1 & 2 2 1 : R q R @.X.X.X.Q ; |  .} t.{ d h A c N =.M v N m V B j a u t u m ,.<.<.=.m y y y x u m V V V V P A V B j G E ! R ) ) ) ( T G K L V V V j a a h C K C D t i u B B } } C l h u h B c c u u u m B V V V V L 5.6.9.q.[ K K K j p f H { g = f k = = =   t k j d - > > 6 : 9 ! g = t A 8.<.;.-.-.-.-.*.,.y O = ` 3 J G.U.dXsXqX0X;XY.e.K K k a t a a a i i u y i z z c i i = = = * d l l > * - - * = t   $ i F l l l > < > > > d d p d = * d p t t i i u u a B a t t t ] h > * = 2 2 % 1 ; = * f V B a h h h B M b b v &.&.S 4.{ o.| Q < Y X.Q 0 0 q w w w ) ].+.R Q | | | ` K K K L A A S ,.L C h t = j f f j V j B V V B m m i i i z . X . . .   i   i   i i     c m p , G W | t.|.&X5.l.R.E.@X&X&X X] V h B V m a m u u c c c u c B b x i u p > : 8 ) q % % 3 G = = O % % 2 , Q @.R R 8 : : : < < Y G E Q Q R 0 9 q 0 q 8 8 8 8 : & 9 4 4 8 0 0 0 q 0 w w 0 R 0 0 R R q q w q 8 8 7 7 8 q w / 0 4 & & 8 R 0 ) ) e e '.e ) ) C.+./ q e '.'.).'.`.).'.'.'.].C.e e `.`.r '.'./ ) ) ) ) / ) +.+.o.` K K m c y y u m j k g 1 2 2 & : < < ",
": 4 3 3 G < , , 1 2 & : : & : 4 ( ( ( ( X.Q ! g g i. .H 9._ = = i   y A y y N m y j V h a V V B Z *.,.<.1.=.m x y i i t s s a a p a p - - , 3 R ) / ) ) ^ Q G - f j j d * = j ] [ C l h h h h h d d d h h h h B a a u a B B D S C V K [ { ` ` ` ` j p - - p j _ ` g ; g k - * = = d k d * > G ! : 2 & ! E > d ] 1.,.=.Z Z A Z m a h j  .J J ; O ; J ; O J ..I I f k K k h a t i u u u u i i i u i = = l { o.' g E Y ! ! Y 1 % = u c B B l l l < 1 1 > > d d d d > > > > * t h j h h j j d t d k _ * * > 1 6 6 2 % & < > = = * d d > d f h h u u i t h _  .o.Q R R 8 / / e r 7 r '.e e '.C.8 4 / R Q ! W H k k k d h f d * * > g d - - f k f d j d t = t t h V S =.<.=.8.,.S x.c.L.y..X9XtXaXBX7XoXoXXX{.|.oXqXaXaXtX7X*X@X&X:XtXaX&Xy.] V u i a i u B B u u h V ,.A V ` ` Q ^ / ) ) q 9 T 1 J XXi.i.O.+.O.+.R : : & 2 & 1 2 1 1 < Y Q Q R R / / ( 0 q 8 8 9 q T Q E G G Y ! T T R ( ^ R R Q Q ^ 9 : 4 9 4 4 8 8 & & 5 0 0 8 & & & 4 0 9 / C.C.[.[.[.].OXZ.].].]./ '.'.).`.).e '.'.'.'.) e e `.).e e w w '.].) w ) ) +.X.o.9.I m m c m Z ,.,.S j k , 2 2 & 6 9 3 ",
"< : : : & & & : & 8 8 & 5 0 / / ( ( Q Y J ` _ j V 5.q.0.L V V P A V m m V V V B j j j H j K j ] I L L 1.5.1.1.5.L V j f f f f f - - > , G G G 9 ^ ( ( w ^ ) ^ & & 1 < , > k K h h h j d d f d d h a a a h j j j h j j h f j f d j d f _ o.| T 3 ~ ! G J H _ ` ' Q g , Y < ; % 2 % W ; ; > ; Q < : < 1 R R Y 2 k L ,.N m 5.K ` E h p j _ ` J ; ; O % - > - ` G ; f f k d = t C d h d * t h a u h a = , Y ( (.( 9 R / e r r e q 2 a B a h j d g Q Y ! G > , f - - > ; = g g > _ E g 2 ; E G , G ' d ; ; 1 ; 1 < : % 1 1 1 1 , , 3 3 4 8 0 0 / ( R 1 Q +.o.Q W Q R r r '.e 7 r e & e `.`.`.r 7 e '.'.w q q 0 R / ( : : 9 0 R +.( & & % ; < 1 ; < < Y % , O.o.' i.|..X:XdXJXLXJXaX&X:X:X:XaXaXdX:X:X}.oXoX}.|.:XaXaXaX:XtX7X7XaXZXJXSXSX2X=X#X,.c y c i u i h h p k K j I O.O.O.Z.+.Z.Z.+.Z.Q Z.oXLX|.oX+.{.}.}.}.4 & & 2 & & 2 9 Q X.X.( ( ( X.X.+.+.X.! G G Y T W _ k _ { { E g g E ' ' G G Q ' E E ` W , ; < T 3 & 2 & 0 0 8 7 : 4 < 3 Y < Y o.i.{.dX{.o.D.o.{.{.[.'.[.'.(.'.'.'.'.'.'.'.e ).'.`.).r e ) X.o.T X.].]./ ( | ` + + y m m =.p.<.L ] _ G & 2 & 8 9 9 ",
"3 3 3 3 : & & & 7 r r q 0 w / R +.~ , = - j P P A L A N m N ,.7.m B V S L L V j L V ` K - f f K P P P P I I I 5.] 9.e...` ` | | | ~ Q | O.+.| Q 3 4 4 q / ) / w 8 8 9 9 < E H d h f d d g H G k K [ ] K K j j K G H H G G E W ` K ` W G T ) C.( ^ ^ |  .| W J E W g < T 9 & 2 2 1 g % 2 g < T 1 ; 1 1 R 9 < ; H [ ] L ] |.{.{.+.` H ` W Y , % ; W W | O.o.D.Q Y Q Q ' G - g ' E E Y > > H E H _ g g ( ) / / / +.q w e e ).(.0 ; H K j j K H g 3 Y Q Y < g g f f ; 1 > Y E E o.E < < < , , J ` W > 2 1 1 1 1 : : 2 3 T T T T ^ ( R / ) e e e e e '.+.~ Q | +.o.T e `.e 7 e e 7 r 7 `.`.e e e '.e '.e r r e ) '.'.0 7 8 / ) ) ) w & & 6 q 9 9 R @.( +.{.fXdXfXoXoXdX}.X.|.dXaXaX7XLXJXsXaX:X|.{.{.}.oXoXoXoX:XaXaXtX7XaXaXSXLXSXtXrXBXtX8X2X8.y   y i u t h j - G G J O.A.A.D.{.Z.Z.Z.T X.X.+.oXdXo.+.Q Z.{.}.fXOXq 4 & % & 3 +.+.( X.+.O.o.o.o.t.|.F.t.r. .O.O.r.u.y.z..X.Xu.6.{ [ r.|.i.o.E k g i.i.{ g ` D.o.1 1 9 R 0 : : 8 : 1 < Y Q Q ' t.t. .F. .i.|. .F.|.].'.'.(./ (.'.'.'.'.'.'.'.'.'.).).r q ^ X.' ' Q ( ].+.( W k t m + a y ,.N <.N K f , & & 8 0 R q ",
"T 3 : 1 & & 8 w q w w w w / ^ ^ Y Y W W ..e.5.K 1.0.g.x.x.7.A y m a t i t p a j a = j - = j G - K V V K L I ] 5.[ [ ..` ` | | ! T T ^ X.O.X.~ T ( R q R / 0 q w q q q q 9 Q ' H g k k g H E G g k [ K j K k f E E E J G G G Y Q I [ W < 3 ^ +.+.].Z.D.D. .W W | o.Q ! T 9 2 % % Y < ; ; < 1 1 9 < < 9 ^ 4 : : Y G ` ` ` O.Q ( ( Y < 3 & 2 2 & q +.+.+.{.+.+.^ +.+.].].( Y Q ( R R R 8 & ! ( ~ Q Q 1 8 r r e 0 ) q 0 e ) (.) R > j [ 9...' W Q X.! ~ ~ ! W E H E G ! Y Y E Q o.G < < 3 3 W  .W = > ; , 3 Y R Q 9 T ^ ( +.+.^ ^ ( / C.) w e e e ) ) ) ( Q ~ O.O.( '.`.e e ) ) e r & 7 7 7 7 e [.'.w r r e '.].[.[./ 8 0 ].].) ) ) R R q 9 0 0 0 / / (.( X.{.{.o.O.{.Q Q :XdX&X Xu.J. XqXJXsXoX{.{.{.{.{.oX:X:X7XtX=X&X9X=X=X8X2X@X7XBXxXtX8X+Xh.,.i i u u h h t H J ' D.D.O.A.Z.+.+.{.+.Z.Z.X.fXoXD.O.~ ].Z.( OXOXOX].( 2 Q R Z.O.{.oXqX:X:X&X&X&X&X X.X|.|.J.F.z.J.c.L.@X@Xz.u.y.6.9.u.J.z.r.y.J.9.y.[ K r.F.F.{.' +.{.+.9 9 9 < < < Y E E  .t. .|.|.{ t.z.t.|.|.{.].].].( ( ) ) 0 w ) '.[.[.'.e ).'.w ( X.W o.Q T ( ( T ' K B y m A A ,.m A a p , : : : 8 q 9 9 ",
"< 1 1 3 9 9 q q 8 0 w w ^ ~ ( X.O. . .O.F. XP.K.K.R.E.*X=X*XR.K.@X@X@X@XL.q.I V ] u.J.j = p f f a j V K P P L K H K H f , G 3 , 2 4 T ^ T T T T T 4 4 q 0 8 q w r 8 q q q R Q Y G E W W E E g f f G p - E E , g G G Y Y Y < 3 Y | ` Q ~ ^ R ) ].{.Z.+.O.| G G Q G g < Y Y 9 < 9 E , g g < 1 % : 3 : q ^ 4 4 T R X.Z.Z.X.Z.^ +.].9 R ].}.].]./ ( ) +.+.+.0 / / [.OXOX[.].) +.].].[.[.'.) '.[.].].].0 7 7 e '.) / R 0 0 / / R E k { F.{.O.' ! ! | | +.O.o.| ' W | ~ Q Q Q ! Q Q < T 3 T X.o.W f * G < 3 Q X.+.+.R R T ( ].Z.+.X.+.+.]./ 0 ) ) w ) ) {.OX}.{.Z.Z.].e r r '.C.e e 7 r 7 7 r e e '.[.].].'.+.Z.].].].].( / Z.Z.( R R ].O.R 9 / ( / ( (.].+.~ O.{.D.{.|.i..XqXXXJ.:X7XtX:X&XXX{.O.i.{.i.i.{.XX:X:X:X:X7XtXCX8X9XxX8XCXP.-X7XBXVX9XW.8.c y u u a t t ` J W O.O.X.+.Z.+.~ D.Z.O.Z.^ }.{.Z.+.O.{.].( ].{.].^ R < | ~ o.{.F.XX:X:X&X&X@X X*X%X%X%X%X XP.L.@XE.R.+X+XE.+X+X+Xl.q.y.z.L. X@Xz.J.q.6.6.j _ &X{.t.i.D.o.Q Y < ! ! ! Y E ' o.' XX{.{ ` o.{.XXt.{.{.{.{.X.Q Q 9 q 0 / '.'.'.(.e e '.) ( T G Q W ! Y ! Y o._ j t s a 1.y N i K f Y 3 & & 4 9 Y Y ",
"Q 3 1 < T T q 9 & 9 ^ ~ X.+.Z.Z.o. .` ` [ u.L.@X2X2X=X3X3XrXxXBXtXrX8X7XtXBXSXJXtX7XJ.[  .` p K V K K K K K j j f K W f ; 1 Y R T ^ ~ ~ ^ T 9 9 : : : 8 8 q 0 0 e q q q 8 q q : < ! Q W E H H H G E G G ` E < < < 3 Y R R 9 9 Y J H Y ~ ( ) ) ].Z.+.+.+.O.T 3 G E E E Q X.+.].{.O.Y ' o.].( % & & & 9 ^ R R ) / 0 0 8 8 +.( ) ^ X.( +.( / / R ( ^ X.( T 9 / / ].[.(./ / ( ) ].OX[.[.[.'.'.].'.'.].'.'.).e (.) R @./ / ) / R W ' o.O.Q Y Q X.~ Q X.O.O.o.o.| | O.X.Q X.+.+.+.~ Y X.Q O.D.| , G  .! ! | X.( +.+.( +.^ +.}.}.{.Z.Z.+.].( 9 / ^ 9 R Z.{.}.XX}.].( q 7 e r e '.r 8 r 7 & 7 7 q 5 & 8 ) ) ) ( ^ ( X.X.( R Y T ( +.+.X.Q o.Q 9 R / ( (./ / +.{.i.i.{.i.t.XXZXJXtX:XtX&X X&X:XXX{.{.{.{.i. X:X:X&X&X7X9X=X#X7XxXDXCX9XxX=X=X=XBXVX9X>Xx.8.Z c i i i t 9.` J | A.A.Z.Z.D.Z.+.Z.~ D.{.{.O.O.O.Z.}.}.{.}.{.{.+.Q Q E | _ F.:X7X7X=X=X2X2X=X2X=X=X=X*X*X@X@X#X+XW.W.W.E.+X$XR.L.x.l.c.+X+Xc.=X@Xy.q.q.V C .Xz.9.{ 9. .{ ` E G Y ' | '  . .` ` ` H _  .{.|.r.J.J.J.z. .{ ' E +.X.+.) ( ( ].].( ( X.T T +.X.o.| G W ` ..f G K ,.,.g.m a O H , T 4 & & 9 R ~ Q ",
"T < 1 3 R R T 3 2 3 ~ O.D.D.D.D.t.F.|.XX-X7XrXtXrXxXcXcXtXwX7X7X8XtXBXBXBXtX7X7XSX:Xu..X&Xu.O V 5.5.1.P V K K H H f , , Y ^ ~ ~ ) ^ 0 0 ^ R 3 : 9 9 ! 9 9 q 9 : 0 8 q q 8 q 0 q R Q Q E g H _ [ f G W W E G G G 3 Y T T T 9 4 : - g G 3 q ) Z.( +.( ~ X.o.~ T Y f g g 3 T R ( ( Q < Y < 9 : % & & 7 / ( ].+.+.w e e r r './ ( Q Q Q +.+.Z.Z.( ( Z.D.o.o.Z.OX( / / / 0 ( ].+.(.[.OXOXOX[.[.[.].].( +.[.'.e (./ q / (.'.'.'.) +.Z.~ ( R T Q ( X.+.X.o.X.X.o.o.o.D.+.X.{.}.{.].( R X.| O.+.| ` ` | W o.D.+.~ ( Z.Z.Z.R ~ {.}.}.}.Z.}.oXoX{.+.X.| D.XXXXXXOXOX{.Z.e 7 e r r w 0 +.0 q r ) r 0 R q q 9 R T 9 Y Q ~ ! 1 3 3 3 ~ X.( Q ' {.|.].( / ( +.].+.].{.o.t.XX&X X7XaX7X:XtXBX@X:XtX7X.Xi.{.{.i..X&X:X:X7XBXCXtXtXtXCXVXVX9X+XxXtX=X*XxXVXCXDXVXR.7.A u i i u y.G...X.D.D.A.Z.Z.D.Z.{.Z.}.}.}.{.}.{.{.{.{.{.{.Z.+.| | | H :X:XSX8X2X#X#X#X>X1X1X2X2X6X1X*X#X#XQ.R.!.W.W.R.m.m.x.a.x.m.x.v.c.R.R.v.T.l.6.f.l.l.L.+X Xz.9.5.l.J.r.E E W ' ` { r. . .{ { r.t.r.i..X&X@X+Xz.9.9.r. . .X.O.O.X.X.+.(.+.T T : Q }.Z.{.F.G f H W g E [ e.0.0.5.t - , , 4 & & 8 R Q ! E ",
"% 2 < ^ X.Q 1 % , W O.D.F.F.I.|.J.J.J. X&X7XtXcXtXtXtXtXrXtXyXBXcXcXxXtXtXtXBXZXaXBXSXLX X9.O a L 1.1.L K K K H H , 1 G ( ( / ^ ^ ^ 0 q 9 9 3 : 1 < < 6 9 R R 9 0 q w 0 0 0 ) ( +.+.X.|  .u.u.u.` H W | W ' o.! ! Q Q 9 T R R 3 E ' Q T R ) ) ( R T T T Q ~ Q Y , Y ! Q ( ].].].+.+.( 9 8 8 0 '.e ) ].+.].].C.e e `.`.e C.R o. ...` o.o.i.|.|.oX&XXX|.&XaXdXO.~ T +.{.}.oX{.Z.].].].].].].].+.].].+.[.'.'.'.) 0 ) '.[.[.[.[.[.[.].[.].Z.( ^ ~ Z.Z.+.O.o.O.O.+.{.{.{.oX}.].].( R Q Q o.O.O.O. .E O.+.{.+.~ ( Z.Z.9 & 3 X.Z.}.oX{.O.{.XXD.| Q  .D.D.G.|.{.Z.) e e e r e ) 0 ].dX) 0 q w 8 8 ^ T R X.X.^ T Q o.Q < G o.| T Y 3 2 2 XX:XdXoX].].].) OXOX{.+.' t.&XtX7XaX7X7X7XtXBX7X:X:X:X.XF.{.|.|.&X@X@X7XtXBXtX9XxXxXtX=X#Xx.f.8X@XL.#XBXVXVXHXCXjXm.7.A m i m l.I.D.D.D.A.Z.A.| | Z.Z.{.D.G.G.G.}.{.}.}.}.}.}.oXoXo.' _ j :XtXCXvX5X>X,X1X,X1X6X1X1X1X1X#XQ.E.W.W.>X>X>XW.M.m.m.R.R.R.m.j.k.v.x.f.T.m.f.0.v.l.v.#X#X+Xl.l.*X7X@XJ.{ ` ` _ [ 9.u.J.J.z.z.J.i.r. X@X$X@XL.l.u.u.y._ { t.D.t.O.o.X.o.Y 1 1 R +.+.+.D.g - G G Y Y E s y i K * H Y 9 4 : 4 9 9 3 , , ",
"Y < 1 ; ; ; > , `  .t.F.I. X;XqX&X%X@X&X7XwX8X8XtXtXtXtXtXtXuXtXtXxXcXcXxXtXtXtXBXBXtXSXl.7X5.O + a V V V V j d f G | +.^ 9 q ) ( C.Z.) R 3 T ~ Q Q Q Q X.( Q R ( ( ( ( / / +.+.].{.{..X:X7X7X:X:Xt.t.{.i.|.|.' | X.| T X.{.{.{.o.| ~ ( R 9 4 9 9 ~ O.+.D.{.+.Q g E Q R / ( ) ( ( ( R 9 0 / ) ).'.[.]./ ].+.'.'.'.`.e e {.{.XX X9.u.XX:X:XqX:X:X X XL.7XaX:XH H , O.{.t.i.i.i.{.O.Z.+.+.].].].{.}.Z.].'.e e q q '.'.[.'.[.[.[.[.].].].].OX].].}.}.{.Z.+.D.D.D.}.XX}.oXZ.( ].+.^ Q | D.G._ G ..G.XX{.+.X.~ X.( 3 ~ 4 T ^ W +.Z.W G.F.XX|.F.|.XXXX XXXXX{.Z.) e e e C.w ) ].dXLXoX( 8 ^ ( ~ T 1 3 Y Y < 3 | {.O.G Q O.| 3 < < 3 | {.{.{.i.+.{.{./ ) }.{.O.F.|..X:X@X7X9XBX8X@X=X7X7X7X:XXX|.{.{..X X#X7X8X$Xl.L.2X=X#XL.y.+X@XL.9X=X7X7X8X2X8XDXxXDX#Xh.<.*.c m l.G.D.G.D.D.D.D.O.Z.}.| XXXX}.}.A.fXXXqXqXoX}.oXdXdXW H K ] =XxXCXvX4X<X6X4X>X>X6X1X2X6X2X1X#XQ.Q.W.W.W.R.m.m.m.m.R.x.x.W.#Xm.j.x.x.f.f.p.k.x.L.l.v.8.8.x.$X7X8X=X:XJ.y.u.u.q.q.q.5.z.l.q. X@X6.5.f.l.E.+XL.L.J.u.z.i.i.r. .{  .' t.i.Q ( ) / +.X.T f f W 1 < : 3 V + p K J ! ^ 4 5 7 q q 3 , , f ",
"! < Y T ; 2 J ` i.J. X X X%X=X:X*X&X7X7X7X7X7X7XtXtXtXrX7X7X7X7X3X3X3X7XrXtXxXBXBXtXBX=X@X=Xq.i u u B t i p p f G E T 3 3 9 R ^ ~ ) ( ~ +.D.+.O.D.E ' i.| +.{.+.{.{.(.+.(.(.{.OXoX:XaXwXJX8XjXVXtX.X|..X:X:X|.i.F.o.t.E i.t.oX{.O.O.+.Q q R q 9 Q Q o.XX{.}.+.Q ! Q R R R 0 0 w ) 0 8 q (.[.'.r '.'.'.].C.) '.].'.'.'.].oX:X=X*X#X&X7X:X&XJ.L.@XE.l.,.g.rX&XK G E  ._ ..i.i.{.i.i.{.{.{.}.}.{.+.D.].) e e r q r '.'.[.`.`.[.[.'.].].].[.OX].].{.}.Z.Z.{.{.}.OX}.D.{.{.^ ]./ {.~ Q Q H J ` F.XXXXXX{., Q G 3 +.+.O.1 W +.D.D.|.D.XXqXaXuXqXqXaXsXuXqXdXoX+.) e e r 7 ].) ( oXLXJX}.Z.X.Z.| Y | Q T Y T Y }.XXO.| W , Y < 3 T 3 Q { r.' ' X.+.) ( ) ].{.{.F.J. X=X=Xl.7X8X7X8X*X=X7X&X&X&X.XF.{..X&X=XtXtX+XL.@XL.L.z.c.+XL.c.@XtX9XBXBX2X#X9XxXjXHXGXj.p.m Z i 4. .D.G.D.A.A.D.G.G.}.XXXXXX}.U.U.dXfXXXoX}.oXfXfXqXH _ ] L $XVXvXbX4X>X<X,X,X6X2X6X2X1X*X#X#XE.R.W.W.!.R.m.m.m.m.x.x.R.R.R.T.m.x.x.L.f.q.f.l.L.v.4.7.l.@X$X#X=X7X X*X=X+Xc.L.E.E.T.c.l.x.l.l.q.6.5.6.y.L. XJ.y.y.[  X:XJ.z. X.Xr.i.F.+.( ) ) R 9 G , ; < 1 % : 3 K s j ` E R R & 8 8 q ^ Q < , g ",
"Y 1 3 G , H t.i.J.P. X%X@X@X%X=X7X7X7X7X3X=X*X*X3X3X-X=X=X-X-X-X3X3X=X=X2X3X7X7X*X#X2X@X@X*Xf.B B a V h j K k _ ` E G 3 T +.Z.Z.{.}.}.{.}.{.D.i. .{.sXLXaXoXoXoX.XoX:XoX{.i.{.oX:XXX:XtXHXCXDXGXtX X&X&Xu..X:X&XXXz.F.F.&X|.oXF.{.D.O.X.^ ( +.{.X.O.oXsXsXdX}.Y ( +.+.(.) / 0 w 0 0 0 w e e ).).`.'.'.].].) ) ) '.[.[.OX:X&XE.E.E.L.L.J.u.q.9.q.l.f.x.E.@XJ.9.f g ` ` t.t.` [ ` o.D.}.}.}.}.D.| ~ ) ) '.'.).e e '.[.[.[.[.[.'.'.C.].[.[.].].].OXOX].Z.}.OXD.D.oXaX{.Y X.}.OX{.+.o.G.I. X&XqXqXXX&XXXO.| | D.{.{.~ 3 W D.|.I.XXXX X%X&X:X&X X&XqXsXuXuXXX{.OX].e w w Z.R ~ +.oXdXoX{.O.+.O.|.qX:Xo.| O.| }.D.Q E G E o.o.! 3 3 o.{ i.{.t.Q ! ( OX].{.{.{.|.|.&X:X$XL.R.9X7X=XtX7X=X:X&X.Xz.|.XX&X7X8X8X9X9X8X9X@X=XL.l.z.@X=X7XtX9XtX8X$X#X9XjXjXxXDX5X7.c x z S I O.{.|.}.}.}.}.}.G.}.}.U.G.}.0XqXoXoXfXoXoXoXXXqX .f K u #XbXFXvX4X>X,X,X,X2X1X2X1X*X#X#XE.E.R.E.E.R.T.m.x.m.c.x.x.m.T.T.T.c.c.c.L.f.q.f.f.L.l.q.0.q.l.l.c.$X7X+X#X#X+XW.#X>X#X>X>X#X#XE.l.f.7.l.y.y.u.u.y.9.q.y..X Xz.z.@X:X:XXXoX}.+.( R 4 : T T Y ~ R 8 / ( [ j G ' R ^ w & 8 8 9 R Y < , G ",
"3 1 , , f ..J.J.-X7XwXwX7X3X7XwX3X3X3X2X=X*X*X*X=X=X=X=X=X=X-X-X3X3X3X-X2X=X2X2X2X2X2X#X2X$X7.V B u B B C K K { ` ' | O.D.{.}.{.{.{.|.{.XX.XF.|.aXsXZXsX7X&X:XaX:X:X&XXX&X:X:XXXaX=X7XBXjX>XkXGX#XL.AXSX=X:X7X.X&Xl.u.:XaX&X Xz. .' ' | Q Y ! | i.i.:X:XoXD.O.( Q X.+.].) / / ) (.'.].'.'.'.(.e e e ) '.) / / ) +.].}.oX&XL.f.x..X.X|.F.t.t.9.q.e.q.*X=XL j ` g Y Q | D.F.` ` | o.Z.}.}.}.{.O.Q ^ '.'.[.[.'.'.'.[.[.[.[.[.[.[.].OXOX].].}.}.].].) ].Z.+.Z.A.D.|.z.[ t.XXOXoXOXoXqXqXwXwXwXpX;XXX:X:X|.J  .XXoX:XD.D.O.XXqXqXuXuXwXwX:XqXqX:XqXuXuXqXuXoXfXdXOXw ) ( X.~ oX|.F.:X|.{.t.D.G.F. XF.' Y | ' i.| G E W O.O.D.o.< Y o.`  .i.D.O.Y ! {.}.{.{.|..X|.&X7X=X$Xy.9X9X@XBX7X&X7X:X X X.X&XtX7XtX9X#X=X9XtXtXtX:X@X+X=X7XtX8X8X9X2X#X2X8XnXxXjXxXDXp.<.x z S J ' D.|.XXXX}.G.}.G.}.oXXXU.0XgXsX;XG.G.}.fXoX}.oXF.= V + !.kXFXvX2X>X2X>X1X2X*X*X#X#X@X@XE.E.E.E.E.R.T.L.L.L.L.L.K.L.L.L.L.L.L.L.L.v.q.q.6.l.l.c.l.q.q.7.7.l.E.+XW.R.m.R.#X>XW.W.Q.>X#X#XR.x.f.6.` _ _ [ [ { 9.u.l.z.z.y.q.y.z.F.|.}.D.+.( ( ( X.+.X.+.( R ) R _ d f Y 9 0 0 & q q 9 3 < < G G ",
"3 < , f k r.P.H.3X7XrXwX3X3X3X3X*X*X*X=X=X=X=X2X2X3X3X-X=X&X=X-X3X3X3X3X3X3X3X3X9X2X2X#X2X+X1.=.B i u h V C k { ` t.|.XXXX|.|.|.|.|.F.|.:X:XwXaXSXSXSXSXJXaX@X X7XaXtX=X.X X&X@X$X.X2X9X,XW.4XkX9X2XCXCX9XtX8X+X=Xl.q.7XtX=Xz.r. .o.i.{.O.| ' ' t.r.XXXXi.E o.X.Q X.( ( 0 0 ) '.].].].[.[.'.e r e e e e / w / ) ) ].{.|.|.l.q.l.i.F.|.i.o. .r.i.9.5.@X&X[ f W G T 3 Y | o.|  .| O.Z.{.Z.Z.D.O.o.+.].[.[.[.'.'.[.[.[.[.[.[.OXOXoXoX}.].].].].].C.) ].{.+.| {.qXXXJ.u.:X{.{.OXfX}.qX:X-X-X-X;X;X&X;X:XF.f t.XXqXqXG.XX .;XiXuXuXyXwXyXwX&X:XsXsXqX&X:XdXqXfXfX].) 0 T +.{.aXoXt.|.&XXXF.F.F.9.J.XX .J  . .|.F.i.F.i.F. .i.i.G G ! ' o.i.|.|.t.' o.{.i.F..X.XJ. X:X7X@Xy.:X:XL.tX&X&X&X&X:X7XL.J.aX7XxX9X@X@XL.L.7X7XtXtX9X7X9X8X8XjX4X2X5X8XjXxXvXbX6XDXM.M.M x ,.` ..D.G.{.}.}.D.D.D.U.XXXX}.XXqXXXI.G.U.oXXXD.A.D.F.= B + j.lXMXjX,X>X2X>X2X2X*X*X#X@XE.E.E.E.E.E.R.L.L.L.L.L.K.L.L.K.K.L.L.T.L.L.L.y.q.5.4.y.z.c.l.y.v.f.q.q.f.W.W.R.x.h.m.!.!.M.M.R.!.!.R.M.l.u.t.r.r.9.9.{ [ ] ] 9.l.l.q.q.9.O.{.XX|.{.D.+.Z.Z.Z.+.) / / R < H f < 9 q q r 7 q 9 3 < , 3 G G ",
"G Y E H ` F.@XE.=X3X3X3X-X*X*X=X3X2X2X2X=X=X=X=X2X3X3X=X=X=X=X=X-X-X3X3X3X3X3X2X2X2X2X2X8X2Xj.m.B i u a h k k { |.|. X X|.|.XX&X&X X.X&XaXBXBXSXVXSXBX8XCX9X7XCXCXDXVX8X2X9X8X8X8X,X2XxXkXxX4Xm.9X9X2X+X2XxX2X=X9X+Xf.9X=X=Xl.5.t.F.i.o.' o.t.r.i.{ z.|.{.o.i.X.o.+.X.R q 0 / (.+.].].].].'.'.'.w 0 0 w / ) ) +.+.}.|.F.J.J.l.i. .O.O.o.| |  .9.9.q.L. X|.|.O.< 9 3 ~ | ` o.t.O.O.O.O.O.O.t.i.i.Z.].[.'.'.`.'.[.].'.'.[.[.OXOXoXD.{.}.].) ) C.].]./ ].}.Z.|.qX;Xl.=XLX:X{.oXfXXX&X&X-X3X3X-X-X-X%XwXH.[ &X&XuX&XI.-X[  XuXyXuXrXwXyXpX%X&XsXsXqX:X-XqXqXfX}.) / ^ O.dXsXsXXXF. X X:X&X Xi.[ u.J. .j ..t. X|.J.J.J.|. .F.|.` H H ` t.{.{.{.o.r.F.t.r.z.XX XJ.|.&X:Xl.z.&X X.X XJ..X.X.X&XtX@XL.tXxXjX2X9X7XL.0.l.#X7XtX8X9X8XxXjXxXjXjXjXxXnXnXvXDX5XbX,XW.*.x A G.D.G.G.G.}.G.D.G.U.}.}.XXXXU.I.G.I.G.G.U.Z.O.D.t.t.p t y s.hXMX5X>X>X2X2X2X2X*X#X#X#X#X#X#X#XQ.R.T.L.L.R.R.K.K.R.T.T.K.L.L.R.R.L.L.l.f.6.L q.l.v.f.l.L.@XE.l.f.R.#X>XW.m.x.m.T.!.!.M.m.m.x.T.R.l.u.u.u.z.z.u.q.6.[ ] ] 6.q.q.9.o.D.{.|..X|.F.{.+.( ( R ^ ( T 1 ; ; < 4 : 8 q q 0 9 3 , , 3 3 < ",
", G J H  .J.*X=X3X3X3X3X3X-X3X3X3X2X2X2X=X=X=X=X*X=X=X2X=X=X=X-X3X3X3X3X3X3X2X2X9X2X4X2X2X#Xx.m.B i u t t D K r.7X&X X X-X:XwX7X7X7X=X7XxXxX8X9X2X8X8X9X8X9X2X8X8X8X9XjXCXGXVXjXVXCX8X8X2X9X#Xv.m.,X2X+X8X8XW.$X2XE.0.$X$X$XL.6.[  .{ g g { t.r.J.6.q.y.{ ` O.o.o.o.X.~ R 9 R ( ( X.].}.}.].(.) : : q / +.'.].].+.XXXX|..XXXF.O.i. .' | o.t.9.9.l.&X%Xq.i.|.G.! G T {.F...t.i.t. . .O.t.u.u.H.J.O.].].'.'.'.].[.'.'.[.[.[.[.].}.|.XX}.{.C.) C.C.C.R Z.{.+.{.oXe.g.zXLXLXXXoX}.oXqXwXtXrXrXwXwX:XwXaXJ.H.&X&XyX&X X-Xw.E.yXZXcXcXcXwX-X-X:XqXqXqXqXXXXXXXoX{.^ ^ T o.aXsXuX&X&X.X|.sXSXuX&XP.P.H.J.9..X&XtXtX:X Xl. XJ..X&Xt.K _ g | t.i.i.t.9.i.9.r.z. X X|.|..X&X9. X.X.X&X|.J.J. X X@X7X8X7XxXxXjX8X8X2XT.c.,X9X8X8X8XjXxXvXjXjXjXkXxXxXzXnXnXvXVXDXjX!.*.&.m G.G.}.}.}.}.G.D.G.U.U.U.XX0X;XU.0X;XG.A.G.D.D.|.G. .f O c <.lXFX4X>X>X2X>X2X2X*X#X@X#X#X#X#XQ.Q.R.T.T.T.R.E.R.K.R.T.T.T.T.T.R.R.L.L.l.x.q.,.q.l.c.l.c.+X*X#X+Xc.v.+X2X2X#Xm.m.m.!.m.m.v.j.v.c.E.l.l.l.l.l.z.l.y.J.l.9.] [ [ ] k G Q ' 9.u.J.J.|.+.^ R 0 R X.G ; % 1 9 8 7 7 q 0 R T < , < < < < ",
", , , f { J.*X3X2X2X2X*X*X*X*X=X*X1X*X*X=X3X2X=X@X*X=X=X2X2X3X3X3X3X3X3X3X3X2X2X5X>X5X>Xj.a.<.=.u i u i t C 6.J.aX:X&XwXBXBXyX7XtXCXtX8XxXjX8X5XjXjX4X4X8X8X9X9X+X,X9X4X>XW.#X,X#X4X+XM.f.x.c.,X#X,X2X+X>X2X$X2X#Xx.8.R.$X$X@Xl.z.F.i.o.o.i.F.i.y.q.J.&Xr.` ' o.' ' X.Q R R R Q Q Q Q +.].+.0 : 1 1 4 R ) '.].Z.O.|. X|.|.{.Z.+.i..._ {  .{ 9.l.*X7X@X5.L  .r. .f , F.I.9.w.q.9.9.9.q.l.K.L.T.K.l.F.Z.+.+.+.Z.{.].].[.[.[.[.[.}.oX&X|.{.{.].C.) ) ].].+.Z.}.|.P GXKXrXsXXXoXOXXXqXrXzXrXrXcXZXZXyXZX%XJ.L.-XyXwXP.;XE.E.tXcXcXzXcXwX-X&X&XXXXX:X:XXXXXXXfX}.T T Q i.aXuXaXSXBX&Xu. XJ.J.J.L.%X-XJ.9.@X&X7XrX7XL.l.@X@X X:X.XK _ O.X.| F.&XXXz.u.y.y.u.J..X|.F.F..Xr. X|.|.:XXX.X|. X@X*X8XvXvXxXjXjXkX8X#X#X8XCXvXxXjXkXvXvXvXkXjXkXkXjXjXnXnXjXjXbXDXkX#XM =.u G.G.|.|.}.}.G.D.A.A.G.G.G.G.U.U.U.U.A.A.}.}.A.D.|._ j i y ;.<XFX5X,X2X2X#X$X2X#X@X@X#X#X#XQ.Q.W.R.R.R.R.Q.Q.R.T.R.R.R.T.T.T.R.R.R.T.l.R.x.8.v.E.#X@X@X$X#X#X@X+Xl.L.+X#X#X+XT.x.v.v.v.l.v.l.z.L.#X#X$XE.L.L.y.6.l.u.i.i.t.r.{ ` ! ' [ ] 7.7.q.i.{.( ) ( ( o.k - G ~ ) / e e / ) ( T < , < < : 3 ",
"g g > f 5.J.@X2X3X3X2X*X*X=X=X2X*X1X*X*X*X*X*X#X@X#X*X*X*X*X*X*X*X*X=X-X3X3X2X2X2X#X8X,Xj.a.7.=.u t u = t ] i.&XaXtXtXtXBXxXtXrX7XxX8X2X2X5X5X8X4X5X5X5X4X2X2X2X4X,X,X,X4X4X4X4X,X9X>X,X+X+Xx.,X5X#X4X,X+X,X#X+X2Xx.0.#X2X$X$Xc.&XJ.i.r.r.r.r.9.l.6.q.@Xy.i.r.r.r.o. .' Q Q Q Q X.X.X.X.Q R R ) ~ R R R / ) ( X.O.F.J.J.F.D.+.D.F.i.u.u.9.[ z.7XtXl.q.q.q.9. .K _ - 9. X X@XK.g.q.e.q.l.R.E.Q.R.L.J.t.Q Q ^ ( ].].].'.[.'.'.[.OX{.XX}.{.Z.Z.Z.C.C.C.^ ^ {.D.| t.xXKXAXaXuX&XuXqXyXZXAXcXnXcXyXwXwXyXwX%XH.yXyXwX%X;XwX*XcXbXcXcXBXZXyXpX&X0XqX:XqXdXsXuXuXXXW G f |.sX:XwXaXwX XJ.u.9. X:XJ.H.-X%XJ.&X*X3X7X7X@XE.@X@Xl.&X&XH G |.| J o. X|.z. Xz.y.9.y.J..XF.t.J.y.|.z.u.&X X.X XJ.@X9X8X8XjXjXnXkXvXkX8XvXvX2X8X8XjXnXkXkXkXkXjXkXjXhXjXnXnXjXjX5X4XjX5Xz *.i F.|.}.}.|.}.U.G.G.G.}.U.G.A.G.I...G.A.....W ..oX|.H V y y <.M.vX4X2X2X2X#X#X*X@XE.E.Q.#X#XQ.W.T.Q.R.R.W.#X#XQ.R.R.R.R.R.R.R.R.R.R.R.x.#XR.f.T.$XE.#X*X#X#X$X*X=X#XE.l.T.#X$X#XT.v.x.L.L.l.l.l.l.f.v.m.E.@X@XL.y.l.q.q.9. ._ K ` W  .9.9.q.0.q.J.|.o.{.].+.O.E G T ( ) / ) / / ( +.T , , < , 1 3 ",
"f f f p ] @X#X2X2X2X2X2X=X=X=X=X#X#X#X#X#X#X#X#X#X#X*X*X#X@X#X@X#X#X#X*X=X3X2X2X2X2X,X>Xm.8.;.=.u = h h d 9. X:X:XaXtXBX$X9X9X2X9X5X5X5X4X2X2X2X4X4X2X2X2X2X2X2X2X,X,X,X,X,X2X4X2X2X,X>X>X#X#X>X>X>XW.#X2X2XW.@X#XL.0.E.2X+X>X+X@X&Xq.6.u.6.J.9.z.q.l.@X@Xu.y.L.y.i.o.' ' Q Q X.| | ~ Q ( ) ) ) / / / 0 0 q T ! O.i.J.J.J.J.J.l.J.l.-X7Xl.5.tX&X&Xy.9.9.[  .q.` G ' { F.&X@Xq.K.q.l.l.K.@X*XL.l.K.w.i.F.1 T 9 ].Z.].].].OX].C.[.fXZ.fX}.Z.Z.OX].Z.^ ^ ].].+.X.o.7XvXBXBXyXtXyXtXZXBXbXcXcXzXzXtXrXyXyXP.I.wXyXwX*X%X-X-XcXtXbXcXcXcXcXtXrXwXqX:XqXdXdXqXyX@XA P e.L.=X:X&X&XL.u.u.i.J.&X-X@XP.%XJ.F.wX@XBXrX3X8X*X=XL.@X&XXXG G ,  .J ` 9.&X:XL.J. X9.[ |..Xt.|.J.y.J. XJ.*XtX7XE.@X,X8XkXxXnXkXnXkXkXjXjXjXjXjXjXjXjXkXjXjXjXjXjXjX8XjXkXnXnXjXkX5X>X,X8Xa u = ..|.|.|.|.G.G.G.}.D.U.}.D.Z.G.}.G.;XqX0XXX0XqXiX:XL u A <.=.>XkXjX2X#X#X$X#XE.E.#X#XQ.Q.E.Q.Q.Q.Q.E.R.E.#X*X*X#XR.R.T.K.x.x.T.R.R.Q.E.#X*Xx.j.#XQ.#X#X*X*X#X#X*X#X@XT.R.1X#XQ.#XQ.R.R.E.#X#X#X#XR.R.x.v.v.l.l.q.7.0.1.5.0.q.H.5.u.i.9.9.J.u.q.L.&X@Xq.t.F.O.X.( 0 ( +./ 0 R ( X.W G f f g , , g ",
"j j f p I E.#X2X2X2X2X2X=X=X*X#X*X1X#X#X#XQ.Q.Q.#X#X*X*X#X#X#X#X#X#X#X*X=X=X=X=X2X2X#X#Xj.8.;.;.V t h p d i.XXXX&X:X:X8X$X2X2X,X2X2X2X2X,X,X,X,X2X2X,X,X$X#X$X#X,X,X4X4X2X,X,X$X2X2X,X,X>X>X>X>X<X>X#X>X2X#XE.@X#XL.0.R.2X#X>X#X@X@Xq.6.z.6.J.9.y.q.z.*X=X+Xl.y.l.z.t.o.o.X.| o.o.o.~ Q ( ) ) / ) ) w 0 0 R | | t.t.u.l.z.L.L.K.@XP.7X7X2Xl.7X@XP.9. .9... .9._ H  .t.i.:X Xw.z.L.E.L.l.z.J.J.J.K.P.J.F., T 9 +.+.].Z.].}.].].OXOXOXfX].}.fXfX].C.C.Z.].Z.^ ) }.BXVXcXxXxXcXbXbXZXbXbXbXcXcXzXtXwXyXyXP.P.wXyXuX-X%X-X*XuXrXcXyXcXcXbXcXcXyXwX&XqXqXdX&X%X8Xv N 2X=X=X&XL.q.9. .e.J.XX&X XJ.@XuX|.t.wX&XtX8XrX5X2X3X@XP.|.|., > | t. .F.9.[ J.:X@XL.[ K i..XF.|.u.y.L.@XL.=XtX2X#X>X4XjXkXnXkXkXjXjXjXjXjXjXjX8X8X8XjXjXjXjX8X8XjXkXjXjXjXjX4X>X>X4X2X#X=XV j p t.XXXXXX|.G.G.D.G.D.D.A.~ O.G.U.U.U.XXXXXX;XeXsX=X,.m Z =.*.>XkX8X$X#X#X#X#XE.E.#XQ.Q.E.E.E.E.E.Q.E.E.Q.#X#X#X#XQ.Q.E.R.K.K.R.R.Q.#XQ.#X1XT.x.#XQ.#X#X#X#X#X#X#X#XQ.T.R.*X#XQ.#X#XQ.Q.Q.#X#X#X#X#X#XQ.R.E.E.K.g.K.K.g.g.g.g.K.0.[ 5._ K  .[ ] z.2X2XK.u.t.~ / 0 q 0 0 6 : < g g g d d f g g f f ",
"j j s t L l.E.2X2X2X2X2X=X*X@X@X*X1X#XQ.Q.Q.Q.#X#X#X#X#X@X@X#X#X#X#X#X*X*X*X*X*X=X#X#Xm.a.<.-.;.V t t * f |.:X XXX&X:X8X$X2X2X,X>X,X,X,X,X,X>X>X5X2X2X2X,X,X,X,X>X,X,X,X,X,X$X#X,X,X,X>X>XW.~.~.,X,X>X>X2X#XE.@X#Xc.f.T.2X#X,X#X#X@Xq.6.J.6.l.9.u.l.z.L.=X*XE.l.z.J.i.t.i.o.X.o.o.X.Q Q R / / w w q 5 4 R X.+.i.i.t.t.u.l.L.K.l.L.L.@X#XvX#X2X*Xl.u.9. . .9. .` H  .F.t.:X.XJ.l.K.L.q.5.q.u.l. XR.*X9.` ; 3 R +.+.].].].].OX[.OX}.fXfXZ.}.fX}.Z.Z.].{.{.Z.+.{.dXSXAXcXrXxXBXZXBXZXZXbXbXcXcXcXtXwXyXyXP.P.yXcXyXwX*X;X-XyXtXcXtXyXyXbXbXbXbXuX:XXXXXdXaXaXy N ,.Q.@X*X=XL.9.[ 9.J..XF.u. XP.P.:XJ.` :X-X3X3XrX2X5X3X*X@X XF.J Q o. .[  XJ.9.u.%X:X X6.] 9.z.|.J.z.l.&X*X+X#X2X#X#X2X8XjXkXkXkXkXjXjXjXjXjXjXjX8X8X8XjXjXjXjX8X8X4X4XjXjXjXjXhX<X~.,X>Xm.v.L s = G.XXXXXX}.G.U.G.G.}.U.A...|.fXXXiXqXqXqX0X;XwXZXE.,.N M M $.>XjX5X$XE.E.@X#XQ.Q.E.E.E.R.R.E.E.E.E.E.Q.#X#X#X#X*X1X*X#XQ.E.R.E.Q.#X#XQ.#X*XR.j.R.#X#X#X#X*X*X*X#X2X1XR.W.2X2X>X1X>X#X#X#X#X#X#X#X#X#X#X#X#XQ.R.x.K.R.K.L.K.K.E.g.5.9.[ K [ K L l.d.K.q.[ _ G 0 q 8 8 & & 2 : , > f d f k H k f f ",
"f f a t P x.R.1X2X2X2X2X2X*X#X@X*X*XQ.Q.Q.Q.#X#XQ.#X#XE.E.E.@X#X#X#X#X*X*X*X*X*X#XW.W.h.7.;.-.8.S i t * f J.:X&X&X&X7X7X$X2X,X,X,X,X,X,X2X,X,X,X>X>X>X>X#X#X#X,X,X,X>X>X$X,X,X2X,X,X,X,X>X>X>X>X>X2X,X>X>XW.R.#X#Xc.f.c.#X2X>X#X@XL.9.6.J.9.l.y.y.z.L.z.+X:X=Xz.z.J.i.i.i.o.| o.o.X.' Q ( ( / 0 7 & 2 4 R X.+.o.t.t.t.q.l.z.l.g.J.u.u.@X2X2X2X7Xl.J.t... . .[ ` g ..|.t.:X.X XH.q.q.5.5.q.u.u.J.L.%XK G < 9 ( ].].].{.].].OXOX[.OX}.fXOXOX].C.Z.}.{.}.{.X.D.oXsXBXBXcXcXBXAXbXcXZXZXbXbXcXcXcXtXwXyXyXP.P.yXcXyXwX;X;XwXmXmXcXrXrXyXcXbXbXBXyXqXdXD.{.qXaXo ,.,.R.#X8XtX7X@X@X&X XP.5.w.&X XH.=XJ.[ &X-XrXrXzX5X*XR.L.@X XF.| F.O. ...|. X&XL.J.7X@XL.y.] { t.r.z.L.*X=X@X@X=X$X>X2XjXjXkXjXkXkXjXjXjXjXjXjXjXjXjXjXjXjXjXjXjXjX4X4X4X4XjXkXkXkX5X,XR.j.4.L i O t.XXXX|.|.|.}.G.G.U.XXXXXXaXsXiXiXiXiXeX;XU.%X-Xl.1.*.b v $.<XjX2X#X+XE.E.+XQ.W.R.R.R.R.R.E.E.E.E.Q.#X#X#X#X#X1X2X2X*X#X#X#X#X#X*X#X#X*X*XE.x.x.2X2X1X1X2X3X2X1X5X2X#X#X2X5X1X2X#X>X>X#X#XQ.Q.#XQ.Q.Q.Q.Q.E.R.K.K.R.L.E.R.P.*XK.q.l.u.9. .K V 0.7.d.1.K f % 2 & q 8 & & & < < g H k k H H g f > ",
"V V V a 5.L.E.1X1X2X2X1X*X#X*X=X#X#XQ.Q.Q.Q.*X1XQ.#X#X#X@X#X#X*X*X#X*X*X*X*X*X#X#XR.E.a.<.8.;.s.L t t t p { |.&X XL.=X#X#X,X>X,X,X,X,X2X2X4X,X,X,X,X,X,X,X,X,X,X2X2X,X,X,X2X2X2X,X2X2X,X,X>X>X<X>X,X>X>X#XE.R.#X$Xc.l.l.#X2X#X#X+Xz.q.5.z.q.l.l.] l. XL.@X7X=Xz.z.J.z.i.i.o.' o.o.o.o.o.+.+.) 0 q : & 8 R Q ! G '  .9.q.u.l.l.u..XJ.l.=Xv.2X1X3Xf.u.r. .9. .[ ` g ...Xi.&X X&XJ.w.q.5.9.l.u.9.u.H.H.J ` o.^ ( +.].].}.[.].[.[.[.}.A.}.fX}.Z.C.}.oXD.fX|.G F.aXZXxXcXBXAXAXBXcXcXBXBXbXbXbXbXcXcXyXyXyX%XE.yXyXyXrX-X%XwXcXZXcXcXcXBXbXcXcXcXsXaXqX{.O.i.j y ,.d.#X8XtX3X*X@X&X%XL. XP.%X-XH.w.yXJ.9.P.E.rXrX1X2XbXrXrX%XJ.9.` O.t.G.F.|.F. X@X=X=X X Xz.] { r.6.q.z.@X=X@X$X2X2X>X2XjXjXjXjXkXkXkXkXkXkXjXjXjXjXnXnXkXjXjXjXjXjXjXjXjXhXjXkXkXkXkX4XW.#X7.4.i = [ F.F.G.I.I.|.G.G.U.oXqXuXsXJXsXeXiXeXeXpX-X*XL.f.<.=.b v &.<XhX#X#X#XW.E.E.R.R.R.R.R.R.R.E.E.Q.E.#X#X#X#X#X*X1X2X1X*X*X*X1X1X1X5X2X2X2X2X1XQ.K.2X3X3X2X3X5X5X3X2X2X#XQ.2X5X1X1X1X1X1X#X#XQ.Q.#X#XQ.Q.Q.Q.Q.E.E.#X#X@X*XE.K.E.l.w.L.J.t.9.K j L m N m L [ G R ) / w 0 8 : < , , H H k k k k k k ",
"L K V B 7.T.T.#X>X1X1X*X#X#X*X=X#XQ.Q.Q.Q.Q.#X*X#X#X*X*X*X*X*X*X>X#X#X#X*X*X#X#X#XT.#Xk.<.s.2.a.4.t p t = h 9..XL.q.=XE.#X,X>X4X<X,X,X,X,X,X,X>X4X4X2X2X,X>X#X#X+X#X,X,X2X#X+XE.#X#X>X>X>X>X>X>X#X>X#X#X#XE.L.$X@Xc.L.l.E.=X+XE.L.z.u.[ u.y.z.z.6.z.L.z.L.@X=X+XJ.J.i.i.i.o.{ t.r.t.o.o.+.+.( / R 8 & : 9 3 < G J ` 9.9.u.l.l.l..XJ..X7Xf.5X2X2Xq.9.9.t.t. .' ` E  ..XJ.&X X&XJ.l.q.5.9.u.t. .t.L.u.H ` | T R / +.].OX].[.[.[.[.}.A.}.}.Z.Z.C.Z.oX}.dXXXj @XHXSXcXbXBXAXBXcXbXbXbXbXbXBXbXbXbXcXyXyXyX%X%XyXyXyXcX3X^.3XtXmXcXZXBXZXbXcXtXyXyXuXG.}.D. .- i 0.d.j.#X7X*XE.@X@XK.z.P.%X7X-Xw.w.yX&X%X-X*XcXAX5XnX1X3XtXE.L. XoXXX..t.F.|.u.J.J.:X7X@XL.z.y.J..Xu.q.c.@X#X$X$X#X2X2X5X5XjXjXjXkXkXjXjXjXjXjXjXjXjXnXkXjXjXjXjXjXjX5XjXkXkXkXkXkXjXkXjX8XxXv.Z O = ` F.F.F.F.I.|.G.U.U.;XuXiXiXyXiXiXiXiXiXSXSX3Xv.p.<.;.b v &.>X<XW.#X#X#XE.E.R.T.R.R.R.R.R.E.Q.Q.Q.Q.#X#X#X#X*X2X1X*X*X*X1X2X2X2X5X2X2X3X2X2X1XR.1X3X8X3X3X8X8X5X2X5X2X1X5X5X2X2X2X2X1X1X>X#X#X#X#X#XQ.#XQ.E.E.@X#X#XE.%XR.K.L.d.q.J.l.u.r.` V L x.x.7.q.9.W R / ) ) / R 9 9 < g g k k k K ` {  .",
"5.P V m 5.K.x.W.#X#X1X#X#X#X#X*X#XQ.Q.R.R.Q.Q.#XQ.#X*X*X*X*X*X*X#X#XQ.#X#X#X#XQ.#XT.>Xk.<.s.;.f.L t t = = j 5.u.J.9.$X+X,X2X>X4X<X<X,X,X,X,X>X>X+X+X+X+XW.!.M.m.x.T.+X#X#X$XE.T.E.+X#X#X>X>X>X>X#X#X#X#X#XR.L.+X+XL.+Xc.L.#XL.L.L.L.z.] 9.y.z.z.z.J.c.l.l.L.=X=XL.J.i.i.t. .{ t.r.r.t.o.X.X.( / 8 & 2 1 < , < E E ` {  .t.l.J.l.F.J. XL.K.8X1X2XL.9.9.i.o.|  .' `  .|. X&X&X&XL.J.u.9.u.l.r.9.u..X9.` J < 9 R / ) [.OX[.[.].].[.}.}.G.A.X.Z.~ Z.}.oXsXY.3.xXPXGXAXVXVXAXBXcXcXBXbXbXbXZXZXmXcXcXcXZXmX*X;XyXcXmXmXwX*XtXyXZXcXAXcXyXyXyXcXyXuX:XXX{.~ | t.O g.P 7.K.=X2X2X3X2X#XR.L.P.%X*XH.g.@Xl.q.J.l.x.2XR.Q.2X1X8Xl.0.[  ...` _  .F.u. Xl.@X7X*X X.X.X&X&X Xy.+X=X=X=X$X#X#X8X8XjXjXjXjXjXjXjXjXjXjXjXjXjXjXjXjXjXjXjXjXjXjX4XjXkXkXkXkXkXkXkXkXjXVXx.a y O K J.I.F.I.|.XXU.XXXX0XiXuXeXuXyXiXiXeXiXmXtXQ.f.a.<.-.$.b &.M.M.W.#X>XW.R.R.R.R.R.R.R.R.R.E.Q.Q.Q.Q.Q.#X*X1X2X2X1X*X*X1X2X2X2X2X5X1X2X5X1X5X2XR.#X5X8X5X5X5X8X5X5XzXjX5X8X8X5X8X5X2X1X1X2X2X1X1X1X#X#X>X#XE.R.E.R.R.K.E.R.K.E.g.d.K.l.q.u.9.5.f.T.#Xv.q. .' X.) ) / / R R Y Y E g H _ [ { r.t.r.",
"l.5.L V 7.T.T.E.W.#X1X1X#XQ.Q.Q.Q.Q.Q.R.R.R.R.R.E.Q.#X*X*X*X#X#XQ.Q.Q.Q.Q.#XE.E.#XT.#Xa.<.s.-.s.B = * = = ] q.q.J.5.=X+X2X2X#X>X6X6X4X4X,X,X>X>X#X#X>X,X>X>XW.W.v.x.W.+X$X$X#X#X+X#X>X,X,X,X,X,X,X$X#X@X#XR.l.R.R.L.$XL.L.@Xx.c.c.L.L.L 5.q.l.z.J.J.L.L.L.L.+X@XL.z.y.y.r.{ { t.u.i.i.o.' X.( ( : 2 1 < < , < E | ' { ..t.F.J.i.i.|.L.P E.2XQ.*X7Xu.9.i...` o. .'  .F.XX&X:X&X XL.J.u.J.J.t. .i.J. .i.` G Q ( / +.OXOX[.[.].C.OX}.oXA.A.D.}.~ }.|.oX-XP g.KXKXMXGXVXVXAXBXcXcXcXcXbXbXZXZXZXbXcXmXZXZX-X-XyXZXZXmXrX3XAXZXSXcXZXcXyXyXmXSXJXaX:XoX{.Z.X., = a l.7.f.K.E.E.#X*X2X#XE.R.R.P.H.g.w.l.5.L.H.0.*X1XQ.Q.d.K.l.e.j ` i. . .e.e.[ .XL.&X&X=X&X&X@X X X Xy.+X2X9X9X9X2X5XkXjXjXjXkXkXjXhXkXjXjXkXjXkXkXkXjXjXjXjXjXkXnXxXkXkXkXjXjXkXkXkXkXkX5XxXT.Z L i j i.J.F.F.I.XXU.G.XXqXiXyXyXyXyXeXeXiXZXrXE.x.x.h.;.:.$.#.b N.n.#X>X>XW.m.R.R.R.R.R.R.R.E.E.Q.Q.Q.E.E.#X*X2X2X2X2X1X*X1X2X3X2X2X5X6X5X5X6X5X8X#XQ.5XzX8X5X5XzX8X2XzXzX8X8X8X5X8X5X2X1X1X2X2X2X1X2X2X2X5X2X#XE.E.#XE.K.E.E.E.@XK.g.K.w.9.u.u.q.L.Q.8XR.4.K ` X.( ( / R T Y G g g f K [ { 9.9.9.6.",
"l.P P N 7.Q.j.W.W.Q.>X1X1X#XE.R.R.R.T.x.x.T.E.#X#X#X#X*X*X#X#X*XQ.>X#XQ.Q.#XE.R.#X#XR.a.<.8.p.B.h h *   p 9.q.u.l.L.$X#X>X,X,X,X<X<X4X6X,X,X,X,X#X+XW.>X2X,X>XW.#Xl.l.#X2X#X#X#XE.E.W.W.2X9X2XW.R.@X@XR.R.$X$XE.+XE.+XL.l.L.E.z.z.L.L.q.] [  Xu.L.J.z.z.L.L.@X@Xl.L.6.9.9.u.z..Xz.y.[ i.i.+.R ( 9 T 1 % Y Y Y D.` ' .. .r.i.z.i.t.F.9.9.q.1X*X@X@X@Xr._ | | | O._ o.i.XXF.9..X.X.Xi.u.J.J.[ i.i.J.i.F.| ! ~ R ) ].].[.[.].C.[.].}.XX..G.qXXXX.XXuX&XwXP 1XKXGXGXGXGXDXVXBXbXbXbXbXbXbXBXZXZXZXcXmXmXmX-X-XmXZXSXZX3X-XyXAXSXAXcXyXwXZXbXSXZXuXt.{.Z.X.+.; = s 5.w.g.g.l.x.g.K.*XQ.*XE.E.R.g.w.l.J.e.l.z.0.#XR.R.T.R.E.L.l.e.K j ` ` 9.i.w.e.u.u.J.L.@X@X&X&X@XL.$XR.2X9X9XjX5X,XjXkXkXkXjXjXjXkXkXkXkXkXkXkXkXkXvXkXkXkXkXkXkXvXkXkXkXkXkXkXkXvXkXbX8XxXjX1.A a h u.J.|. X|.I.|.U.I.0XiXuXwXtXtXyXiXeXmX*Xj.Q.<.s.:.&.n z -.s.a.R.#X>XW.!.W.R.R.R.R.E.E.E.E.E.E.#XQ.Q.#X*X1X1X1X*X1X2X2X2X2X2X2X5X2X2X2X6X6X6X2X2X5X5X5X5X5X8XzXjXjXjX8X8X5X5X8XjX5X5X5X2X1X1X5X2X2X2X5X5X2XQ.R.E.E.E.R.E.#XE.R.g.K.l.u.l.9.5.l.K.8X2X4.9._ G T Q < : Y Y , f H _ [ 9.9.y.y.u.y.",
"d.A A m <.R.x.W.Q.Q.>X>X#X#XQ.W.R.R.T.T.T.T.E.#X#X#X#X*X*X#XE.Q.Q.#X#XQ.Q.#XE.E.E.W.m.f.8.7.4.S h = = * C { ] 9.5.l.#X2X,X,X<X<X<X<X<X,X>X#X#X#XE.W.E.#X,X>X#X+XR.l.l.@X#X+XT.W.#X#X+X+X#X,X#XR.E.R.R.R.R.T.E.@X@XE.L.l.l.c.L.z.z.z.L.l.9.] z.l.J.z.z.L.L.+X+X+Xc.L.q.9.9.J.J.@X&XL.q.u.t.O.~ X.Q Q < , Q Q E | O.| _ _  .F.|.F.F.i.9.9.z.3X7X*XL.&X|. .o.i.o.' |  .t.XXF. .i.i. XJ.|..XJ.9.J.J.F.G.|.O.' X.^ ) ].[.].[.[.[.}.}.XXsX0XqXdX|.O.XXuXJXl.x.DXDXGXGXDXAXVXVXbXcXcXcXbXbXbXBXZXZXZXcXZXcXcX-X-XyXcXZXSXwX3XcXAXAXAXmXSXSXGXcXZXcXwXD.D.+.~ 9 1 - K P 5.5.0.0.0.d.K.E.E.E.R.E.E.K.w.w.J.u.l.H.0.E.R.R.T.R.K.l.l.u.w.9.`  .F.J.u.H.L.J.l.w.L.=X:X@XL.+X+Xc.2X9X9XjXjXxXvXxXkXkXjXjXkXkXjXjXkXkXkXkXkXvXkXkXkXkXkXkXkXkXkXkXkXkXkXkXkXkXkXvXjXVXvX7.=.u a u..XJ..XI.I. X-X;XwXyXuXeXtXtXrXyX3XzX2XT.>X2.-.$.:.v v -.;.p.M.>X1XW.M.R.R.R.R.R.R.R.R.E.E.E.#X#XQ.#X*X1X1X1X1X1X2X2X3X3X2X2X5X2X2X2X6X2X3X3X5X5X5X5X5X5X8XrX8X8XjXjXjXjXjXjXnXjX5X5X5X1X1X1X5X5X2X2X5X2X*XQ.T.T.T.R.E.*X#XE.x.R.L.l.u.5.I l.d.2X1X7.q._ , < Y < , E E E _ { 6.9.q.q.q.z.L.L.",
"1.N A m ,.m.m.W.#XQ.Q.Q.Q.Q.Q.Q.R.R.R.R.R.R.E.Q.*X#X#X*X2X2X2X2X#X#X#XQ.Q.#X#XE.@X+Xx.p.7.8.=.A V = = p ] r.5.9.5.l.$X2X,X>X>X<X<X<X,X,X,X#X#X+XR.m.R.#X>X#X#X+Xc.l.L.@X#X#XW.T.#X#X+XE.E.E.R.c.E.c.c.E.L.l.L.#X$X+XL.l.y.l.L.L.L.l.z.L.z.L u.z.z.z.L.L.L.L.L.L.c.c.z.q.y.&Xz.@X=X@Xl.z.r.D.X.X.| Y > , ! | | |  .| ` `  .F.F.F.F.t.[ 5.L.*X&X Xu.|.|.i.D.i.o. . .' o.|.|. .t.t.|.|. X.XJ.9.J.J.i.D.{.D.o.X.~ ( ].OX].].OX].}.oX0XuXuXqX0XF.;XaXSXSXx.1.PXFXMXDXDXAXAXVXBXcXcXcXbXcXcXbXbXZXbXbXZXZXZXrXrXZXmXZXSX3X3XcXmXmXAXSXmXSXGXtXbXtX=Xt.D.Z.( 2 , > H j [ [ [ [ 1.w.R.E.^.!.K.R.%XE.H.w.P.l.u.l.q.E.R.R.R.K.x.l.l.H.u.t.j [ J.J.H.J.@X X=Xl.6.l.*X=X=X@X#XW.9XjX8XjXjXCXjXkXjXjXkXkXvXvXkXkXkXkXkXkXvXvXvXvXkXkXkXkXkXkXkXkXkXkXkXkXkXkXkXkXxXVXjX7.,.u u y.&X.XP.I.|.|.XX-XpXeXmXmXcXtXrXbXtXtX#XT.~.s.&.b :.$.v &.-.<.n.>X5X>XR.R.W.T.R.R.R.R.R.R.E.E.#X#X#X#X*X1X2X1X2X2X2X3X5X5X3X3X5X5X2X2X5X5X5X5X5X5X8X8X5X5X5X8X8X8X8XjXjXjXjXjX8X5X5X8XjXjX5X5XjX5X6X6X2X2X2X6X3X3X3X3X3X5X3X1XR.#X@XL.J.9.5.L.j.6X2Xq.q._ g , g g H ` ` [ 9.y.l.l.y.y.l.L.+XE.",
"*.N *.m *.h.j.T.W.W.W.R.R.R.W.W.T.R.Q.Q.Q.Q.E.E.E.K.g.x.K.E.E.#XQ.Q.Q.E.E.@X@X@X#X+Xv.8.,.=.=.D C * = = K L.L.H.K.@X2X2X>X>X,X6X<X,X>X,X2X2X$X@XL.c.c.+X#X,X#X#Xl.L.E.+X@X$X+XR.W.W.#X#XE.E.L.L.+XL.l.L.R.R.+X$X2X$XE.L.l.l.L.z.z.l.z. XL.] u.L.J.J.L.L.L.L.l.l.l.l. Xl.l.7Xl.L.@X@XL.L.i.{.+.Q | , ; ; , W o. .` |  .' ` | t.{.&XJ.i.F.&X&X&XJ.t.o.o.D.{.i.t.{.' E  .|.|.t.t.F.|.|. XJ.J.9.L.F.t.{.{.D.o.| ~ ( / ].].[.].Z.oXqXsXuXuX0X%Xu.wXBXSX7X1.,.KXFXFXMXbXVXDXVXbXcXcXcXbXcXcXcXcXbXbXbXZXZXSXmXmXSXZXAXSX3X3XAXSXZXSXHXGXLXSXNXZXtX-X&X|.{.^ 2 3 g j j H _ [ [ [ l.@XE.*XE.K.R.E.%XP.H.I.H.e.u.w.@XE.R.R.L.K.H.H.H.9.[ J ` u.J.u.J.L.J.7XP.6.4.l.=X2XE.2X+X8XxXjXjX4XvXkXkXkXkXkXvXkXkXvXvXkXkXkXkXkXkXvXvXvXvXvXkXkXkXkXkXkXkXkXkXkXkXvXkXvXxX#X=.<.m i 6.@XL.L.I.I.F.uXsXuX0XpXwX3XtXtXSXmXrXT.j.M.s.&.#.:.b n $.-.2.p.M.>XW.R.W.Q.T.Q.W.R.R.R.R.E.E.Q.#X#X#X*X*X1X1X2X2X2X5X5X5X5X3X2X5X5X5X5X5X5X8X5X5X8X8X5X5X5X8XjXjXjX8X5X5X5X6X6X2X2X5XzXnXnXnXzXjX5X5X5X5X5X5X8X8X3X3X3X3X2X*XW.1X2X*X Xu.g.*X1XjX1X7.0.K G G f K [ 6.6.9.q.q.l.l.l.l.R.E.T.v.",
"N N *.N *.p.h.m.T.T.T.T.W.W.T.T.T.R.Q.Q.Q.R.R.R.Q.T.x.x.K.K.K.K.R.R.E.E.E.E.@X@XE.l.0.,.S =.=.S ] * = * K .X&X@X@X*X>X#X>X,X6X,X6X,X>X,X2X2X=X@XL.c.c.R.$X,X>X+Xl.c.c.l.L.+X+XT.T.W.#X$X$XE.R.E.L.L.c.x.E.#X$X$X$X+XE.L.z.z.L.z.z.z.L.L.L.6.z. XL.L.L.L.L.L.L.c.l.c.@Xz.z.7Xl.R.E.#XE. Xi..XD.' | , - > ; g ' Q | O.O.' W ' O.{.|.t.9.i..X|.t.' D.| X.{.{.D.F.|.Q Y O.|.{.i.i.|.|..X XL.J.u.@XJ.i.{.{.+.| W ~ ^ / ) Z.[.Z.}.dXqXaX-XuXaX:XH.tXBXVX2X. 2XbXFXKXvXbXbXbXbXbXcXcXcXbXcXcXcXcXmXBXcXZXcXZXyXtXcXyXmXSXrXtXSXGXAXAXGXSXcX2X^.*XR.H.;X|.D.3 : 3 E f H G J ' ..e.H.E.E.*XE.*X*X%X;X;XH.J.J.[ q.H.*X@XL.R.L.L.H.J.l.9.K e.[ u.J.J.u.u.u.l.L.L.y.7.f.l.v.m.j.>XjXkXkXjXkXvXvXkXvXvXvXkXjXvXkXkXkXkXkXkXkXkXkXkXkXkXkXkXkXkXkXkXkXkXkXkXkXvXxXDXjXM.*.=.m + B c.q.u.H.I.F.I.qXeXwXiXmXmXSXrXcX8X#Xx.h.h.s.:.b *.M x M *.<.<.p.h.h.h.R.Q.Q.#X#X#XQ.E.R.R.R.Q.Q.#X#X*X*X1X1X2X2X3X3X5X3X3X3X2X5X5X5X5X5XjXjXjXjX5X5X5X5XjX5XjXjXjXjX5X5X5X5XjX5X6X6X5XjXzXjXjXjX8X8X8X8X8X5X6X2X2X2X3X3X3X1XT.>X*X*X@Xu.l.=X8X8XQ.,.I K J g h 4.f.y.f.f.f.f.x.x.m.T.W.W.x.f.",
"&.&.*.N A ,.d.j.m.T.T.W.W.W.W.R.R.R.Q.Q.R.R.R.R.#XQ.#X*X*X#XR.R.R.T.R.E.E.E.E.L.l.q.7.4.,.S =.S { = * K 6.l. X*X@X#X#X>X,X2X,X>X4X,X,X,X$X#X+XL..Xz.z.c.+X#X#X+XL.c.l.l.L.+X+XR.T.E.#X$X+XL.l.c.z.L.c.l.L.#X$XE.E.c.L. XL.J.L.J.l. XL.l.L.9.J. X.XL.L.L.L.+X+X+X+X@X@XL.c.=Xx.#X#XW.R.L.9.|.D.' J > , g , g W W | O.i.i.i.i.t.o.F.J.F.&XXX&XF.+.+.X.+.Z.Z.{.F.o.' Q D.{.D.O.O.F.|.|..XL.L.q.@X|.D.{.+.o.W Y Q R / ) C.].}.oXdX0X-X&XyXSX-XK.cXHXGX<.M DXDXbXDXbXVXDXVXbXbXbXbXbXbXcXcXcXmXZXBXcXSXmXZXrX3XrXrXAXSXtXtXAXmXtXrX5XrX3XQ.5X6X*XE.-X|.O.: 9 3 G - J 3 T ~ | G.J.P.%X*X*X3XwX-X-X-Xu.F.J.[ u. X-X*XE.E.L.L.H.J.J.u.e.e.I 9.J.J.u.u.u.w.l.L.L.f.1.1.7.a.7.m.#X4XkXjXjXhXhXjXkXkXvXMXMXkXkXkXkXkXkXkXkXkXkXkXkXkXkXkXkXkXkXkXkXkXkXkXkXvXvXDX5XT.=.*.c y i v.5.u.J.XXXXXXeXuXuXwX-X^.E.=X@Xl.f.h.h.s.;.&.b &.M c M M =.p.s.2.2.p.m.>X5X1X1X*X#XE.E.R.R.E.#X#X*X*X1X1X1X2X2X3X3X3X3X3X2X6X5X5X5X8XjXjXjXjX8X5X8XjXjXjX5XjXjXjXjXjXjXjXjXnXjX5X6X5XjXjX5XjXjXjXjXjXjX8X5X5X5X5X3X5X5X3X1XW.>X1X=X@Xu.g.=X5X6XW.1.5._ W G h 1.f.x.x.x.x.x.m.m.T.R.W.W.m.k.",
"*.&.N *.*.*.1.j.m.m.T.T.W.W.W.W.Q.Q.Q.R.R.R.E.E.K.T.R.#X#XE.R.R.T.L.R.E.E.L.K.K.l.y.q.6.4.S S L [ = d { 6.u.L.*XE.#X#X>X>X,X,X<X2X,X,X#X@X+X XL..X.XL.c.c.+X#X$X@XL.l.z.R.+XE.R.T.T.R.E.L.x.l.z.z.L.L.L.R.E.E.E.R.l.L. XL.L..XL.J.@X Xz..X6.z.@X.XL.L.L.L. X+XE.+X#X@X@XR.E.v.E.#XW.W.@Xq.F.i.' G , f G G H W W W | i.D.{.D.i.o. .J.F.:XF.XX+.+.X.( +.+.X.i.G.| | ~ {.{.O.i.O.F.|.F.J.L.J.5.L..X{.{.+.| W G ! 9 ^ ].Z.Z.OXXXXX0XuXaXZXcXK.K.xXGXvX@ jXvXHXVXjXVXDXDXDXbXbXbXbXZXbXcXcXBXZXZXZXcXSXZXSXmXtXtXtXGXSXzXrXtX5X3X*XK.g.j.j.Q.T.*XE. X|.^ 3 9 3 , , , T ~ T Q F.J.H.3X3X*XrXwX;XpX-Xu.i.|.[ J.%X-X=X@XE.@XP.J.J.J.J.u.[ K e.J.J.u.l.u.L.z.f.l.v.f.7.8.8.<.h.j.W.4XjXjXhXhXlXlXkXkXMXFXkXkXkXkXkXkXkXkXkXkXkXkXkXkXvXvXkXkXvXvXvXvXvXkXbXvXvXQ.!.<.M c x + x.q.H.u.XX;X;XXXG.G.H.P.;X3XL.y.7.8.h.s.;.;.2.$.*.M c M N <.p.2.2.p.p.h.W.5X1X1X*X*X#XE.R.R.Q.#X1X2X2X1X2X2X2X3X3X3X3X3X2X2X6X5X5X5X8XjXjXjXjX5X5X5XjXjXjX5XjXjXjXjXzXzXzXzX5XjXjX5X5XjXnXjX8XjXjXjXjX8X5X5X5X5X3X2X2X2X*XQ.Q.1X1X2X*Xz.l.2X5X6X#X7.5.` ` E B =.p.x.m.m.m.R.R.R.R.T.R.M.n.p.",
"*.N N *.*.N <.h.j.j.m.m.T.R.W.W.Q.Q.Q.T.T.R.E.Q.Q.Q.E.#XE.R.R.E.R.T.R.E.L.H.l.l.@XL.y.8.S S S ] _ * K { [ z.@X#XE.#X>X#X#X>X,X,X,X,X>X#X#X+X+X XL.@X@XL.c.R.#X2X=XL.y.l.E.+XT.c.E.R.R.E.R.l.c.L.c.z.+X@XE.l.c.@X@XL.L.@XL.J.L.J.L.@X XL. X6.u.@X XL.L.L.L.L.L.c.L.#X+X7X#Xx.f.x.>XQ.#X7XJ..X{. .{ H g g g G H J ` | o.| | o.D.{. . XF.:Xt.|.X.+.+./ ( Z.X.o.D.F.| ' {.D.O.F.i.J.J.u.L. XH.5.L. X{.{.o.' E g W G 3 fX}.Z.fXU.Y.pX0XZXyXcXR.5XGXGX<X2.DXDXGXGXGXVXbXbXbXnXnXnXcXbXcXcXcXBXZXZXZXcXcXbXHXHXAXmXmXHXSXcXtXrX3X*XE.g.K.g.0.g.3.E.%XI.O.3 3 4 3 , E , T ( 3 G G.F.Y.wXtX3X3X3X%XpXpXF.u. X9.P.=X-X=X*X@X@X@XP.L.J.H.u.[ 9.J. XJ.l.l.q.g.L.c.f.f.x.l.8.8.=.p.p.j.4XvXvXGXDXMXkXjXjXkXMXvXkXkXkXkXkXkXkXjXlXlXhXlXjXkXkXvXvXbXCXFXbXvXvXFXvX5Xh.m.p.M M z . R.c.L.w.F.|.F...t.P.P.^.%XP.g.f.f.a.p.;.M ;.a.-.*.M c Z =.p.2.<.2.h.p.<.h.>X>X1X1X*X#XQ.R.R.#X#X2X2X2X2X2X3X2X2X2X3X3X3X2X2X2X3X5X5X5X5X8X8X8X5X5X5X8X8X8X5XzXjXjXjXjXjXjXjX5XjXnXjXjXjXjXhXjXjXjXjX5X5X5X5X2X5X3X2X3X5X3X1XQ.>X*X=X=XK.x.2X5X5X>X0.5.K ` _ B *.<.h.m.x.m.!.M.R.W.W.T.m.k.<.",
"&.*.M *.x ,.<.k.k.j.x.x.M.W.W.R.Q.R.K.T.#X2X#XK.E.E.#X#XE.E.E.Q.~.!.!.Q.E.J.l.J.L.l.p.8.=.Z S ] f _ K V 4.x.+X#X#X>X#X#X#X>X,X>X2X2X#X#X#X+X+X@X#X#X=X2X2X,X+XR.#XR.l.x.T.E.W.T.c.c.L.L.T.R.R.L.L.L.@X@XL.c.L.+X@X+XL.L.@X XL.L.@X X@X.XL.6.L.@X XL.L.L.L.L.R.+XE.#X#X1X>XQ.T.x.*X*Xf.%X&X|.9.i.z.[ j p d j K ` { ` | +.O.Q ^ Z.{.F.:XD.O.{.( ( ) / / ( X.X.Z.{.o. .F.F.z.J.J.J.L.%XL.E.l.q.#X&X}.].| W [ L j G ` dXoXA.F.I.-XpXmXiXrX3XR.2XHXDXc >XDXGXvXbXLXGXGXAXGXLXPXGXAXZXSXZXZXaXaXsXsXSXtXzXzXbXSXHXSXZXZX-X*X3X*XE.R.E.K.5.q.q.e.=X|.qXY 9 9 9 4 4 9 ^ ( ^ T W O.Y.P.3XrXrX3X3X7XP.pXJ.J.H.w.7X%X@X%XL.L.L.P.P.@X=X*X@Xw.9.&XH.%XL.L.l.L.L.l.f.l.L.y.L S S B Z 8.W.hXkXKXGXvXvXkX4XjX4XhXjXkXkXkXMXMXMXkXkXMXFXFXMXkXkXMXkXvXFXFXvXFXFXDX<XM.W.n.:.v x z i   c.6.6.u.5.l.z.H.K.E.E.P.j.j.j.j.k.<.*.=.p.~.s.&.M v M ;.p.s.s.s.s.s.p.a.m.~.,X6X4X,X#X>X1X#X=X2X=X2X=X=X=X2X2X5X5X5X5X5X2X2X3X8X8X8X8X8X8XrX8X8X8X8X8X8X8XjXjXzXzXzXjXjX5XjXjXzXjXzXjXzXjXzX8XrX5XrXrX5X5X5X5X3X3X3X3X3X2XR.=X2X#X2XE.j.jX5XW.v.q.6.[ _ _ h L v.m.h.h.M.W.W.R.x.K.T.j.3.A ",
"N M c M M <.<.p.h.h.x.x.R.+X#XW.E.R.T.x.K.R.R.K.K.R.E.E.R.L.R.R.~.~.Q.R.L.u.9.q.l.f.p.<.=.Z A D _ k h a A p.m.m.#X>X,X#X#X,X>X>X2X#X#X#X#X#X#X#X#X#X#X>X2X#X#XW.>X#XW.W.#X#XE.T.c.T.L.L.R.R.R.L.L.L.+X+XL.L.L.@X@XL.L.L.@X@X+XL.@X XL.L.L.6.J. X XL. X@X+XE.+X$X#X#X*X#X#XE.K.K.R.E.0.L..XJ.9.i.y._ d t p j K [ ` _ ' o.+.^ ~ +.F.|.qXXXZ.].^ ) ) / ( ( X.~ | O.i.9.J.J.u.l.u.l.q.l.f.x.v.g.Q. Xo.( ' [ 5.L B V K :XOXXX;X%XuXcXyXSXSX*X@XVXDXM.*.jXHXHXHXGXbXzXGXGXGXAXbXGXGXSXZXZXcXaXsXsXsXSXLXHXGXbXbXBXcXrX*XE.=X3X*XK.K.K.5.u.q.] H.9._ , G 9 q 8 4 9 ^ ) ^ 0 3 G W e.P.*X3XrX3X3XwX%XqXY.H.L.e.=X*X%X=X@X@X*X=X=X-X=X*X@Xu.9.&XH.@XE.#XR.E.E.L.l.l.y.6.L 4.=.=.=.4.s.M.lXFXFXMXCXjX,X9X4XFXFXFXMXMXMXMXkXFXFXFXMXMXMXMXFXMXvXMXFXFXFXFXGXFX<XM.h.2.b v c b c + c.8.6.y.q.7.q.l.l.x.K.K.j.T.x.j.p.<.=.<.h.M.<.M b M b ;.M.a.s.s.a.a.s.s.s.h.M.>X,X,X,X,X2X$X2X2X2X2X2X9X9X2X2X3X3X5X5X5X3X2X=X2X3X9X8X9X7X2X2X7X7X8X8X8XzXjXjXjXzXzXzXzXzX5X5X5X5X5X5XjX5X5XrXrX5X8XzX5X5X3X6X6X3X3X3X6X2Xl.#X7X2X2XR.h.5X!.x.0.5.] _ U k j L y.m.m.m.M.m.m.m.T.K.f.1.,.A ",
"M M x y <.7.p.a.a.k.h.j.x.W.+XW.#X#XQ.R.K.R.#X#XR.E.Q.Q.Q.E.Q.Q.T.W.Q.L.H.u.u.u.l.v.h.<.*.S S D 6.f t u m 4.h.a.W.$X$X$X$X#X>X>X2X$X#X#X#X#X#X#X>X#X#X#X#X#X#X#X#X#X#X#X#XE.T.x.c.T.L.L.L.L.L.L. XL.L.+X+X X+X@X+XL.L.+X@X@X+XL.@X@X X X Xq..X Xz.L. X@XL.L.R.@X#X$X@XE.K.x.g.q.L.@Xu.J.J.r.{ { [ k p p h C K _ [ ` ` | o.X.X.O.o.t.oX}.D.].R R R R ^ X.+.o.o.t.i.9.z.u.9.y.9.q.l.l.q.f.0.1.4.L G ! ` [ 1.V a j ` {.{.oXqX;XyXZXyXSXZXl.@XHX#Xx k.GXGXxXGXAXmXLXcXAXZXcXmXGXGXZXLXGXSXSXJXSXSXaX3X3X*XE.E.@X%XE.H.K.E.*XR.K.T.K.e.BXL.q.w.K ` G 3 T q & : R +.+.^ 4 4 G J G.-X3X3XwX3X-XwX;XqXt.H.%Xw.P.3X7X7X-X-X7XrX7X3X3X=X*XH.e.=XL.E.E.3X*X#X#X@XE.c.y.6.5.4.S S ,.*.&.<.M.>XlXkXFXDXkXCXCXFXFXFXFXFXFXFXMXvXvXFXFXFXFXFXDXvXkXkXkXkXjXjXkX>Xj.s.<.M c b c x z . a.<.8.8.,.7.f.v.f.d.f.x.T.j.k.p.<.=.=.<.s.a.<.b b $.z $.N.a.2.2.s.h.h.a.s.p.a.m.M.M.!.W.#X,X2X2X2X2X2X2X2X2X2X2X6X2X5X5X5XzX8X9X9XjX8X8X9XjXxXxXtX8X9X9X8XjXjX5X5X5X5X8XjX5X5X5X5X5X5X8X8X5X8X8X5X5X8X8X5X2X2X2X5X5X5X2X2XE.E.2X2X>XW.M.>Xv.v.f.6.] _ E k C L q.x.M.M.M.h.h.v.v.d.3.,.,.*.",
"c x + . k.p.p.k.p.p.p.a.j.m.W.+XR.Q.E.T.x.K.T.R.K.K.T.T.T.T.T.K.x.E.L.z.u.z.J.z.x.M.h.<.&.=.=.C { * * u u =.j.h.x.+X$X$X$X#X,X,X2X2X$X#X#X$X#X#X#X#X#XW.#X#X#X>X#X#X2X2X2X#XW.R.x.l.c.c.L.L.L.L.@XL.L.L.+X+X@X@X+XL.L.+X@X@X@X X@X XL.L.@Xy. X@Xz.J.L.L.L.l.l.E.#X+XR.l.l.l.e.5.u.J.u.F.u.{ [ k K k k k j j j C ` ` ` ' o.+.+.O.O.G.oX}.}.oXZ.( R R ~ +.O.O.O.t.r.[ y.9.[ 6.5.5.5.6.4.4.4.,.S B j H K K L V B K o.+.Z.}.XXXXwXrXyXSXSXL.#XvX8.m x.HXKXAXAXcXcXAXGXGXLXLXLXPXPXLXZXAXSXGXHXSXZXcXq.w.g.g.g.H.H.H.w.w.K.R.R.E.Q.K.aXIX XP.f J ` Q < q q 4 4 ( +.~ 0 4 3 W ` I.wX7X3XwX3X%X-X-XqXG.H.-Xw.H.7X7XwXwXwXrXwX3X3X3X3X3XH.w.=X@XE.E.3X#X2X#X@X@XL.z.q.q.4.S A A *.Z &.-.;.a.~.FXGXGXGXFXvXCXVXCXbXDXDXbXbXbXvXvXvXjX4X,X8X4X>XW.M.m.j.j.p.<.<.=.M M M c v n z s.s.s.s.8.A 8.m.W.m.j.1.,.<.<.=.=.*.*.*.*.2.<.b n v X @ 2.a.s.2.2.s.a.a.a.s.a.h.a.p.a.h.j.R.+X>X2X5X2X2X2X5X5X5X5X5X5X8X8X8X9X9X9X9X9X9X5X5X2X5X2X5X9X8X8X8XjXjX5X5X5X5X5XjXjX5X5X5XjXjXjX5X8X8X5X8XjX8X5X5X5X5X5X5X5X2X6X*XT.1X2X>X>XM.h.h.x.y.6._ } E k j B ,.f.h.M.M.j.m.k.1.A ,.,.A N ",
"c + +   h.7.p.p.a.p.p.a.j.m.R.W.W.Q.Q.R.R.R.T.x.R.R.T.T.T.T.m.x.L.L.J.9.{ 9.y.y.c.M.a.*.Z S S D k = = u i A f.v.v.+X$X$X$X$X$X$X$X$X#X#X$X#X#X#X#X#X#X#X#X#X>X>X#X>X>X,X>X+XT.x.c.l.c.L.L.L.+X+X@XL.L.+X@X@X+X+X+X+X+X@X@X@X+X+XL.z.l.z. Xy..X X.X.X X XL.l.L.+X+X+XE.L.L.J.u.e.9.t.9.9.9.[ { K _ ` [ _ k h j C K K ` `  .i.D.O.| G.|.O.O.{.Z.R X.~ | o.o. .9.9.{ _ 9.{ ] 6.[ 5.L L 4.,.L ,.L L j K V A ,.S C [ { o.O.{.D.I.-X;X=XrXSXc.c.$Xm =.v.xXGXBXzXtXcXwXpX;X%X-X3X-X3XtXHXHXDXnX1Xx.d.7.g.g.g.f.q.w.w.w.e.w.H.P.P. XP.u.wX:XP 9.= [ W 1 3 q q q R ( ~ 3 T 3 Q ..` F.;XP.7X7X7X%X:X:XqXt.Y.-Xu.w.-X-X3X7X3XrXrX3X3X3X3X3Xg.H.*X*X%XE.=XE.=XE.l.z.L.J.u.q.6.4.,.=.=.=.*.&.v -.s.M.,X,XkXkXDXGXDXbXxXnXjX5X2X>XW.R.W.Q.Q.W.W.M.h.h.p.<.<.<.,.<.<.=.M M M z b n n ;.p.s.s.7.a.a.7.*.*.;.2.s.$.&.*.*.*.*.$.b $.-.b @ v z X b s.s.s.2.2.2.s.s.a.h.h.h.a.s.s.p.p.h.!.>X2X4X4X4X4X2X2X4X5X8XjXnX5X9XjX8X8X8XjXxXjX8X5X2X5X5X6X2X5X5X5X5X8X8X5X5X5X5X5X5X5X8X5X8X5XzXjX5X5XjX8X5X5X6X6X6X6X6X6X2X1XR.8XkX,XW.h.<.p.v.y.] k E E k j m A ,.<.s.h.h.j.7.A Z L ,.N x ",
"=.x x + h.7.p.p.p.p.7.p.k.h.v.x.E.Q.#X#X1X2X1XQ.Q.W.W.W.W.R.R.T.c.l.y.{ [ 6.q.8.M.M.s.S B S S k t = t u u Z 8.h.c.+X$X$X$X$X$X$X@X@X$X$X$X$X$X$XE.#X#X#X#X#X>X>X>X>X#X#X#XE.x.v.L.L.L.L.L.+X@X@X+XL.L.+X@X@X X+X+X@X@X@X@X@X+X+XL.z.l.z. Xy..X X X.XL.L.c.l.c.E.R.E.E.L.L..XJ.t.F.t.9.[ [ K y.] {  .{ _ j h C L j j K K { o.o. .D.&XqX|.O.D.{.Z.~ Q ' ' { 6.6.6.{ _ 6.{ ] { ] ] 6.5.6.L S S V S V L L ,.1.A h j k ' t.D.F. X=X@XE.@X2X0.M.,XZ m 4XVXGXCXzXcXAX3XwX;X;XpXwX*X*X3XQ.Q.Q.x.d.k.h.j.j.j.d.0.0.0.w.w.u.u.F.G. .O.G.F.F.f f J p _ | , 3 9 q ^ ) ( T < G G ~ O. .e.J.J.%X%X7X&XqX:X&Xt.I.:XH.w.3X;X-X-X3X3XrXrXrXrX3X*Xg.E.*X=X3X%X=X@X=XE.z.z.L.L.l.q.4.7.7.,.*.=.=.-.v &.&.-.:.-.M.hXjXzXjX5X1X#XQ.R.1X>X#X1X5X8X5X6Xj.p.<.<.;.*.*.&.&.M M M x b M v v n X n v $.$.:.$.:.-.;.2.<.&.v $.$.$.M M $.#.b z $.v @ v v n n *.<.2.2.<.<.2.2.2.s.h.h.h.a.s.p.p.p.m.M.!.R.M.m.m.m.M.R.W.>X1X2X5XjXnXjX5X4X5XjXjX5X,X>X>X>X,X2X2X3X5X5X8X8X8X8X5X5X5X5X5X5X5X5XjXzXzX5X5XjX5X5X6X2X6X6X6X5X5X5X2X#XjX5Xm.j.h.k.0.8.6._ k E E E V m B N M *.<.<.=.,.1.7.7.3.1.<.",
"p.M M M a.p.k.p.p.7.<.7.p.p.a.h.k.j.x.m.M.W.W.!.x.h.j.h.j.h.j.k.y.6.4.5.6.8.f.v.M.v.8.S S ] } U * t u u c Z 8.v.c.M.+X$X$X$X,X#X@X@X@X$X$X$X$X#XE.#X#X#X#X#X>X>X5X2X>X,X2X2X$X+XL.L.L.L.L.L.@X@XL.L.L.@X@X+X+X+X@X@X@X@X@X+X+X+XL.J.z.L. Xy..X.XJ.z.z.z.l.l.l.L.m.W.L.L.L. X|.i..Xt.r.{ 5.C q.L ] { [ C j V C C h h V K [ ` ` ` ..G.G.t... .O.O.W W ` ` { 6.6.5._ k { { ] [ _ K ] D ] C V L V ,.S L ,.,.S m i t l ` t.|. X*X#X#X2X#X+Xh.+X,X=.Z CXIXIXHXbXrX1XK.w.e.w.H.H.q.0.0.j.j.j.d.d.d.f.j.k.n.k.k.h.x.L.J.i.t.t.o.T T +.D.G._ ` H f f W 3 3 : 9 ) +.^ 3 G G G ` 9.e.5.w.L.H.z.%X@X-X&X Xe.;X-XH.H.uX-XpX;X3X3X5XrXzXrX3XQ.K.3X@X%X-X@X@X@X@X*X@X@X@X@XL.l.7.6.1.,.=.*.*.;.b $.n n z n s.M.h.h.x.x.x.m.x.j.T.R.W.W.T.j.p.<.p.2.*.&.$.M v b v x v x @ v $.v #.#.n n n n n $.$.$.$.$.%.&.%.#.v $.#.v n v v n @ z n z n v v v v $.*.*.*.-.<.2.-.2.s.s.s.s.s.s.a.a.h.h.h.p.s.p.p.p.p.a.h.h.x.m.!.W.>XW.M.m.m.m.p.a.h.h.h.M.<X5X6X6X5X5X5X8X8XjX5X8X8X8X8X8X8X8XzXnXjXjX5XjX5X6X1X1X1X6X6X6X1X>XW.M.W.m.p.a.h.m.f.6.6.] _ E E E V m m A M =.<.<.*.<.f.f.j.h.h.n.",
"p.M M M p.<.a.p.p.7.7.p.a.p.p.a.p.k.k.p.p.a.j.j.j.k.p.p.k.k.k.p.f.4.4.8.f.a.a.a.M.f.4.S ] } } U = t u i c *.8.a.v.v.M.+X+X,X,X>X#X#X#X#X$X@X+X+XW.#X#X#X#X#X>X>X#XW.R.R.#X$X#XE.L.L.c.c.c.L.L.L.c.L.L.@X@X@X+X@X@X@X@X@X@X+X+X XL.J.J.J..X9.z.J.l.l.l.z.z.l.l.l.T.W.R.L. X&X XJ.i.[ 6.6.6.A 7.V k k K C C C V m B B V L P K K ` K J J `  . . .| ` ` [ [ { 5.] L h f _ [ _ ] K C L j L V h C a V m A Z Z Z u u h D ] z..X$X>X~.6X#XW.,XM.p.*.c a.W.HXvXT.j.0.d.E.I.H.H.l.l.K.K.T.d.g.j.j.l.g.d.d.k.n.j.j.j.l.w.e...` o.Z.+.~ ~ ^ W Q - G J ` W 3 3 & 4 ( X.9 3 Q J K [ 5.5.K P l.w.0.L.J. XP.J.9.:X-Xw.H.yX-XwX%X3X3X3X3XrXzX5X*XK.7XK.K.@XK.l.L.K.*X7X*X@X@X@X+Xl.L B =.<.,.=.;.b b z v $.b &.$.M *.<.<.p.h.h.h.p.h.h.h.p.7.p.p.<.:.#.#.$.#.#.#.%.v b #.n n v @ n n #.n #.n $ n n v v v v #.#.v v M $.b v v n z v @ z v @ @ n v v M $.M M $.-.-.2.2.<.<.2.s.s.a.a.a.h.h.a.a.a.a.a.p.p.s.s.p.s.s.p.a.h.h.n.h.h.h.n.M.M.h.a.h.M.,XjX8X5X2X2X5X5X8XzXzXzXzXzXzXzXzXzXnXzXjX5XjX5X6X>X>X>X1X>XQ.T.m.p.<.p.p.j.m.k.p.f.6.5.[ _ k g k h a N =.<.2.p.<.k.k.f.f.f.k.k.h.",
"<.M &.2.s.s.s.p.s.7.<.7.s.h.a.p.p.p.p.p.p.p.p.p.p.7.<.<.p.p.7.,.8.8.s.a.s.s.s.s.8.=.D D _ ' U ; * F u i z :.s.a.p.f.v.m.M.W.>X#X+X+X@X$X$X$X#X#X+X+X#X#X#X#X#XW.R.T.R.+X+XW.m.c.c.c.R.R.L.z.L.+XL.@X@X@X+XL.+X@X@X@X@X@X@X@X@X=XL.L.z. Xz.9.J.J.z.J.z.z.L.L.L.l.W.M.m.W.+X X X Xq.5.L S S ,.,.L ] _ _ ] L V V V A B m V L L K j j J I ` .. .` E H ` 9.[ K j V K K _ _ K k k _ [ ] C h h p t t h a a B B m u u u B 8.v.j.M.m.N.~.M.M.<Xn.z b M <.k.>X#Xg.g.K.T.T.K.P.P.l.g.l.g.0.0.f.q.0.z.y.6.q.7.j.g.q.z.l. ...W ~ X.X.X.+.~ : Y T Q E G W T 1 3 & 4 / q 1 Y W K t I L K 1.P q.q.q.L.L.L.H.q.e.%XwXw.Y.-X-X3X%X%X*X*X3XrX5X*XR.3X*X@X@X%X%X%X%X@X%X*X=X=X#XR.l.f.4.A A *.*.*.*.b b v z n v b $.n v b $.-.2.a.n.s.p.p.s.s.;.&.$.v #.#.#.n n n X X n n X X n n n #.#.#.X X #.v X z v @ . n n X @ v v v x x b b @ @ @ @ @ v v v v M M M N *.M b &.&.*.;.;.;.2.2.s.<.2.2.2.<.<.s.s.s.s.s.s.s.p.s.p.s.s.s.s.a.a.s.s.s.s.s.s.s.s.s.s.h.m.#X5XjXjX5X4X5X5X4X2X>X>X#X#X#X>X<X<X>XW.M.m.n.j.h.h.h.h.h.k.p.a.h.h.h.h.k.p.7.4.L K K K H k B N N *.<.2.<.,.p.j.f.7.x.h.n.$.",
"2.&.&.2.p.p.p.p.7.7.<.<.7.p.p.7.p.p.s.p.p.p.p.p.p.7.7.8.p.p.8.8.8.8.s.s.B.;.-.&.*.S D k E ! 3 > d F u y b ;.s.a.h.f.p.f.m.M.M.M.R.R.+X$X$X#X+XE.#X,X2X2X,X#XW.m.c.c.R.R.L.c.c.c.R.R.+X+X+XR.L.L.@X@X@X@X+X+X@X&XL.L.+X+X@X+X+XL.L. XJ. Xz.y..XJ.J.J.J.z.z.l.l.f.v.x.W.$X$X+Xq.4.L S S S ,.<.<.1.] C C C S V B m m m m A 4.5.5.L ] ] K K H H j f f k K K C j C C d f j h j j C _ k j h d p p a j C V B B a y i . . Z p.a.M.N.s.a.-.:.;.&.. Z p.m.x.v.g.j.K.K.g.g.5.e.w.e.0.0.0.7.5.q.e.q.u.y.9.9.q.w.9.9.t...W W ! T Y G G Q ~ T 3 T ~ ! , G T 3 4 9 9 q 2 % 3 ` j t 5.I K P a L L 5.l.L.E.L.5.L J.-XH.P.yXwXtX-XP.P.E.E.E.E.P.K.*X@XL.K.H.l.l.u.J.L.L.E.E.x.f.8.,.A Z Z *.M x z v v b b $.b z @ z n v b #.b #.$.$.$.$.&.%.v @ X X X X X X X n n n X X X X X X X n X @ #.%.n n $.&.$.$.:.&.n v 2.$.b $.$.x + @ @ x x x @ x x c b + m M N M M A <.&.$.b b $.&.:.&.-.;.;.<.<.;.2.2.<.<.;.;.;.<.2.p.s.s.s.2.2.2.2.2.s.s.s.s.2.2.s.s.7.7.<.7.p.j.m.R.h.h.h.h.h.h.h.h.h.h.h.n.h.h.a.p.k.h.h.h.h.h.h.h.h.j.j.h.h.p.p.7.<.,.L L L K k j a Z =.*.&.*.1.k.m.m.x.x.h.*.-.%.",
"2.*.*.;.<.<.<.<.;.;.<.<.<.<.7.7.<.<.p.p.p.7.7.7.<.8.8.8.4.4.8.8.=.&.:.-.-.-.-.c B D k E E R 9 < k t i y Z =.<.7.k.p.8.p.h.n.M.M.W.+X#X#X#X#X2X2X#X#X,X$X#X+XW.m.x.c.L.L.c.c.L.+Xx.x.l.c.R.+X+X+XL.+X@X@X@X+X+X+X@X@X+X@X@X=X@X@X X.XJ.z.y.y.J.i.z.z.J.L.z.z.l.l.m.m.M.+X+Xc.b.4.S S S =.=.=.<.,.L D B B B m c c c m m A L ,.,.L 5.5.P K K K H k k k j k H K K K K K K K K K K K j k j h p d f d j d p a a u i + z v z X @ #.>.2.;.:.&.v z c a.v.l.4.,.1.3.1.5.0.P L [ 5.L V V L ] L [ 6.[ { { ` W G T X.X.Q ! T Q T Y G G E ` | T 9 T Y G T T 1 & / ( ^ : % ; > p i L P V L a j B B 5.l.E.@Xf.7.K. XI I u.u.J.u.P.P.H.g.0.5.0.0.L A B a j h a p t t s m Z A A Z A c y c Z &.b b v x z z x v v v $.$.#.v #.$.&.&.:.&.#.v n z n n n n n n n n n n #.n n #.n X . X X X n v $.-.p.s.a.n.h.s.s.M.W.M.M.!.<X4X<X>X>XM.h.j.j.j.x.M.W.>XR.T.f.<.,.A x . M M b b $.&.&.-.&.*.*.-.;.<.;.-.2.2.;.;.;.;.;.;.2.s.s.s.2.2.s.s.a.a.a.s.s.s.2.p.s.p.p.<.<.<.p.p.p.7.p.p.s.p.p.p.h.h.n.n.n.m.n.n.n.n.h.h.h.h.h.h.h.h.j.h.p.<.<.<.A A A A A B a a m A *.&.N *.k.W.R.T.m.x.h.v %.%.",
"-.M $.-.*.-.<.;.=.;.<.7.7.7.7.<.s.s.s.s.s.p.p.p.=.=.S A V V S S S B b Z $.:.=.Z h f G Q ( ( R ! k d t B A A Z A S 4.f.v.h.s.s.a.j.x.W.#X,X,X2X2X+X+XE.R.m.T.E.+Xz.L..XL.L.+X@X$X$X$XE.T.R.R.W.T.c.L.L.+XL.L.L.+X+X+XL.L. X@X@X@X X XL.z.y.u.z.9.u.u.J.J.l.y.l.z.6.6.4.4.4.*.S *.*.*.=.=.=.=.=.,.] D h h m c x x x c m m m m m m a B B h j j k f H H g k H _ _ H H k k k H k j d f k k f f j j f f > d d h m m c x z X . . @ @ @ n n z y c i 8.6.q.6.9.P s j [ P J j H ` K j f V K j k _ _ ` { g 3 : ^ Z.) +.Z.+.( ~ T G , - , G ^ q 9 T T T 3 2 % ) ].( T 1 ; = = t K j p j f f f a K L q.K.g.f.L.J.I K 5.e.J.J.e.5.P V s a s j B B h h j k k k C D B m m M M &.b b M c z . z b x z z z x M *.;.&.$.v v v v b $.n z @ . . . . @ n v #.#.#.#.#.#.#.:.s.a.s.2.s.N.W.6XhXhX4X,X>XW.R.k.#XGXGXvXkXvXbXVXbXjXjXVXVX5XbXbXvXzX8X5X8X8XBXxX2X#XE.R.8.@ + z x x n z z n x M M M &.*.:.&.&.&.-.;.;.:.:.-.&.&.-.-.-.-.-.;.s.a.n.n.N.a.s.s.p.p.p.p.s.p.<.=.2.2.2.p.s.p.s.s.a.a.a.a.h.h.h.h.n.h.h.a.s.s.s.p.7.8.p.8.<.,.,.<.=.,.<.1.,.A A Z N M N &.*.2.m.Q.T.j.p.,.<.b %.@ ",
"b b &.;.-.-.;.*.-.;.;.8.p.p.s.8.s.2.;.;.=.=.=.=.=.S B F u h h h S C D c z c S D d > 3 ( +.X.^ Q ` H H ] ] h t s V L q.l.f.p.s.a.p.j.>X4X8X9X,X$X$X$X+X+XR.R.+X+X+X X.Xz..X$X$X+X+Xc.v.f.v.x.m.m.+XL.z.l.l.z.L.+X+X@X@X@XE.L.@X@X X.X.XJ.u.J.J.i.r.y.u.y.9.5.4.5.5.6.q.f.8.=.=.B.Z *.=.=.S S 4.4.S V B c m c x c c c m m c u m m m B B h a h h d k k G G G G G J f d f f J k f p - f f f f H K H f g G f h s m M v v v v x x + . . z c c A i L ] j K 9. .f f G f G , f _ ..` _ [ _ j K { { r.{ g 1 9 ) +.R / ) R +.+.( R G 1 ; Y 8 q ^ ^ 3 1 : : & ) ^ 4 3 < , - - * f d * > > - f p h t a ,.=.,.V K j j K V K f j a p p p p s a u t t t * t * t h h a u z n v v &.$.b &.-.-.;.8.. + M *.*.M M *.x b -.;.-.b .   . . z b &.-.2.s.;.<.s.a.M.M.M.M.M.M.M.h.n.~.lXvXvX~.h.h.p.<.j.2X9XxXvX>Xj.#XvXvXxXxXjX>Xm.#XbXHXAXVXbXcXcXtX7X3X3X7X8X=X+X#XT.8.x z . z n n z . + x c x x c c v @ X z n n n n v $.$.$.&.:.-.:.&.;.;.s.s.s.s.s.s.2.2.2.p.s.s.s.a.2.p.s.s.s.s.s.s.2.2.2.<.<.2.2.p.2.2.<.<.<.<.2.7.=.,.,.<.,.=.,.<.=.=.=.=.*.N N N A N N %.<.2.h.j.j.7.,.A -.@ @ . ",
"z v &.;.;.;.;.*.-.-.;.<.p.p.7.<.-.:.&.M M M Z Z 4.S D B h h h d U U C F i u C _ , 1 4 ( +.X.^ Q | Q ` { _ d t p ] K ] q.f.f.p.p.h.j.W.#X#X+X+X+X+X+X+X+X$X$X@X+X X.Xz.y.z.L.z.y.8.4.4.8.8.f.v.x.v.l.y.y.y.q.f.q.L.+X&X@XL.z.l.z.u.q.J.u.r.z.i.y.{ [ 6.6.5.L L 5.{ { 6.q.4.S =.;.&.=.*.S A V S ] h u u c m c c M c M M M m m B A S S V a u h k k f g G G G G G G G j f G H H G f p f f s s j J G , 3 G f p t u m *.b v x i m C B B S A D D t d _ g , G ` W G G G Q 3 3 Q o. .'  ._ K _ 9.i.r.[ d % Y X.( 9 9 9 & 4 / ) +.].^ 9 ^ 8 5 q R 3 1 : & 4 R 8 & 1 ; ; % % = > g > ; 1 ; - - d = i a x m V V K K V s p = p p p p f f p p t t t t * * * * * t u c b $.#.#.X n v z . . v 8.p.n.W.#XW.M.x.h.p.=.x . . c <.p.M.M.h.p.p.p.p.p.m.M.!.W.W.!.M.m.M.W.>X4XkXCXkX>X5X5X5XnXzX8XzXcXBX9XrXxX*Xf.x.>XjXf.,.g.1X7X8XrXtXtXyXcXAXSXZXcX7X=X=X@Xl.L.x.=.=.c . z ;.s.;.b c m m c c c x z -.$.v v #.n #.#.v v v &.;.;.2.;.;.;.;.-.:.-.;.2.2.2.2.2.2.s.s.a.2.2.s.s.a.s.s.s.s.p.p.2.2.2.2.2.<.<.<.<.<.<.<.<.=.S S =.=.*.*.*.$.$.$.$.%.$.$.M M &.*.*.*.*.<.1.1.=.,.7.2.. X . ",
"@ v &.;.;.;.;.*.*.=.;.;.;.;.=.;.;.;.;.;.;.=.=.=.=.,.] S C D h f > < U g p k } ' < : 8 / ( ^ Q ~ ~ Q E E g f p f _ k j ] q.0.7.p.p.p.s.p.<.8.8.f.f.f.f.l.L.+XL.z.y.y.6.] [ 6.6.4.6.0.f.f.a.a.p.8.4.6.q.q.l.y.q.6.6.q.y.q.6.5.4.] ] K 9.9.[ { ] [ [ _ ] 6.6.5.6.y.i.t.6.5.] S =.B.Z Z Z B h h h h u u B B m c b M b c M M m m m u u u u i i t d f f g G Y T G 3 G G J J f f f f s f f s s f f J H G 3 G G f a B A M c M B a k E g t u u h h d * E ' E 3 Y ~ X.o.+.) R 9 R Q | ' ' ` _ K _ 6.] j d - `  .| Q T 4 & % 7 e ).'.e 7 r e 8 : 9 9 4 : & 4 8 4 4 1 % ; % 2 2 1 < 1 2 1 1 > > k p t B m m a p h h p p p d = = = = = = = = = = = = = = * * t u u u z X X X n   o X a.<X6X+X,X>X#XW.W.R.R.R.Q.W.W.>X5XkXvXvXvXvXjX8XjXVXGXHXGXGXGXDXVXxX8X5XxX9X1X2XxXHXPXPXbXGXGXxXcXAXAXrXtXxXrX3XrXBXBXcX8X9XcXSXrX*XrXAXBXcXcXcXcXcXyXyXZX7X7X7X@X#XL.S c y y M p.a.s.=.Z A A A *.=.&.c n . . X @ X X X @ + z z v b &.:.-.-.:.&.M b $.&.$.%.*.-.-.*.%.$.%.-.-.;.2.<.-.-.;.<.<.<.2.<.;.;.2.2.2.2.;.-.*.&.A V B m Z Z N M %.%.%.-.<.2.<.-.$.&.*.%.N N N N ,.A ,.<.2.@ n n ",
"@ v &.;.*.-.;.*.&.*.=.=.*.Z Z A *.*.=.=.,.S S D D _ { { _ k f d 1 < ! E g E ' Q 9 8 0 / ^ T T X.( R 3 < , f G H f f k ` [ L L 4.,.7.a.a.p.8.,.,.4.,.S 4.8.8.8.4.S ] S D V S S A y M <.a.f.f.s.s.q.7.4.6.q.l.L. Xq.q.6.5.] 5.5.6.K f 6.6._ K j K 6.] ] 5.6.5.6.q.] C h h h u u y c u u u u a d d a B V A B u m Z c c m m x i O   i u a u t d d d f f G G G G 3 , G J J J J J J J > ; - , J J ` o.X.| | ` _ K K L A m j f - g Q E k k g k g g % Y 1 R 9 & 9 ( ( R R 0 9 9 T Q ' ' } { C h k h t h p H H H W < % & q '.'.).'.`.r ).) 0 q q & 2 & & & & & 9 & 2 T Y Q 9 : 9 & % 2 1 T ! W f p V a a C h V j t = = = = * - * = = * - t t t * * * * * t t i i . X @ n $.s.W.4X4X,X4XjXkX5X>X#X1X2X1X#XrXrXzXvXVXAXBXcXbXVXDXGXHXHXGXBXBXBXAXAXAXAXBXBXvXcXGXHXHXBXxXcXAXbXbXbXcXcXyXyX7XtXtXyXcX3X-XtXrXrXtXwX7XcXcX3XrXyXyXyXyXyXiXZXBXtXAXBXL.w.5.s + u ,.7.7.8.,.,.A S A S 4.0.=.c c z c ;.s.s.;.;.Z Z b x + + z x z x b b b b b b M M M $.$.$.%.&.&.&.-.-.-.-.:.:.-.-.2.2.2.2.2.<.;.;.;.;.*.Z M c B u y u m M c x v v v %.-.-.%.%.*.M v v v N v x *.,.*.c $.v :.@ ",
"@ $.-.-.$.M =.,.A ,.,.L L A V a j j V H K ` ` ` W G G E W G g g < Y ~ Q < Y X.Q 9 R R Q T < Y Q R 9 R 1 2 3 1 ; ; - f H _ H k h ,.=.Z A ,.m i u   y.4.S f.m.>Xs.y i u F B A A *.&.$.$.&.;.8.4.4.7.7.7.q.e.q.9.9.i.{ _ H H 9.9.p h k _ ] _ K C k C _ C V ] 6.5.L B u i i i i i i i S u u a p h t j K P ` f _ j t + m + x A a P  X@Xz.l.J.J...K ` W G J H H J f J J H H G J W | | | ! 1 3 ~ Q ^ Q ~ T T 3 Q T ' W ! ! g G G 1 4 T < < < < : : 4 9 8 0 q : : 0 / / 4 & : & 1 T ' '  .k t t * d U U > Y < 1 ! < 2 9 ) ).`.`.`.`.`.e '.8 & q e r q e e ) r 7 7 q ) +.+./ 9 & % % & 9 T < ! , ; - = * t t t t t = = * * = = * = - d = * p * = = = = ; g * = i x &.~.MXbXPXAX^.g.3.cXZXBXcXcXAXHXHXGXAXSXSXAXAXZXZXmXmXmXmXmXbXcXcXtXtXBXyXcXcXxXcXZXBXtXcXcXcXcXcXcXtXcXyXcXcXcXyXtXuXyXuXyXyXyXyXyXuXuXuXuXuXuXuXuXeXeXeXiXiXiXeXeXeXcXSXwXrXJXwXK s [ u.H.&XP.;XK.I [ s e.K ] y.] = u L q.8.4.4.L V S L 4.4.8.8.,.Z Z Z Z m m N M c u Z *.N b $.$.$.v b b b &.:.:.:.:.>.:.-.:.-.-.<.*.=.=.m a a h a A A B c c x v v $.@ . @ $.-.-.*.;.*.&.$.$.$.M M x x b b b v v v ",
"%.%.*.M N N A A ,.] ] L K L L K f f G J W ! Q ~ X.~ ~ Q Y 3 3 Y < 9 @.R < 9 R T T T T 9 < 1 < 9 ( : 4 4 & : < ! Y , % % % ; > d = i i i t = = t h t   i c . . y z c b c m B N c &.M v v c c u u m y t a V j H ` W f * = d _ [ k = d k k j d p * = p a h K C a i V c c c c u i u a m i h C a V K j P ` O.| O.| [ w.SXLXHXGXZXsXSXJXZXuXqXXXt.` W W J W ` I J K [ r.o.O.t.G.{.{.}.+.X.3 9 ^ R ( Z.{.+.{.Z.R 2 : < : 9 ^ T 9 3 & : 9 R ( ( 0 q / +.) ) ) ) ) '.].].].) R R 4 9 9 E _ *   * k U U ! 9 9 6 < < : : ) ) '.'.`.).).).e r 7 8 ) [.'.r r 7 e e e 7 5 q 0 R 0 : 2 2 & : 1 < < Y Q G | > * = h i   = p =   = * d = = O = = = = * = % = ; = > k h 6.2XDXGXvXcXpXI.-XyXpXSXSXGXSXSXSXGXSXAXcXAXZXmXmXmXyXyXyXyXyXyXyXyXyXyXyXcXtXcXcXtXtXbXcXcXSXSX7X3XbXmXwXyXyXyXyXyXyXyXyXiXiXiXiXiXiXiXeXeXuXuXuXeXeXeXeXqXeXeXiXiXiXiXiX-XmXcXpXwXyX&X; I e.t.I.XX%XeXwX;X..t.e.` j f K q.y.z.z.l.u.u.u.z.y.q.q.l.L.z.q.A V B A 4.0.,.m y i i x b v v v b c c c n v #.#.#.:.:.%.%.$.M %.M M u u a j j h A A Z Z Z &.-.-.$.v z z b &.&.&.&.&.:.-.;.;.<.;.;.-.:.&.&.&.:.:.",
"1.1.<.1.4.5.5.] [ [ [ K K K H H [ ` ' | Q G G T ~ ~ ^ T 3 1 3 R R R ( / q R R 9 Q R R R T 9 9 T ^ q q : & 9 R R Y 3 > ; > > > ; = = t * * d f = t D ] h c Z y z z c c u i a a i y i i y a h h h t t t p p * H o.X.E > - H W _ _ f _ { _ f - * - * d k K [ C p t i i y m A A A A L V t h j = p s i P e.|.XXXX|.qX%XSXyX&X&XoXXX|.&X:XqXuXdXqXqXfXoXoXfXqXoXXX:XdXdXqXoX:XoXoX}.{.{.{.Z.}.}.Z.Z.{.}.D.D.fX}.oX}.{.X.| X.3 , ^ ^ O.X.X.+.Z.Z.Z.].].) ( / ) ].].].].) ) e '.w ) ( ( Y g d E } U < X.X.Q Q Q 1 & 0 '.'.`.e 7 7 7 w / & 5 q ) ].'.) / r w q 8 2 & / / : 4 : : 9 ^ T 1 ; 1 T G G G =       O h ] V = = = p d = * = - d * = - * % 2 , ; - H [ @XCXxXvXGXeXmXeXLXPXSXyXP.rXrXyXBXSXJXGXGXmXmXmXmXyXyXyXtXuXuXuXyXyXyXcXcXyXyXmXZXyXyXcXyXuXwXwXrXrXrXyXcXyXyXyXyXyXyXiXiXyXyXiXiXiXiXiXuXeXuXuXuXeXuXeXeXpXeXeXeXiXiXiXiXyXuXcXyXyXZXLXs F.F.e...XX XpXpX;XI.t.[ [ [ K K ] ] q.J. XJ.z.J.J.L.J.y.5.6.6.q.5.6.6.L V V V S 5.V m Z N c z z y i i i z $ n #.:.$.n @ $.%.$.M Z m m m B j f j a B A =.=.Z c z x x v v b $.*.=.:.*.*.*.&.M b b &.&.Z &.&.;.<.<.",
"m V L 5.5.6.[ K ` { .. .o.| ` W W W | O. .Q Q +.~ ( ( ^ T T ~ X./ ( ( / R R R 9 T R R Q Q R T R q R ^ 8 4 ( +.( ( ~ Q 3 < , G Y > = - g G E g % * p h h t i i b c x y i y t p a p p a j j k l > d a p * = ; g E o.Q < g ' G > f g E E f ; = * - - d f k K f * h B m m B B m a a t j t = p f j j K P.%XqXqXoX|.:XaXsX0X:XqXoX{.D.{.|.XXXX}.}.{.{.OXOXoX}.}.{.}.oXdXoXXXqXqXoX}.}.OX}.Z.].].~ +.{.Z.Z.Z.O.qXdXqXO.O.| Q J W o.O.| Z.O.X.O.Z.{.Z.( ( q 9 R ^ ^ ( ) ) '.'.'.e '.) R < Q ' ' ' , 2 Q +.~ +.X.& & / e e r 7 7 q ) C.+.Z.].{.].) / ) ) ].8 % & q / R O % % 1 9 ~ O.Q , % ; Q W G. .F.|.9. XJ.] q.&X%Xu.9.f p = d = * O * * = = = = > E t.|.z.&XAXtXrXAXSXSX-XpX%XpXyXmXwXwXwXtXyXcXcXmXyXyXcXcXmXmXmXmXyXyXyXyXyXyXyXyXyXyXcXcXyXcXyXwX-XE.%XrXyXwXwXZXyXyXyXyXyXyXyXyXyXyXuXuXeXeXeXuXyXuXuXuXuXuXeXeXeXeXeXeXeXeXeXyXSXuXyXmXSXSXIXP H.;XP.Y.;XXXXXXX;X-XJ.[ I. XJ.l.l.y.q.6.y.z.=X7X7XaXaX7X@Xz.z.L.:X Xy.q.z. XL.u.5.I L L =.A A *.c i i c z X X v z v @ @ x v @ x c m A ,.L C [ u.@X=X9X9X5X#Xm.h.a.p.p.<.M x @ + + z x x x x c M + z x c c x x x ",
"5.u.L.L.J.i.t. .W Q | o.O.O.| ' Q `  .D.O.Q T ~ ~ ( ~ ^ R R ~ ( ( ( ^ R R R T 9 ^ X.+.X.~ Q ~ ~ +.( ^ ( R R ( ( T T 3 1 1 1 1 2 2 % 2 Y Y Y < ; > g d [ 5.a m . b x i m h - - f > > > > , , < < E k - = ; g , 2 X.Q < G Q g ; , > > > ; ; - > > * d d k k d - j A Z V V V m B V s f f p j H H K w.wXwX:X&XXXG.|.I.|.F.XXXXO.Z.Z.Z.D.{.D.Z.{.}.}.}.].{.{.].D.{.}.}.D.D.XXoX}.{.D.{.{.+.Z.Z.~ X.Z.{.oXdX| LXqXdXXX` J , `  .O.F...t.D.D.O.O.X.| ~ | T T ~ ~ ^ ~ Z.].[.'.[./ ) ) R < ' ' E o.! : Y X.Q +.R & 0 '.e r e e ) ) +.O...+.].].Z.( ^ ^ ^ T 3 T +.~ X.D.| G 3 Q Z.{.D.D.D.XX|.G.F.I. .t. XaXJXBX%XP.&X&X XI.= = t = = d = = * = = d = = r.XXSXaX7XZXJXSXZXyX-X^.ZXZXyXwXyXyXyXyXyXuXyXuXyXyXyXiXiXmXmXmXmXiXyXyXuXuXuXuXuXyXwXuXyXuXyXyX-X;X-XwXwXuXyXyXuXiXyXyXyXyXyXuXuXuXuXuXeXuXuXuXuXuXuXuXeXeXuXeXeXuXuXuXeXuXeXuXuXuXZXyXwXZXSXIXf.O P.%XP.H.F.XX0X0X:XXX[ P.l.@X7X+X=X7X@Xl.q.4.S L L 5.y.z.J.l.q.6.l.L.l.6.5.q.u.J.&X7X#XT.m.x.f.,.A B m x . z &.s.M.<X<X~.M.m.W.2X2X2X=X@X@X7XBXHXHXHXHXHXHXHXHXKXHXGXbXjX>Xm.j.p.p.p.p.p.k.x.T.W.>X2X>XR.j.k.k.",
"wXaXSXaX:XoXXXXXi.O.o.o.o.| ~ Q O.t.t.D. .T 3 3 Y T T T R ^ ^ ^ ( ( ^ R ^ ^ R ^ Z.D.D.O.| | | | Q R 3 < : < Q Y +.( ~ ~ +.D.+.T Y < T X.~ Y T Q ; E H t.9.K q.V y + i h j > , G G < , 1 1 1 1 : G ` W g , < Y Y ].~ < G Y , > g , g g , , g d - - f k E _ E k K B B V A L L I 5.L j J H H f p [ H.wX-X X|.&X|.I.XXXX|.|.{.{.}.}.OXOX}.{.].].].].].].Z.Z.].{.{.{.OX{.D.{.XX|.A.o.O.{.D.}.oX{.{.D.D.XXXXD.sXXX|.:XH J J G.XX:XyX-XXXXX|.G.D.D.O.~ O.O.A.{.{.D.D.{.].].].OXOXZ.Z.! g  . .` W Y < 9 T T Y 4 4 ) [.'.C.'.].Z.Z.G. XXXoX}.}.}.}.fXoX}.}.Z.A.oXdXsXLXeX}.D.G.XXoX|.XXqXLXJXXXsXuXaX-XZXLXJXHXPXLX-X%XZX%Xs = j O = h k l } D C [ j K &XwXJXaXwXwXuXsXZXSXmXuXZXZXmXyXmXuXuXyXyXiXmXZXZXiXyXiXyXyXyXyXyXyXuXuXuXwXwXuXuXyXyXyXyXyXiXiX0XuXuXeXuXyXyXiXmXiXyXyXyXuXuXuXuXyXuXuXuXuXuXuXuXeXeXeXuXuXeXuXeXeXeXeXeXeXeXeXiXwXZXyXwXmX3XGX2Xo f.P.P...G.I.XXXXXX|.J u.@XL.#X@X9XxX9X9X8XvXtXtX7X:X=X@XL.u.q.] ] ] 6.J.&X&X.X XtXBX7XQ.T.j.7.7.S m i i z -.h.M.#X>X5XVXDXVXDXHXCX7X=X=X:XtXBXSXSXAXVXAXGXHXHXDXDXGXGXGXGXVXCXGXVXvX8X5X2X5X5XxXvXVXvX8X2X5X8X",
"yXBXaXuXqX&XoXXXqXoXF.+.O.| | | ` .. .o. .| ~ ~ ^ X.X.X.+.Z.Z.Z.+.Z.+.O.Z.O.O.A.D.{.|.D.D.t.O. .| {.O.o.i.oXdXXX{.O.Q T | D.{.{.{.{.D.{.{.+.~ ~ O.W W F...k .XZX,.,.V p - , 3 3 ~ ~ Q Y < 2 % % 2 g ' ! > 2 < X.O.! < > ; ; > > , g , > - > d d f H _ _ { { ` [ q.q.d.g.0.1.P L K p J J J J G F.&XwX=X%X.X&X|.i. X&XoXXX|.|.oXD.|.{.D.D.Z.Z.Z.Z.Z.Z.Z.Z.{.{.{.{.F.F.D.|.XXoXXX|.|.oXF.D.G.|.XXXXXX:XG.&XXXXX .t.s j :XZXSXPXJXZXuXqX;XXX0XqXXXG.XX|.XXXXoXoXXXXXoXoXoXoXdX{.{.d p K 6.[ f = ; < 9 q 4 4 +.}.[.OX].[.}.}.0XZXLXIXLXdXqXqXqXdXqXqXsXsXLXLXLXJXSXsXLXsXsXJXSXsXSXLXsXSXU.pXyXZXuXZXBXSXZXtXrXuXyXZXSX-Xe.9.p = O t = = i =   i 5.*XIXZX;XwXsXwXuXyXuXZXZXpXwXyXZXmXmXiXyXiXmXiXyXuXiXiXyXyXyXyXyXyXyXuXeXeXwXwXeXeXyXiXmXiXeXiXiXuXiXwXpXiXiXuXeXZXyXuXuXuXuXuXuXuXuXuXuXuXuXuXeXeXuXuXuXuXeXeXeXwXeXeXeXeXuXiXiXiXiXiXuXmXcX*X5X5X+ f.E.P.Y.I.XXXXI.I.J.K e.SXE.E.2XxXVXVXCXxX5X*X7X9X8X8X7X=X:XtXtXtX:X Xz.u.q.9.L 9.w.q.d.g.d.5.4.L B i + c p.M.M.x.v.#XGXPXHXGXBXxX7X7XwXBXZXZXtXyXcXBXBXBXcXxXbXcXbXbXbXBXAXAXBXBXcXxXxXxXzXrX8XrXxXtXzXxXBXAX",
"ZXZXBXZXSXSXaXqXoX|.t.O. .| ` ` .. . . .| o.O.O.+.D.{.Z.Z.Z.Z.Z.O.D.D.D.|.D.t.F.|.oXqXqXqXqX&XJ.|.{.t.{.{.F.|. .D.{.{.D.G.G.|.|.XXXXG.D.XX{.| G g W i.| G  .F.z.=X#Xq.p % 1 3 : 2 < T | ~ T < 1 > 2 > Y G > < | +.G , g > > H k f g d - * j _ 6.[ y.9.9.i.z.u.l.K.R.@X*XE.l.e.5.[ ` ..f > J J t.%X%X@X:X:XtX-X.X.X:XuXqXI.F.&X:X:XXX|.|.{.{.D.D.D.D.D.D.G.G.G.D.F.G.G.F.XX&XXX|. XqX0X&XXXXX XI.XXXX&X X XI.I.[ P P HXBXwXPXZXJXyXiXsXiXiXsXsXsXsXuXqXqXqXqXqXqX&XuXqXD.XX XwXj L K ] 9.` g G T 0 0 4 ^ OXoX{.oXfX}.}.oXsXLXGXZXSXsXsXJXLXLXLXLXLXLXSXZXsXuXZXLXiXiXsXsXiXwXuXsXyXZXwXI.mX-XmXuXyXZXBXBXZXZXyXuXZXSXJ.H.5.[ O t i + u u   1.BXPXSXZXmXSXiXwXiXiXZXuXZXyXSXyXyXyXyXyXyXiXmXmXmXiXyXyXyXyXyXiXiXmXiXyXuXeXeXeXeXeXeXyXiXyXpXeXiXeX0XeXiXeXeXeXeX-XuXuXuXuXeXuXuXuXeXeXeXeXeXeXeXwXuXuXuXuXeXwXwXwXeXeXeXeXuXuXiXiXeXuXeXpX3XzXnX1X  ,.E.K.w.e.XXXXXXe.[ ] B 7X7.9XvXxXxXbXvXxXxXbXCXxX8XtXxXxXxXBXAXBXtX7XtX7X Xq. XJ.g.l.E.*X3X2Xl.q.5.a i m <.h.p.x.$XvXHXHXVXBXxXVXSXBXrXwX7X=XwX7X3X3X3X3X7XwXrXrXrX3X=X3X7XtXcXxXcXBXAXBXxXrXcXcXxXxXxXcXcXcX",
"cXBXBXBXBXaXaXuX:X X X X.Xt.5.9. .`  . .O.G.O.+.O.D.{.+.+.+.D.G.D.F.|.XXXXXX X X&XuXyXwX7XwXuX7X:X.XJ.&X7X:XF.9.F.J.XX&X&XXX|.I.I.F. XI.XXXX` G J H {.` >  . .` 0.@X XF.D.1 O < 1 2 , G ` t.- > = ; f ` | ` Q | | | ' _ J H `  . .` j * h 5.l.z.z.z.z.l.l.l.J. X@XE.E.E.E.P.P.P.w.[ t...J = |  .@XL.@X-X3X7XrXwX=X-X7X7X7X7XrXrXwX&XI.I.I.F.G.G.D.G.G.G.F.|.|.I.H.P. X-XyXwX-XuXuXwXwXwXwXwX-X:X&X&X;X&X:XuX;XI j ZXLXyXAXSXcXyXyXyXyXyXiXsXiXeX:X0XqXuXuXpX:XwXwXwXwXwXwXwX:XP.H.P 5.i.W o.T 0 & ) 5 4 OXXXXXqXLXsXiXsXiXyXmXyXSXsXsXZXZXyXwXwXyXmXSXSXZXuXuXSXyXiXiXiXiXyXyXyXmXmXuXwXwXtXyXuXtXyXyXyXcXcXmXZXSXZXyX X0.5.= t y z i c   >XHXPXLXmXcXmXSXmXeXuXyXyXyXyXyXyXyXyXyXyXyXyXiXiXeXeXiXyXyXyXyXyXiXiXiXiXuXuXeXeXeXuXeXeXwXeXiXuXpXeXiXeXeXiXiXiXeXeXuXuXuXuXuXuXuXyXuXuXuXuXuXuXeXeXyXwXuXuX0XuXiXeXuXeXeXeXeXeXeXiXiX0XY.pXSXbXPXKX  j.T.l.u.[ t.t. .e.K P K z.$X9XjXkXxXvXbXbXnX8XxXxXxXjXjXxXxXxXVXBXxXxXCXxX7X@X*X=X7X8XrXtXtXyX7XP.K K u u h.h.f.@Xv.xXHXBXtXBXcXcXcXcXcXcXyXtXrXyXyXyXyXyXyXBXBXcXcXcXyXyXtXrXtXtXtXtXtXtXtXtXcXcXcXcXbXbXbXbX",
"xXbXbXcXcXBXyXtX=X@XP.P.@XE.z.e.[ ` t.t.G.D.o.o.+.O.O.O.o.O.D.|.F.P.%X&X=X-X7XwXK.L.E.*X3X3X7X8X=X=X&X=X7X&X X Xl.J.P.@X;X;X%X%X@XP.*X%X&X-Xu. .H j i.| g o.o.r.u.u.9.t.D.+.3 % ; ; - p s f K [ F.|.I.` G _  ... .` ` ..u.J.I.J.r.u.9.5.5.l.L.L.E.@X@X+XL.L.@X@X@XE.E.E.E.E.P.L.u.e.e. .J f t.F.L.J.E.=X2X3X3X2X*X3X7X8X8X8XjX8XrX=X*X-X-X=X%X%X%X-X:XwX7X-X-X;X;X;X;XwXZXyXwXwXwXwXwXwXrXcXZXSX-X:XyXsXSXSX-Xw.%XLXPXyXbXAXcXcXZXmXmXiXZXZXsXuXpXpXqXuXwXwX3XwXtXrXrXwX-XwX-XP.%X[ J H 3 X.^ ) q 7 q 4 |.0XZXIXLXmXyXmXyXiXZXSXaXyXyXyXmXyXyXyXyXyXyXuXpX;X-XuXiXiXiXiXyXyXyXyXpX3XwXwXeXyXyXrXtXyXyXyXyXyXcXmXrXyXSXZXyX@X7X  $ z $ z . 4XPXPXAXzXpXcXmXiXiXmXiXyXyXyXyXyXyXyXyXyXuXyXiXiXeXeXiXiXyXyXyXyXyXyXiXiXiXyXuXeXeXeXeXeXeXiXiXiXeXeXeXeXeXiXiXeXeXiXuXuXuXuXuXuXeXuXuXuXeXeXeXeXeXuXwXwXuXwXwXuXyXeXuXuXuXuXuXiXiXiXsXuXpXyXcXzXbXGX  p.x.g.u.e. .t.u.P p I 5.#X7XvXjXjX5X8XjXnXnXnXjXjXjXjXjXjXjX8XxXvXCXxXjXjXxXxX8XtXtXtXxXxXcXyXtX-X=Xt i c j.p.7.l.v.VXHXBXxXBXcXyXtXtXxXcXcXcXZXZXBXcXBXcXyXyXZXBXyXcXyXyXtXrXrXrXtXcXcXcXtXtXcXyXcXcXcXcXcXtX",
"nXNXbXbXbXbXcXrX-XwXrX=XE.R.T.K.9...t.t.t.G. .o.D.O.o.O.t.t.F.XXwXrX7X2X#XE.E.@X3X#XE.*X2X1X*X2X#X2X=X$X#X#X#X=X*X*X*X*X*X=X=X2X2X*X6X*X2X3X@XL.9.K F.t.`  .{ t.u.5.e. .W O.o.% = = p = O i l.H.e.J.G. .u.&X&XG.I.I. X XP.P.I.I.J.L. XL.z.L.E.E.#X#X#X#X@XE.@X@X@XE.E.E.E.P.P.H.u.e.9.[ j f F.J.J.z.E.2X2X2X2X#X#X*X2X5X6X4X6X6X*XE.E.*X3X2X*X*XL.*XrXtXrXrXrX7XZXwX3XtXyXrX3XE.wXwX3XwXrXcXbXZXBXyXSXyXZXZX%XE.cXGXSXrXtXbXbXmXmXmXmXyXmXZXyXwXwXpXwXwXwX7X7XwXtXrXwX:X-X:X-X XI J H ~ T / 0 ) '.& 0 Q uXGXLXPXGXbXcXyXwXwXuXyXcXyXcXcXZXbXbXZXmXcXyXyXeXwXuXZXyXyXyXyXyXyXyXyX3X3XrXrXtXcXcXtXrXyXcXcXcXcXmXmXtXLX*XGXtXtXAXf.X n X @ + 6XKXGXmXNXeXmXmXiXyXmXmXyXyXyXyXyXiXiXiXyXiXiXeXeXeXeXiXiXiXiXeXiXuXuXiXiXmXiXuXeXeXeXeXiXiXiXZXiXeXiXuXuXeXiXiXiXiXiXiXiXiXiXuXiXyXuXyXuXuXuXuXuXeXwX-XwXwX-X0X0X;X-X0XwXuXeXuXiXiXeXeXeXZXmXbXAXAXHX+ *.d.7.e.u.9.|.H.P p e.5.=X8XxXCXvXxXjXzXnXnXvXjXkXkXkXkXkXjXjX5X8XjXjX9X5X8X8XxXxXxXxXxXrXtXyXrXyXSXi i M p.<.8.f.x.GXGXtXcXcXcXyXtXrXtXcXcXcXZXyXyXuXyXyXyXuXwXwXwXwXpX-X-X-XwXrXrXyXyXcXyXtXyXyXyXyXyXrXrXwX",
"5X5XzXnXbXbXzX3X3XtXcXrX*XT.T.E.L.i.i.9. .t. .t.F.i.i.i.i.u.J.%X3X2X*XQ.Q.Q.#X#X2XE.T.T.Q.Q.Q.#XE.,X*XE.Q.#X#X*X2X=X#X@XE.@X@X#X1X6X6X>X1X2X*X@X*Xl. X Xu.[ _ 9.9.9.u...f ' o.- = = j i O 7.*X@XH.I. XqXZXSXyX-X X;XpXpX0X-X-XwX&X&X@XL.K.R.Q.#XQ.#X#X#X#XE.E.@XE.E.E.E.E.E.L.H.w.w.u.L a p J.L.L.L.@X2X6X6X6X>X#X#X>X1X1X<X<X~.6X1X*X1X2X5X3X3XE.*X3X3X3X5XrXrXtX*X-XrXrXtXyX3X3X3XwXrXrXrXrXrXSXcXSXyXyXrXP.-XcXrXwXrXrXtXcXmXcXcXyXyXiXyXyXwXwXpX-X-X3XwXrXrXrXwXwXpX-X:X:X Xs f G G 3 q w ].].^ T D.SXPXHXDXGXbXcXcXpX-XpX7XBXBXBXBXZXBXbXbXtXtXyXcXmXyXyXiXyXyXyXyXyXyXyXyXyXyXtXrXrXtXcXcXtXyXcXcXbXmXmXmXcXrXcXrXBXrX@Xp.X n X n v W.AXbXNXyXmXmXmXmXyXyXyXyXyXyXyXyXiXyXiXiXiXiXiXeXiXiXiXiXiXuXuXuXeXeXeXiXmXiXyXeXeXiXeXiXiXiXiXiXeXiXiXeX0XpXiXZXiXuXiXiXiXiXuXiXyXuXeXuXuXuXuXuXpX%X%X0X-X%X-X%XP. X%X0XpX0XwXiXiXeXsXZXSXZXZXAXnX5X+ m 0.q.l.J.e.P.5.j P l.7.E.8X8XjXxXxXxXnXzXzX8XzXjXkXkXkXkXkXkXxX5X,X,X5XjXjX5X8X8XjXxXzXzXtXtXwXrXtXV + c -.p.f.q.L.HXAXtXcXtXcXyXtXtXtXyXcXcXrXwXwXwXwXuXuXuXwXwXwXwXwXwXwXwXrXrXrXrXtXtXtXtXtXtXyXyXtXrXrXwX",
"6X3X3X3X5XrXrX3X7X*X*X3XrX2X*XE.&XJ.J.e.[ t.t.F.t.I. XJ.l.J.P.E.K.x.f.v.R.#X2X2XR.W.Q.R.R.+XE.T.E.#X#XR.1X2X#X#XQ.E.R.R.R.E.Q.#X>X1X>X#X#X#X1X#XrX@X#X*Xz.] C 5.q.9.[ _ `  ._ p i i A y O =X-X:XP.XX0XiXyX0X0XuXeXpXpXuXsXZXsXyXuX7X&XL.E.#X#X>XQ.#X#X#X#X#X@X@XE.E.E.E.E.E.L.l.l.L.E.5.a a L.@X@XE.#X6X6XhXhX1X1X1X*X*X1X1X6X<X5X5X3X3X3X5X3X6XzXxXzXrXrXrXrX3XtX3XwXyXrXtXcXrX3X3XwXrXrXrXrXwXrXyXSXZXAXtX%XuXSXwXwXcXtXrXtXcXcXcXmXmXZXZXyXwXwX-X-X=X3XrXtXtXwX3XwXwX-X0X:X&Xj s - f ~ W ( Z.+.OX_ XXyXHXGXGXbXcXZXZXyXyXyXyXcXBXBXBXbXbXcXcXcXcXcXmXiXyXeXwXyXyXyXyXyXyXyXyXyXyXtXtXrXrXtXyXcXtXtXyXmXmXcXrXbXE.GXcXxXPX7Xm X X n $.<.j.zXcXpXpXeXmXmXmXmXmXyXyXyXyXyXyXyXyXyXiXiXiXyXuXuXyXeXeXeXeXeXuXuXuXuXuXiXiXeXeXuXiXuXiXyXuXyXyXuXyXyXeX0X0XeXyXiXeXiXiXiXeXeXiXyXuXpXeXuXwXwXpX;XP.H.XX XI.%XXXU.XXU.;X;X0XpXuXiXuXiXSXyXmXmXzXcXQ.+ y 7.f.l.l.K ] j s 0.q.7.L.CX8X8XjXvXVXbXcXcXxXzXjXjXjXjXjXjXjXxX>Xm.m.#X5XjXjXjXjXvXvXvXxXzXzXtXrX*XA + + -.s.m.d.E.HXBXcXBXyXaXyXyXyXcXyXtXrXrXwXrXwXwXwXuXaXuXyXyXyXtXwXrXrXrXrXrXwX7XrXrXtXrXtXtXtXtXrXrXrX",
"5X5X3X*X*X3XrXrXwX*X*XrXcX5X3X3X%X|.|.u.u.F.F.|.J.&X-XP.L.@X@XT.m.h.p.p.h.x.x.j.m.#X2X2X2X2X#XT.E.#XR.E.1X6X#XW.W.W.E.E.W.W.W.#XQ.*X#X#X#X#X2X#X#XR.T.E.v.1.S 4.5.9.` ` t.9.j h t u L y   tX&XaXwXuXiXiXyXiXsXZXsXiXiXuXuXuXuXuXaX:X&X@X@X*X#XQ.Q.Q.#X#X#X#X@X@XE.E.E.E.@XE.R.K.x.E.$X7.B A #X=X#XW.~.6X6XhXhX6X2X*X#X#X*X1X1X<X1X3X5X3X3X3X*XE.3X5XrXrXtXcXtX3XcXyXcXyXpX3X3X3XwXwXwXwXwXwXwXwXwXyXyXyXrX;X-XyXSXuXuXcXuXwXtXcXyXcXcXyXyXyXuXwX:X-X=X=X7XtXcXrX3X3XwXwX-X-X:X-XV V K P [ H A.D.G.uXP tXcXDXcXVXcXcXZXSXbXbXZXbXcXBXBXBXcXbXbXcXmXmXmXiXiXiXiXyXyXyXyXyXyXyXyXyXwXrXtXcXcXyXyXcXcXyXtXtXyXyXrX3XcXcXtXAX8XAXL.<.n X n -.j.d.tXiXeXeXeXeXeXiXmXmXuXeXeXeXuXuXuXuXeXuXiXuXuXeXeXeXeXeXeXeXeXeXuXeXeXeXuXuXuXuXuXiXuXiXyXuXyXyXyXiXuXiXiXuXpXwXiXZXiXmXmXeXuXiXiXuXuXuXuXpXwXwX-XP.I. X XI. XXXXX;XU.XXXX;X;XqXeXeX;XZXrXZXAXcXHXzX+ + m A L P a a K V 5.5.f.#XCX8XxXvXCXbXxXxXcXbXzXjX8X8X8X8XjXjX2X>X#X>X2X2X4X4XkXkXkXvXvXnXzXzXZXrX3XZ . . 2.;.n.j.1XGXcXBXBXcXyXyXyXyXyXtXrXrXrXrXrXwXwXwXuXyXuXuXuXwX-X-X-X-XtXrXwX3X3X3X7XrX7XrXrXrXrXrXrXrX",
"rXrX7X=X*X-X7XwXwXwXtXyXrX3XwXyX&X&X-X%X X%X.X&X@X&X*XE.L.E.Q.T.j.h.a.p.a.k.p.p.7.f.x.+X$X$X$X$XE.E.R.R.Q.E.R.#XQ.R.R.m.m.m.m.x.E.#X@X*X$X$X2XE.x.x.j.j.j.p.p.f.4.q.9.9.9.{ C D V m m t = :XXXsXiXiXeXeXeXiXeX;XpXeXiXiXeXeXiXsXuX:X&X@X*X=X#XE.Q.Q.Q.Q.@X@X@X@XE.E.E.E.#XE.R.L.K.E.E.,.m A ,X#XQ.W.~.<XhXlXjX6X#X#X@X&X*X*X#XQ.*X3XrXrXrXrX3X*XL.E.*X3X7XrXrXwX3XwXwXpXpX3XpXwXwXwXwX0X-X-X-X-XrXcX3XpX^.H.wXtXyXuXwXuXyXyXyXZXyXcXyXwXwXwXwX-X-X-X-X-XtXcXtX3XwX3XwXwX-X-X3X5X1.1.1.N s s P.wX=X7X7.GXDXDX8X7XbXyXBXZXcXcXbXcXCXVXBXcXxXbXbXbXtXtXrXwXuXuXuXyXyXyXtXtXtXyXyXyXrXrXyXyXyXrXrXcXyXxXcXtXtXtXtXtXtXZXAXrXHXq.u N n n n M x.w.iXuXsXiXiXiXiXiXmXyXuXuXiXiXiXiXyXyXuXyXyXeXeXwXeXuXeXeXeXeXeXeXeXeXeXeXeXuXiXiXeXeXwXyXyXuXyXiXyXmXuXmXZXyXeXeXyXiXuXiXmXeXuXmXmXuXuXyXuXwXwXuX3X%X X XXX XI. X;XXXXXU.U.XXXXXX;XpXeXZXmXAXZXbXGXBXu y + i t y V B K L 5.l.l.7X8X8XjXxXxX8X2X*X3X3XrXtXtXtXtX8X8X8X9X8XvXVXvXjX8X4XkXkXkXkXkXkXnXzXcX*XrX7.  . -.s.k.T.8XGXzXcXcXcXyXyXtXrXrXrXrX3XrXrXwXwXwXwXpXpXyXyXyXwX-X-X3X3XwXwX7X3X3X3X3X3X3X3X3X3X3X7XrXrX",
"-XwXwX7X&X;X;X&XwXwX7X-X7XtXtXwXuXwXtX:X-X:X&X-X*XE.K.l.K.T.T.m.j.m.m.m.j.k.f.j.x.f.f.x.L.c.L.@XE.#XR.R.R.K.R.2X1X>X#XW.W.W.!.R.L.#XE.#X#XE.#Xx.x.R.m.m.M.m.m.m.l.w.q.5.5.6.4.B 4.B i t L &XXXuXuXiXiXiXeXeXeXiXiXiXuXiXiXsXiXuXsXqX&X@X*X=X1X#X#X#X#X#X#X@X@X@X@XE.E.E.#XQ.E.R.R.#XT.A u =.>X#XW.!.~.<XhXhXkX6X#X*X*X&X-X2X#XE.%X3X3X3X3XrX7X=X*X3X7X3X-X-X3X7X7XyXwX-XwX-X-XwX-XpXwXwXwXpXpX-X3XyX-XyX*XP.ZXtXrXyXuXuXZXZXmXmXZXcXtX7X-X-X:X-X-X-X-XwXcXBXrX=XrX3X3X3X*X*X5X5X,.N %.*.N N ^.*X8XT.m.PXbXzX8XBXcXyXyXcXcXcXbXbXBXBXcXrX8XzXcXcXbXmXmXyXyXyXuXuXyXtXyXtXyXyXyXyXcXyXrXwX3X-X3XrXrXtXcXcXtXtXcXZXcXcXBXcXtXtXf.a.v n @ x x.w.yXpXeXeXeXeXiXiXiXeXuXuXeXiXiXiXiXiXeXiXiXyXeXeXeXeXeXeXeXiXiXuXeXeXiXeXeXiXiXiXeXpX0XuXuXuXyXiXiXmXyXyXuXuXuXuXeX-XpXeXeXpXpXuXuXwXpXwXwXwXuXrX-XP. XI. X XI.XXqX-X-XXXU.XXoXXX;XpXyXuXyXyXBXSXBXBXy m y V V V 5.V i P 1.2XR.xX2XCX8XxXcXxX8X3X7XrX7X8X8XtX8X9X2X2X8X7X2X9X8X8XjXvXkXkXkXkXkXnXvXbX3Xg.8X#Xo x @ h.7.E.cXGXtXyXrXcXcXtXrXwXwXwXwXwXrXrXwXwXwXwXwXpXwXwXwX-X-X-X-XwX3X3X3X7X3X3X3X3X3X3X3X=X-X3X3X7X",
"-X-X-X-X-X-X-X-X3X-X*X*X=X3XrXyXwXwX7XwX7X7X=X#XL.L.K.x.x.l.x.x.m.m.m.x.x.x.j.v.j.v.x.x.m.m.R.R.E.1X5X3X2X1X*X#X*X2X2X#X#X#XQ.E.E.E.W.#X#XW.m.x.m.m.m.x.m.m.m.m.l.l.g.x.f.7.8.A 4.h h O L.7XwXyXZXuXuXiXpXeXiXeXuXyXiXeXeXiXiXsXiXSXyXP.L.2X2Xm.!.W.#X#X#X#X#XR.E.+X@X$X#X@XE.R.E.#XQ.m ,.,.+X#XW.!.W.>X,X5XkX8X#X=X2X=X@XR.R.@X*X-XwXwX3X3X3X3X3X3X8X7X7X7X7XtX7X-X-X3XpXwXwXwX-XpXwXwXpXpX0X:X-XtX7XtX3Xg.SXyXtXtXuXyXmXAXmXuXyXyXyX-X-XwX7X*X-X3XrXBXcX7X3X3X-X-XwX*X*X3X*XrX,.1.N A A N 5X6XT.6Xh.HXbX1X8XtXcXBXBXBXBXcXBXZXAXbXbXcXbXbXbXcXZXcXrXrXwXrXwXwXcXyXrXtXcXcXyXrXyXyXyXmXcXyXrXrX3XwXyXcXcXtXtXcXcXcXxXvXvX2Xx.k.x + c Z 1.0.rXyXpXpXeXeXiXiXeXeXiXiXiXiXiXiXiXiXiXeXeXuXiXiXeXiXeXeXeXeXeXeXeXeXeXeXiXiXiXeXiXiXiXeXeXuXeXuXiXiXeXuXiXeXeXeXiXmXiXuXpXuXuX-X*XwX*X-X-XwXuX3XP.H.H.I.U.XXXXXXXX;X0X0XXXXXXXI.XX0XiXsXqXqXJXaXSX7XV y a m s V [ I j e.I R.f.W.8XjXtXtXtXaXZXZXyXwX7X9X8XxXtX9X9X8X8X8X8X8X8X8XjXjXkXkXkXvXvXnXjX5XxXT.8X8Xo i m 8.9.H.JXSXcXtXcXtXcXrXwXrXrXwXwXpXrXwXwXwXwXwXwXwXwXwXwXwXpX0X-X-X-X3X7X7X7X3X2X=X=X=X3X3X3X=X*X@X",
"-X-X-X-X-X-X-X-X3X-X=X*X=X3XwXrXrXrXrX7X=XE.L.K.L.L.L.c.x.l.x.x.v.j.j.j.j.j.j.j.j.j.j.j.j.x.x.m.W.#X1X1X#X#X1X*X1X1X*X#X#X#X#X#X>X>X>X#XR.m.x.x.m.m.m.x.x.m.m.m.l.l.v.m.x.k.f.=.B t h t H.z.*XcXyXuXuXuXuXuXiXuXuXuXeXeXiXiXiXiXiXsXyX;XE.#X#XW.W.W.W.W.W.W.#X$X@X+XE.E.E.E.#X#XR.Q.T.N A L v.T.R.M.W.#X>X5X8X5X#X#X*X*X*X*X*X*X%X-X3X3X3X3X3X3X3X2X2X3XwXwX7X=XwX3X-X-X-XpXpX3XpXpXpX0X-XpXwXwX-X7X7X8X@XL.SXbXtXyXyXyXmXZXmXiXZXuX-X-X-X-X*X%XwXrXcXBXcXrX3X7X7X-XwX-X-X3X2XzXm P N N ,.+ 1.1XbXh.+ bXnXzXxX3XcXcXBXBXcXcXBXZXZXmXbXbXbXbXbXcXcXcXtXrXrXrXrXtXcXzXcXbXmXcXyXwXZXmXyXyXyXtXtXtXyXyXyXcXyXrXtXbXcXBXvXCXCX2Xx.h.+ N M + N x.ZX=XcXyXyXuXqXqXqXqX0XpXpXpXeXeXeXeXiXiXiXiXiXiXeXeXeXeXeXeXeXeXeXeXiXiXiXeXiXiXiXeXiXZXZXiXeXuXpX-XiXeXpXSXY.uXmXyXmXeX0XyXmXpX^.;XE.;X-X-X-X*X%X;XU.G.F.U.oX0X0X0XXX0XXXU.XXqXqXqXiXuXuXqXuX:XP.J.5.y y L L [ ..` J e.K.@X#XjXkXvXBXBXZXSXSXSXsXwX#X#X=X7X8X8X8X8X8X8X8XjXjXjXjXjXCXxXkXjXnXnXbXcXjX#XzXvX  B u 5.[ t.aXaXcXtXtXrXtX5X3XwXwXwXwXpXwXwXpXwXwXwXwXwXwXwXwXwXwXwXpX:X=X=X=X-X3X3X-X=X-X3X3X7X3X-X=X=X",
"-X-X-X-X-X-X-X-X*X*X=X=X-X3X3X3X2X3X3X=XE.x.x.K.T.T.c.x.x.v.j.j.f.h.k.k.k.k.a.a.f.k.h.k.k.k.j.v.x.T.T.R.W.#X1X1X2X1X1X2X2X#XQ.Q.#X#XW.M.x.j.m.M.m.m.m.x.x.x.m.m.K.K.x.m.m.m.v.=.a h a p w.e.*XyXwXuXuXeXuXuXeXiXuXuXeXiXiXsXsXiXsXsXiXwX%Xx.g.x.x.h.m.W.#XE.E.E.@X+XE.E.E.E.E.#XE.Q.x.1.=.1.k.m.!.!.Q.>X>X5XjX8X2X2X*XE.@X#XE.K.=X3X3X3X-X3X3X3X3X7XrXwX-X-X7XuXwXwX3X;X;X-X3X-XwX-X-X-X-X0XwXyXrX7XrX7XK.3XSXBXyXyXyXyXyXmXZXZXyX-X=XwXwX;XE.*XrXcXcXtXrXrX7X3XwX3XrX3X2X2X1XjXc N <.*.<.M M W.N   + IXnX2XrXzXxXcXcXcXcXcXbXBXbXZXZXmXbXbXbXbXtXyXyXrXwX3XrXtXtXtXcXbXmXmXcXyXcXyXyXyXyXyXyXyXyXrXrXwX7X7XrXcXxXcXvXvXvX2Xm.j.x M x @ x m 3XrXtXyXyXuXuXiXiXiXeXeXeXeXeXiXiXiXuXeXeXeXeXeXiXyXeXeXeXiXiXiXiXiXeXeXeXuXiXiXZXZXyXZXmXpX%X-XyXSXyXLXeXGX^.mXpXAXiXyXyXyXwXK.w.P.;X-X-X;X-X-X;X-XXXXXXXXXXXXX0XeXqXqX;XU.XX0XXXI.qX;XuXsXSXZXP.@Xq.y y 0.w.e.[ I f K H.x.6XnX6XzXxXBXSXSXSXSXsX:X=X=X2X9X8X8X9X9X9X9X8X8X8X8X8X8XvXxXkXjXzXvXbXDX1X1X2X2X  h t ] [ e.:XyXyXtXtXrXrX3X-X3XwXwXwXwXwXwXwXwXpXpXwXwXwXwXwXwXwXwXwXwX3X-X=X=X-X-X-X=X3X3X3X3X3X3X3X3X",
"-X-X-X-X-X-X-X-X*X-X3X3X-X*X*X*X#X*X*X@XR.x.x.T.x.x.v.v.f.f.k.k.k.k.k.k.k.p.a.p.h.k.k.a.p.a.j.j.f.j.j.j.x.R.W.R.>XW.Q.5X8X>XR.R.M.m.m.x.x.m.M.W.m.m.m.x.x.x.m.m.T.T.x.m.M.m.v.B a j t t w.l.wXwXwXyXuXpXuX0X0XeXiXuXiXiXiXiXiXsXeXiXZXSXZXrX3X8Xx.f.j.T.E.R.L.R.E.@X@X#X#X@XE.R.Q.Q.f.7.,.7.p.R.R.R.W.>X>X4XzXjX2X2X*X#X*X8X7X=XwXrX7X=X*X*X2X1X7X3X-X-XwXwXwXpX-XwXwX-X-X3XpX-XpX-X-X-X-XwXrXyXBX8XBX7Xg.BXSXcXyXyXyXuXyXiXiXyX7X-XwXtX7X@X*XyXtXcXyX7X3X7X7X3X7X2X7X8X2X2X5X8X2.. . @ *.s.<.@ @   M KXnX2XxXxXcXcXcXcXcXcXbXbXbXZXZXZXbXbXbXbXcXcXcXtXrXrXrXrXrXtXcXcXcXcXZXSXuXyXyXyXcXcXyXtXrXwX7X3X3X3X8XxXrXxXxXvXvX2Xm.m.c x @ *.*.+ T.cXcXcXyXiXiXeXeXeXeXeXeXeXeXeXeXeXeXuXeXiXeXeXyXiXeXeXeXuXiXiXiXiXiXiXiXiXiXiXiXuXSXiXiXZXJXLXSXZXwXSXAXZXAXAXtXSX-XwXrX3X%XH.w.P.%X%X%X%X0X0X;X;X;XXXoXoXXXI.XX0XqXoXU.U.XXXXXXXXuXuXqX-X X-X@XyXK.L 1.E.%XP.t.[ I P 0.L.8XvX5XvXxXBXSXsXsXSXyX-X8X9X9X8X8X9X9X2X9X9X8X8X8XjXjXjXjXjXxXxXxXvXbXcXQ.#Xl.4.  i t ] 9.i.&XwXtXrXtXcX5X3X*X3XwXwXwXwXwXwXwXwXpX-XpXwXwXwXwXwXwXwXwXwXyXwX-X=X-X-X=X*X-X-X-X-X-X3X3X3X",
"-X-X-X-X-X-X3X3X=X-X3X3X1X#XE.E.#X#XQ.R.K.x.j.j.f.f.f.f.k.k.k.k.a.a.k.a.a.p.p.p.k.k.a.p.p.a.f.v.j.j.j.f.j.x.j.k.T.j.x.#X2X>XQ.#XW.M.x.j.m.m.m.m.m.m.m.x.x.x.m.m.m.T.m.m.M.M.v.m h h * C l.l.-X-XwXyXuXpXwX0X;XeXsXiXiXiXeXqXeXiXsXsXZXsXyX-X%XR.*Xx.7.1.0.q.w.g.l.l.R.E.E.E.R.R.T.x.1.<.*.7.7.M.m.m.!.Q.#X5XzX8X3X5X2X#X*X3XrXrX8X8X3X*X#X*X*X*XK.%X3XwX-X;X;X-X-X:XpX-X-XwXwX-X-X-X-X-XwXwXrXtXBXtXGX2Xl.HXAXtXyXyXwXwXuXyXyXwXwXwXwX-X@XE.7XSXtXcXtX3X3XwXrX7X3X2X7XxXjXjXvXhXx @ M v .   $.M @ + &.T.2X3XxXxXBXBXBXBXBXbXbXcXbXbXmXbXbXbXbXbXZXmXcXcXcXcXcXcXtXzXcXmXmXmXZXZXyXyXyXcXcXcXyXtXtXrXwXwXrXwXrXtXtXcXvXcXvX2Xm.x.x M x *.k.2.6X5XcXzXeXeXyXyXuXeXyXuXeXuXuXyXeXeXuXuXiXiXiXyXuXeXiXyXuXuXuXuXuXeXuXyXyXiXmXmXmXiXZXZXSXGXGXZXyXcXSX3XrXtXAXZXbXK.H.P.P.L.%X-X%XH.%X-X-X-XwXwXpXwXqXXX|.|.XXXXXXU.oXXXXXXX;XXXXX;XU.sXuXpXF.J.-XBXx.7.d.R.P.P.F.e.[ I V 3XxXxX8XcXcXZXSXsXsXSXsXyX2X7X9X9X9X9X9X9X8X8X8X8XjXvXCXvXjXxXxXxXxXvXxXrXQ.#X4.i i i h ] e.J.&XuXwXwXrXcXrX3X*X3XwXwXwXwXwXwXwXwXpX-XpXwXwXwXwXwXwXwXwXwXyXwX3X-X=X=X=X*X=X=X=X=X-X-X3X3X",
"-X-X-X-X-X-X3X3X-X-X=X*X#XE.R.R.R.R.K.x.x.x.j.f.k.k.k.k.k.h.h.h.k.k.k.k.a.k.a.a.a.a.a.p.p.p.k.j.k.f.f.f.j.x.j.f.m.f.k.x.R.R.Q.#XR.m.v.j.m.M.m.j.m.m.m.m.m.m.m.m.m.!.m.M.!.W.x.a j p k i.J.w.E.wXwXuXuXwXwXqXpXuXiXiXiXiXeXqXiXsXiXsXsXsXSXJXGXSXcX3XP.H.H.H.g.w.q.0.0.0.q.g.j.K.j.f.*.=.*.7.p.M.h.m.!.Q.#X4XzXjXzX8X5X2X*X*X3X8X8X7X3X*X*X2X3X3XE.%X%X%X%X;X-X0X;X-X-X-X-X-X7XwX-X-X-XwXrXrXrXrXxXrXAXE.K.HXBXtXyXrXwXwXuXyXwX-X7XwX7X=X%X*X-X7XrXrXwX3X3X7X7X7X7X2X2X8X5X4XjXM.x v . . v o + <.o + 2.<.Q.*XzXcXAXAXZXZXZXBXbXbXmXbXcXcXbXbXbXbXcXyXtXyXcXmXbXcXcXmXAXSXSXZXyXwXSXZXcXyXyXyXcXyXyXrXrXrXrXrXwXrXxXcXxXxX8X#Xf.k.x M v x <.k.5XbXbXcXtXeXeXyXcXiXuXeXeXuXuXyXeXpX;X0XeXuXeXuXuXyXyXyXyXiXiXiXiXiXyXiXmXZXmXZXAXAXrXtXcXcXrX3XwXZX3XZXGXyXT.0.f.K.5.H.L.l.H.P.H.e.P.-X-X%X^.I.U.;X;XoXXXXXXX;X;XXXoXeXeX0X;X;XXXU.U.sXpXpX:XpXaXtXd.7.0.0.5.w.G. .I P j xXzXzX5X8XBXBXZXsXsXSXZXsX3X9X8X8X7X9X9X8X5X8X8X9X8XvXvXvXxXvXvXxXxXcXxX7XE.E.V O h t j C ]  X-XyXrXrXrXyXrX3X*X3X3XwXwXwXwXwXwXwXwXpXpXwXwXwXwXwXwXwXwXwXwX7X3X-X=X=X=X=X=X-X-X-X-X-X-X3X",
"-X-X-X-X3X3X3X3X3X=X*XE.R.R.T.K.x.j.j.j.x.x.x.j.k.k.k.k.h.h.h.h.f.f.f.k.f.k.k.k.a.a.a.a.p.p.p.k.p.k.k.k.j.x.x.x.x.v.k.k.j.x.m.m.j.h.k.h.x.m.m.x.j.x.x.m.m.m.m.m.n.!.M.M.M.!.v.u j j { t.u.l.@XwXuXqXwXwXpXuXiXiXuXuXiXiXiXiXsXLXsXiXiXiXiXZXZXZXSXSXSXmXyXyXwX%XK.l.q.0.1.3.0.0.d.0.*.*.,.p.s.n.m.m.W.#XQ.2XjXjX8X5X5XrXrX8XrXcX3X3X2X2X2X5X5X3XbX%Xw.Y.0XiXeXXX;X;X&X-X-X-X-XwXwX7X3XrXtXyXtXrX8XzXVXx.E.SXbXtXtXrXwXpXwXwXwX-X-X7X7X-X*X%X%X*XwX3X3X3X3X3X-X3X7X7X2X9X1X2X<X<.. . @ . v . . s.<.%.p.*.T.3XrXcXAXBXZXBXZXZXZXmXZXcXtXcXcXmXZXbXyXtXtXyXyXyXyXcXmXmXmXmXZXcXuXwXZXsXyXyXyXyXyXyXrXwXwXwXwXwX7XwXtXcXxXtX9XE.k.p.c z M @ M N f.cXGXGXGXAXcXrXrXeXtXeXrXuXyXuX0X;XXX;X0X0XpXpXuXyXyXyXmXZXSXSXSXSXLXLXSXmXeX3X3XwXrX8X7X8XbXAXtX*XrXBXP.g.%XE.P L 0.H.L.l.e.[ [ w.iXSXZXiXiXpX0X0XXXqXeXoXXXXX0X0XXXqXqXoX0XqX0X0XiXeXI.w.P.-XuX3XK.d.d.q.0.Y.G...I j e.BXrXxXxXrXBXaXaXZXsXsXiXsXrXtXtX8X8X8X8X8X2X8XrX8XrXxXxXrXxXxXxXnXxXcXrX=XL.@Xi t a t p a 5.-X-XtXwXrXrXtXrX3X*X3X3XwXwXwXwXwXwXwXwXwXwXpXwXwXwXwXwXwXwXwXwXwXwX3X-X*X=X-X-X-X-X-X-X-X-X-X",
"-X-X-X-X3X3X3X3X3X*X@XR.K.K.K.T.j.j.x.x.x.j.j.j.k.k.k.k.k.k.k.k.f.f.h.h.f.k.f.k.h.h.h.f.a.a.a.a.j.j.j.k.k.f.j.f.p.k.k.k.j.x.x.j.k.p.p.p.k.h.j.j.j.j.x.m.m.m.m.m.m.~.!.M.m.m.f.= h k  .k J .X=X3XuX0XpXeX0XeXsXuXiXuXiXiXiXiXiXsXiXqXiXiXsXiXiXZXuXZXZXiXiXZXZXuXwX3XE.H.0.3.3.3.0.3.A M <.s.s.a.n.m.!.W.W.>X5X5X5X1X1X5X3X#XR.#X*X1X*X#X*X2X3X2XE.*X-X-X;X;X;X0X-X%X%X;X-X%X-XyXwXwXwXwXtXyXtXrXrXxXBXg.*XZXcXcXrXrXwX-X-XwXwXwXwXwX3X%XH.H.*XyXrX7X7XrXrX3X3X3X-X3X=X3X1X5X5X*.<.. =.v $.s.=.$.$.@ <.2.j.1X3XBXBXBXbXBXZXSXZXZXZXcXrXtXcXZXZXbXbXmXZXbXcXyXyXcXmXcXrXrXrXyXyXuXwXwXuXyXyXyXyXyXwXwXpXwXrXwXrXrXtXcXcXxXzX#Xv.f.+ + A y A Z m q.3XcXGXLXGXSXSXGXLXLXGXLXLXSXiXeXpXqXpX0X-X-X0XwXyXmXmXZXZXZXmXiXiXmXyXwX*X*X3XrX3XAXAX*Xd.K.@X*Xx.x.K.g.l.g.f.0.l.q.9.e.w.w.Y.%XyXyXeXiXSXmX0X;X;XuXiXoXXX0X0XXXqXqX;XoX0X0XqXsXY.w.P.Y.%X-X-XrXR.d.d.g.g.H.e.J K t P.rX3XzXcXtXBXyXsXSXSXsXiXZX7X8X8X7X8XtXrX9X7XxXcXvXcXBXbXrX8XzXxXxXcXcX9XE.L.*XO h i a i a l.tX-X7X3XrXtXtX3X3X*X3XpXwXwXwXwXpX-X-XwXwXwXpXwXwXwXwXwXwXwXwXwXrXtXwX-X*X*X-X-X-X-X-X-X=X=X=X",
"-X-X3X3X3X3X3X7X=X@XR.K.x.K.K.x.T.T.m.x.j.j.j.j.h.h.h.h.h.h.h.p.h.f.a.h.j.j.h.h.a.a.k.h.a.a.a.a.k.k.k.k.k.k.k.k.a.k.k.k.k.k.k.k.a.p.p.p.p.p.k.h.k.j.m.m.m.m.m.m.~.n.!.~.M.m.q.p d g > f t.J. XyXyX0X-XpXwXuXiXuXsXiXuXiXsXiXeXqXsXsXsXiXiXiXiXiXSXZXZXiXiXZXSXSXSXZXyXpX;X;X^.g.g.0.N *.<.<.h.h.h.m.W.W.Q.>X1X>X#X#X#X#X*X2X2X*X2X2X2X>X>X#XQ.Q.*X*X-X-X0X0X0X-X%X&X-X-X-X-X-X7X=X3XrXyXcXcXtXrX3XZXrXg.8XcXyXyXrXwX-X;X-XwXpX-X=X3X*Xg.0.@XyXcXyXwXwXwX7X-X*X-X-X-X-X-X3X3XR.,.j.<.,.<.,.k.p.<.M M <.<.m.T.#XxXAXAXAXAXZXZXZXZXbXZXSXSXZXmXZXSXbXbXcXyXyXcXZXmXmXmXZXbXZXZXyX-XwXuX-XP.;XuXZXyXwXwXwXwXwXwXrXtXrXBX8XrX2XR.K.8.+ i u y u V L ] [ P e.7XSXGXGXLXLXLXGXLXPXLXSXsXaXyXiXiXuXuXuXyXrXpXrXyXwXyXZXyXyXyX3X^.E.3XrXrXZX3Xg.q.l.1.0.8XE.K.K.0.l.g.x.q.q.6.q.e.w. X&XI.;XXX^.;X0XpXpXeXpXiXeXoXXX;X0XXXqX;XXX;X;XoX0XeX0XXXU.U.P.%X7XtX#X0.g.x.H.w.I.J j 9.L.xX8XxXrXbXZXsXsXsXsXZXZXSXcX8X3X7X7X2X9XxXGXxXxXBXxXxXcXrXzXnXbXvXxXCX2XL ,.c.i i a a h i q.yX3X-X3XrX3XcX3X*X*X3XrXwXwXuXrXrXwXwXwXwXwXwXwX3XpXpXwXwXwXwXrXwXwXwXwX3X3X3X-X-X-X-X-X-X-X-X",
"wX3X-X3X7X3X3X=X*XE.K.K.x.T.K.x.T.T.m.m.j.j.j.j.j.h.h.h.h.h.h.j.f.f.h.h.j.j.v.h.h.h.k.a.a.a.a.k.k.k.k.a.a.a.a.a.k.k.k.k.f.k.k.k.k.a.p.p.p.k.h.j.h.h.m.m.m.m.m.M.W.!.!.M.x.c.y.p k E g g t.J.P.wXpXpXiXiXuXuXiXuXuXiXiXiXiXLXZXqXeXiXsXsXsXSXLXLXiXZXmXZXZXiXiXiXiXmXZXZXiXiXwXI.E.5.N A <.2.n.h.a.n.!.W.W.>X>X>X2X1X1X#X#XQ.R.R.#X#X#X#X>X#XQ.Q.*X*X*X%X%XP.P.P.%X&X-X-X;X-X:XwXwXrXtXtXtXtXrX7XtXSX3XK.7XbXtXtXtXwX-X-XwX-X;X;XrX@Xg.q.K.rXZXtXyXwX-X=X%XE.E.%X%X&X-X;X@X*XR.0.,.m ,.,.A ,.d.k.M M p.p.>X9XxXGXBXAXSXSXSXZXmXmXZXSXSXSXZXZXZXZXZXcXyXyXcXBXBXcXmXmXmXcXyXyXyXyXuXyXyXwXwXyXcXuX3X-X-XpXrXrXrXrXrXtX3XrX3XK.x.q.i t j j j k K H K 9.w.[ e.=XZXZXSXSXZXZXSXZXyXyXyXyXuXwXwXwXuXuXmXrX3X%XH.e.5.I H.P.I.g.f.K.*X3X3XR.0.K.3X@Xd.x.g.f.d.0.g.l.K.l.l.6.9.w.J.:XpX X;X0XpXeXuXeXeXeXeXuXuX0X0XqXeX0X0X;X;X0X;XXXXX;XpX;X;X;X%X-XwX8XE.,.j.x.g.w.e.j P 5.*XtX8XcXtXcXZXsXsXsXsXZXZXSXbXrX7X7X7X3X8XcXcX3X7XrX8XzXxX8XxXcXcX8X7X7X@X4.6.q.i a a u i O 0.tX7X3XrXcXrXcXrX3X3XrXuXwXwXwXrXwXwXwXwXwXwX3XwXwX3X3XwXwXwXwXrXwXwXwXwX3X3X3X7X7X3X3X3X3X3X3X",
"wX7X3X3X7X7X=X@XE.R.K.x.K.T.K.x.T.T.T.x.x.j.x.x.j.j.h.p.p.p.p.k.a.h.j.j.j.j.h.j.h.j.h.k.a.a.k.f.f.k.k.a.p.p.p.p.k.k.k.k.k.a.a.a.k.k.k.a.k.f.j.j.j.x.m.m.m.m.m.M.!.~.!.x.x.L.9.d g Y g g  .F. XuXuXwXwXqXpXuXpX%XpXiXsXiXeXiXiXeXXX0XqXiXeXeXiXiXiXsXZXSXZXsXiXiXZXiXiXsXiXZXiX0XuXf.V ,.=.<.n.s.a.n.M.W.~.>X>X#XT.x.T.Q.*X*X*X2X#X#X>X>X>X#X~.Q.1X2X2X-X-X-X*X;X&X=X=X=X=X-X7XwXrXrXrXrXrXrX7X3XcXbXE.K.3XbXrXrXtX3X-X-X-X-X-XwX3Xl.0.K.3XAXAXrXrX7X-X*X@XP.P. XP.%X-X-X%XE.K.1.1.1.P g.,.LXmXx x b <.<.#X9XxXxXxXbXSXSXSXSXAXSXSXSXZXAXZXZXZXmXZXyXwXtXcXcXyXcXbXZXSXSXZXyXyXyXuXyXsXyXyXyXyXuXuX-X;XwXyXwXwXrXrXwX3XtX9XK.l.f.= p C _ K k k f j { u.u.e.5.0.0.0.f.g.K.%X-XpXyX;X&X XI.H.H.H.J.f.g.0.5.e.e.w.w.H.H.H.w.0.5.0.d.d.x.g.g.R.l.5.0.l.K.l.l.g.H.l.H.L.q.w.L.%X-X:XXX;X0XeXeXeXeXeXeX0X0X0X;X;X;X;XXX;XXX-X0X-XXX;X0X0X-X;X%X;X7XrX2X#X,.R.R.K.H.I I 5.L 7X8X8XbXbXmXZXsXsXsXsXZXZXZXBXtX7X7X3X7XrXBXcX8X3X8XrXxXxX8XrXcXxX8X8X2X+Xc.6.V i V m y + i q.tX3X3X7XcXtXtX3X3X3XrXuXwXwXwXwXwXpXpXwXwXwXpXpX3X3XpXpXpXwXwXwXwXwXwXwX7X3X3XwXwX7X3X3X3X3X-X",
"3X3X3X3X7X3X*X@XL.K.x.x.K.T.K.x.T.T.K.x.x.j.x.x.j.j.j.k.p.<.1.p.p.a.j.j.j.j.j.j.x.x.h.j.h.h.h.h.h.f.k.k.a.a.a.k.a.k.a.k.a.a.a.a.k.k.k.k.f.h.j.v.x.m.m.T.T.T.M.M.T.W.!.x.L.z.{ d 1 < < G ' e. XyXuXqXpX-X0XsXSXyXiXyXiXSXLXZXZXLXsXsXLXLXsXsXZXLXLXZXiXiXiXiXZXSXSXiXiXeXeXiXsXiXSXH.P 1.*.<.M.s.a.n.M.W.>X<X>X>X>XW.R.1X1XE.R.Q.>X>X>X>X>X>X~.Q.Q.Q.#X*X*X=X=X=X*X=X=X=X=X-X3X7X7X7XrXrX7X3X3XrXcXyXP.P.-XbXwXtXwX3X-X-X-X-X3X3XH.0.K.7XBXBXyX7X-X-X-X-X%X@X@X X%X XP.P.P.K.0.N N y m E.LXHX1X,.M $.p.=.W.9XxXrXcXcXZXZXZXAXSXGXSXZXbXbXZXZXmXbXBXrXwXyXcXcXyXBXcXcXbXSXSXyXwXyXuXyXyXyXyXwXrXyXiX0X-XwXrXwX7XrXrXwX8XtXrX@Xg.7.p j H _ H g d d G f K u.H.0.5.l.K.T.K.g.g.e.e.w.w.e.[ [ I I P P g.K.w.0.w.e.5.w.H.w.e.w.K.K.g.f.d.@X#Xl.0.0.q.K.K.P.H.L.w.z.w.l.l.l.L. XI.J.I.XXXX;XpXeXpXpXeXeXuXeXeXqX;XXXXXXX;X;X-X0X-X;X-XqX-X-X;X%X%X7X8X#Xj.x <.d.d.0.V j K a tX7X7XZXSXmXZXsXsXsXsXZXZXZXBXtX7X3X3X3XtXBXAXxXrXrXrXzXxXrXrXcXxXtXxX2XR.+X7.i u V u m + + g.tX3X*X*X7X7X7X3X*X-X3XwXwXwXwXwX3X3X3XwXwXpX3X-X-X-X-X-X-X-X3X7X7XwXwXwXwX3X7XwXwXwXwX7X3X3X-X",
"-X3X3X3X=X#XE.E.K.x.x.K.T.T.T.m.x.x.x.x.x.x.x.x.x.x.m.x.j.p.p.p.p.p.h.h.j.j.x.m.x.m.m.m.m.x.j.j.j.h.h.h.h.h.j.h.h.h.h.h.h.h.k.k.k.k.k.h.j.j.h.h.m.m.m.M.R.R.M.m.T.T.m.R.+Xy.E g 1 < ! ! W [ P.wX;X0XpX XY.U.pXeXeX;X;XeXsXiXiXiXsXsXiXiXiXiXiXiXiXiXiXiXiXiXiXiXsXiXiXsXiXiXiXiXsXg.P 1.=.<.M.a.a.h.m.~.>X,X1X>XT.x.T.1X2X1X2X8X>X>X>X>X>X>X>X~.~.W.#X#X#X#X#X@X*X*X=X=X=X=X=X=X=X3XwXrX7X-X7XyXbXyX@X%X-XcXwXyX3XrXrX3X-X*XR.g.0.g.3XSXSXyXrXwX-X-X-X%X%X@X@X@X%XH.0.5.3.3.3.P 7.1.1.HX5XGX>X=.M M p.A W.2XbXCXbXZXZXSXSXAXmXmXZXcXcXcXZXZXBXyXyXrXrXcXcXyXyXZXmXrX-XpXrXuXuXyXuXyXyXsXyXwXwXyXyX0X-X0XpX-X3XtXtXrX7X2X*X@Xd.A C k k g d > > > f H [ 5.g.K.K.x.g.x.g.g.K.l.l.H.u.u.u.u.u.u.u.u.5.g.q.e.l.l.w.J.u.5.5.l.E.E.K.K.K.@XE.g.g.K.K.l.q.u.e.z.q.u.q.w.0.e.H.J.H.t.Y.|.XX;XpXeXeXeXuXiXyXiXyXeX-XXX;XpX;X0XpXpX-X%X%X%X-X-X3X-X-XrX7XR.7.+ . A L B a s p i aX7XrXcXZXiXZXsXsXsXsXsXZXZXcXtX7X7X7X7XtXBXBXBXxX8X8X8X8XrXxXcXrXrXtX#Xl.x.0.i Z m + c # + 0.3X3X*XE.*X=X-X3X*X-X3X3X3XpXwXwX3X3X3X3X3X3X-X*X-X3X3X-X*X-X3X-X-X3X3XpX3XwXwXwXwXrXrXwXwXpX3X",
"-X3X3X=X@XE.K.K.x.K.K.T.K.K.m.x.x.x.x.x.x.x.x.x.x.x.m.m.m.x.j.j.p.k.h.j.j.j.x.m.x.m.m.M.m.m.j.j.j.j.h.h.h.j.x.m.j.j.j.j.j.j.j.h.k.h.j.j.h.x.x.x.m.m.m.m.M.R.M.m.T.m.T.@XL.{ U G 1 : T Q E ..P.wXyXsXsXwX%X;XpXpXeXsXSXsXiXiXZXZXSXsXiXiXsXSXSXZXiXgXZXZXZXiXiXiXiXeXiXsXiXiXiXuXuXH.L 1.*.;.n.s.a.k.n.!.~.>X>X>X8X2X1X2X1XW.T.T.W.W.W.#X>X>X>X>X>X<X<X>X>X#X#X#X@X*X*X=X=X=X*X*X-X3XrXtX7X-X7XyXcXyX;XE.*XwXwXrXrXwX*XE.L.R.K.f.R.*XtXSXbXtXrXwXrXwX-X@XP.@X@X@Xg.0.0.7.L ,.1.7.@ @ ~.IXPXnXkXp.-.v ;.M W.#XzXBXyXcXmXSXGXGXAXmXcXcXyXcXZXZXcXyXtXyXyXcXyXcXcXcXbXrXpXwXuXuXwXpXwXwXyXyXuX0X-X-X0X-X-X0XpXpXrXyXtX7X=XK.l.L.7.V d = = = = * > > - _ 9.q.q.g.f.3.x.K.j.g.l.g.e.e.5.9.9.e.9.9.9.5.l.z.l.w.w.9.[ [ 9.9.w.H.H.l.x.K.R.K.g.7.0.l.l.9.0.0.0.w.e.e.5.9.e.e.e.u.I.I.I.XXXX;XeXuXeXeXpXwX0XpXwX0X;X;X-XwX-XpXuXuXwX;X XP.*X=XwX7X=X=X@Xf.p.M . N N a j a t a tXtXBXcXZXiXsXsXsXsXsXsXZXZXBXcXtXtXtXtXcXBXcXBXcX8X8X8X8XcXcXtX8X7X7X@Xx.l.4.i Z y + v N + A E.*X5X*X*X*X*X3X3X3X-X-X-X3X3X3X3X3X3X-X*X*X*X*X-X3X3X-X*X-X3X-X-X-X3X3X3XpXpXwXwX3XpX3X3X3X3X",
"-X-X;X@XE.L.K.K.K.K.T.T.T.m.x.x.x.x.x.x.x.K.K.K.x.x.x.m.m.m.m.x.j.j.j.j.x.x.x.x.x.m.m.m.m.m.x.j.m.j.j.j.h.j.n.m.j.n.j.j.j.j.j.j.j.j.h.x.x.m.m.m.M.m.m.m.M.R.m.m.R.x.+X@Xy._ E 3 1 1 9 R Q 9. XwX-X;X;XpXeXiXiXeX0XiXLXsXqXpXiXZXsXsXiXiXsXsXsXsXiXgXLXLXLXZXsXiXsXeXqXiXiXeXiXiXuXP.1.A A ;.N.s.a.p.h.m.W.W.Q.>X>X>X#X#X>X#X#XQ.W.W.W.>X>X>X>X>X~.~.~.+X#X#X#X#X#X#X*X*X=X2X=X=X3X-X-X7X7X=X7XyXyXwX%XH.@X3XyXwXyX*Xl.g.x.K.K.E.3XtXBXcX7XrXtX7XtXwX-X%X@X@XP.H.5.4.f.k.<.,.,.<.x KXjXm.a.n.s.n.h.M =.M >XE.8XBXcXtXtXbXSXGXSXZXcXcXcXbXZXbXyXyXrXyXyXyXyXcXyXwX3XtXmXZXyXuXpX;X-XwXuXwXwX-X-X-X-X0X0X0XwXwXwX3X*XR.P.w.q.g.1.L h = = = - d d > - p C 5.7.7.h.T.j.x.j.g.l.l.q.u.u.u.u.u.u.t.e.q.w.e.w.w.e.e.9. .[ 9.q.u.H.K.E.#X@XK.w.0.0.e.l.l.w.e.w.w.H.w.e.0.e.w.0.e.J.I.I.XXXX;XeXuXuXwXpX0XpXwXuXwXwXwXuXuX0XpXwXwXwX0X;X%X@X@X;X%XL.z.x.f.7.M + c i a = h h C 7XtXAXmXSXZXsXsXsXsXsXsXZXZXBXBXBXBXBXBXbXbXxXAXcX8XrXrXrXcXcXrXrXtX2X@XL.v.V + c + x v $.# c g.E.rX=X*X%X*X3X3X3X-X-X-X-X-X-X3X3X-X*X^.E.^.*X-X3X3X-X*X*X3X-X-X-X-X-X-X-X-X-X-X*X;X;X;X;X;X",
"=X@XR.L.R.E.R.K.T.T.R.T.x.x.x.x.x.x.x.x.T.T.T.T.R.T.m.m.M.M.m.m.m.x.j.j.x.m.x.x.x.x.x.x.x.x.x.x.m.m.j.h.h.h.j.n.n.n.n.j.j.j.h.h.h.x.x.m.m.m.T.M.T.m.m.m.T.M.T.x.T.l.@X X[ _ } < 3 : 9 ! ` 9.L.*XwX0XuXyXuXuXuXuXuX;X0XiXsXiXiXZXsXsXsXsXiXiXiXiXiXiXiXiXsXZXSXLXLXeXqXiXsXsXiXeXwX%X,.N =.s.N.a.a.s.a.m.W.W.~.>X>X>X>XQ.Q.>XQ.W.#X>X>X>X>X>X>X>X>X>X>X>X>X>X>X#X#X#X#X*X=X3X3X3X3X%X@X=X-X-X7XtXyX-X@Xw.@XrXSXcXrXK.f.R.E.K.K.E.tXZXSXrX*X3XtX3X-X-X=X%X%X@XH.0.g.4.1.7.,.=.A M 4XkX6X<X<X~.jXh.h.@ M b >Xm.2XbXGXbXrXwXyXmXmXmXcXcXmXZXZXbXcXtXrXcXyXrXtXcXwX%XE.3XcXyXwXwXuXuXwXuXwX0X-XwXrXwX0XpX0X-X3XwX=XL.g.7.l.g.f.l.4.9.{ k d k H k > = d f V ,.7.p.k.d.k.f.d.0.0.0.5.e.5.5.5.5.9.9.w.u.l.q.q.u.5.9.u.9.e.9.e.q.K.E.E.L.z.5.5.q.l.u.u.w.w.5.w.w.L.u.u.q.[ w.w.[ e.e.G.XX&X:X0XqXwXwX3XwXwXwXwXpXwXwXwX-XuXwX-X;X-X-X;X%X@XL.L.L.q.6.x.R.7.m N m i V O K h S E.7XAXcXZXZXZXsXsXsXsXsXsXZXBXZXAXAXZXZXbXcXcXAXxX3XrXrX3XrXtXrXBXcX=XE.x.7.Z i y + c @ v @ m 7.x.8X*X@X@X@X%X*X-X-X-X-X3X-X*X3X3X*X^.K.K.R.*X*X3X3X*X*X*X*X3X3X3X-X3X-X;X-X-X=X*X*X*X*X;X-X",
"@XE.R.R.R.R.R.T.T.T.T.T.K.x.l.x.T.m.m.x.x.m.m.m.m.m.T.T.T.T.T.T.j.x.x.j.j.j.j.x.m.j.j.m.T.T.T.W.R.R.m.h.h.m.M.n.m.m.n.h.h.j.x.m.W.j.m.T.m.R.Q.x.f.x.R.T.T.T.T.T.z.z.L.J.{ H E Y < < W ` K 6.E.R.tXcXyXwXwXyXZXZXqXpX0XeXiXiXiXiXiXiXsXsXiXiXiXsXiXLXiXiXSXiXSXsXLX0XiXiXqXiXiXeXcXK.7.=.M ;.a.a.s.s.n.M.~.W.W.<X>X>X,X1X1X>X>X>X>X>X~.>X>X<X>XW.>X>X#XW.+X+X#X#X>X4X2X#X*X7XwX-X-X@X=X-X3XrXrXBXxXK.q.1.1.d.1.A 1.K.E.R.K.T.*XzXAXNXrX5XtXtX3X*X3X-XP.P.-XE.w.0.e.5.5.7.1.1.,.N k.!.4X6X!.h.p.p.p.v @ @ 6Xm.nXbXbXSXSXZXuXuXiXZXwXmXyXwXmXmXrX3X3XcXmXtX3X3X3X-X3X-X-X3XuXuXwX-XeXeXwXwXwXwX5XrXwX0X-XwXtX2XT.p.j.h.j.f.6.6.q.9.` _ _ _ E g - * p p K C L 7.7.k.j.k.d.d.d.d.d.d.0.0.0.5.9.9.5.] ] ] 9.q.q.9.9.u.q.9.9.z.L.L.l.l.l.9.5.9.u.u.u.u.J.|.|.J.i.u.9.9.5.9.9.e.9.9.u.F.9.l. X&XwXrXrXrX-X-X7XwXwX-X%XP.wX7X-X*X%XP.P.P.l.L.*X#Xf.7.x.R.p.m y N V f p p m S f.L.L.L.*XyXSXuXsXSXiXsXsXiXyXZXZXZXSXZXcXZXtXcXcXtXzX8X8XcXtXyXtX8XE.g.x.k.=.m + i y u i y N 7.m.$X2X@X@X*X%X%X*X=X3X3X3X2X3X3X1X*XE.R.T.K.E.E.^.*X2X2X2X*X*X*X*X*X*X*X*X*X-X*X;X%X*X*X*X%X",
"E.E.R.R.R.R.T.T.T.T.T.T.K.K.K.K.m.m.m.T.T.T.T.m.T.T.T.R.R.R.R.R.Q.E.R.K.x.j.x.T.T.T.T.W.W.T.m.T.m.M.m.x.h.n.n.n.n.n.h.n.M.W.W.W.W.T.Q.Q.T.m.T.f.Q.T.j.x.T.R.R.R.L.z..XF.{ E E Y < < E } ] f.W.R.Q.3XtXrX3XpXwXuXeXeXeXiXiXiXeXeXiXiXiXiXiXiXiXiXiXiXiXsXsXiXLXLXgX;XiXgXiXeXuXZX-Xl.1.=.M :.a.a.s.s.n.M.~.M.W.<X~.>X>X<X<X>X~.~.>X>X>X>X>X>X#XQ.#X#X#X+X#X#X#X#XQ.>X1X#X*X3X7X7X:X-X-X-X=X2XrXxX8X7.1.0.1.Z N ,.7.1.d.K.T.R.5XDXHXGXzXrXtXtXwX-XP.;X-X*XE.g.3.5.e.I 3.5.,.,.=.N h.W.,XW.m.j.x.j.s.v + M ,X!.jXDXBXbXcXZXSXsXqXU.Y.-XiXZXmXuX3XrXcXtX5X3X3X-X-X3X7X3X-X*X;X;X;X;XeXeXeXuXtXtXrXrXwXuXyXtX1Xm.h.a.M.h.h.h.0.y.l.y...E g g g f > d d p j h V L A <.p.d.d.j.j.x.x.x.g.f.q.q.5.I L L L L ] 5.5.] ] 9.u.q.w.z.L.l.l.g.6.5.] 6.q.9.9.r.{ 9.9.9.6.[ 5.5.9.9.9.9.9.9.9.9.u.L.=X7XrX2X#XK.K.E.*X*X@X@X3XrXyX=XK.K.@X=X@XK.+XL.@X#XE.m.h.<.y i ,.q.I [ [ j V Z ,.g.R.P.@X&XZXsXSXZXiXiXsXsXZXZXmXiXyXuXuXyXtXrX2X*X5XrXzXxXcXBXrX3XE.x.f.Z m u i i u u t u c ,.f.T.=X*X@X@X@X@X*X=X2X2X1X1X6X*XQ.E.T.T.T.R.K.K.T.E.Q.*X*X*X*X*X*X*X=X3X3X3X=X*X%X%X%X%X@XE.",
"E.E.R.R.R.R.T.T.T.T.T.T.T.L.K.K.x.T.T.R.R.T.T.m.T.T.R.R.W.Q.Q.Q.R.R.R.R.T.T.T.R.W.W.W.W.W.T.m.m.x.R.W.R.m.m.m.m.W.!.!.M.M.m.x.x.W.T.T.m.f.j.T.R.m.T.R.W.R.m.T.E.9.{ o.t.' Y Y < : < E ' { q.v.0.g.H.K.%X3XyXyXwX;X;X0XiXSXSXZXsXSXsXsXsXiXiXiXuXiXiXiXLXiXqXiXeXLXeXiXiXiXSXiX;XH.g.,.<.M b s.s.s.s.n.M.W.M.W.>X~.Q.>X>X>X#XQ.Q.>X,X4X4X>XQ.>X>X>X>X>X>X#X>X>X>XW.#X>X#X@X@X=X-X=X7X=XwX-X*XtX7X*X1.7.f.f.T.E.R.l.,.1.l.R.2XAXHXAXcXrX5X5X3X3X-X-X%X%XP.g.0.0.5.e.[ 5.5.L L A N k.!.>XM.m.R.!.m.p.Z + <.m.m.W.5XVXAXSXcXuX0X;XU.uX-X0XwXuXyXyXrXE.Y.0.g.l.l.l.K.=X=X3X-X;X-X0XuXeXwX0X-X-XpXrXyXyXyXtX=Xx.p.a.n.n.s.p.7.8.8.0.[ _ , 2 ; > > > g d = p a V S S 4.1.1.1.d.j.x.v.g.l.l.g.q.6.S S L L K L L L L L ] 5.5.5.4.4.4.,.S S A L 4.5.5.5.5.5.5.6.6.5.5.5.6.] [ 5.[ ] ] ] ] 6.q.f.l.v.f.k.p.p.k.j.h.k.h.T.1XnXjX6X>X>X1X5X8X=X+X@X$X#XE.k.Z m m 0.q.V 9.u.p V m A 7.x.E.%X-XpXiXZXiXsXiXiXiXsXiXiXZXyXyXyXwXtXcXZXBXcXcXBXAX3XtXwX#Xz.f.l.L y i i u a a u u m <.p.x.#X9X=X@X@X#X=X*X#X#X#X#XQ.E.R.K.L.R.R.R.K.K.K.K.T.R.R.R.E.E.E.#X#X#X*X*X*X#X@X@X@X@XE.E.",
"E.E.E.E.R.T.m.x.T.T.T.T.T.L.L.L.K.K.T.T.T.T.T.L.T.L.R.E.Q.@X#X#XT.R.R.E.W.R.R.R.W.W.R.T.T.T.T.W.R.E.#XW.!.R.R.!.m.M.W.W.m.m.R.#XT.T.W.W.R.T.T.m.m.Q.>XQ.T.R.W.R.[ E ' o.X.R 9 : 1 6 R ' } { 6.4.0.5.[ w.%XwXyXwXJXsXuXpXeXuXiXsXeXuXiXiXsXsXsXiXiXuXiXSX;XXX;XU.eX0XiXeXuXsX XK 5.q.A 1.*.c s.p.s.s.a.m.M.m.m.M.W.W.W.#X>X>X>X>X>X>X<X1X>X>XQ.#X>X>X>X>X>X#X#X#X#X#X#X#X@XE.E.%X-XrX-XrX=XK.*Xg.*X7.0.T.2XGXGX8XR.0.7.f.T.cXLXGXcXzXzXcXcXtXwXwXwX%XP.K.0.0.g.0.0.5.5.5.P A A m =.x.#X!.W.>XW.k.8.S + 8.7.f.d.x.#X5XcXrX3X-XcXJXSX-X&XwXyXrX*Xg.g.0.0.l.E.P.L.L.f.K.@X-X3X:XwXwXpXwXuXyXyXyXwXwXZXwX@Xx.k.a.h.M.n.s.s.p.<.8.8.] f % % 1 , , > g > = * p V ] 4.q.7.3.1.1.1.7.0.0.f.q.6.q.6.S V L L V S L A A A L L ,.,.,.,.4.,.A B B Z S L L L L L L L L L L L S V V C C V V V S A V m m N *.<.2.2.2.2.2.a.k.a.p.h.m.!.n.p.2.h.W.+Xm.v.f.=.m i   V V ,.,.L L.L.V A A ,.4.7.g.E.-XwXSXZXuXSXsXsXsXiXyXsXZXyXuXyXtXcXtXrXxXcXcXxX3XxXxX*Xy.K B K a t i i p h h h a m <.p.k.R.,X2X$X#X*X#X@XE.E.E.R.R.L.L.E.@X@XR.K.R.L.K.K.K.K.K.K.K.R.R.R.R.L.L.L.R.E.E.E.E.E.E.E.",
"L.L.R.L.R.K.K.K.T.T.T.R.R.L.K.K.L.L.K.K.L.L.R.E.R.E.E.E.#X@X#X#X#X#XQ.R.R.R.R.T.W.W.W.T.W.W.W.W.T.L.T.R.R.!.R.!.R.!.W.!.R.R.E.#XQ.W.m.x.x.x.j.m.Q.Q.T.j.T.1X>Xv.o.Q Q Q 9 6 6 & 2 6 ! Q ' { { 9.] 5.5.[ 5.w.P.&XZXsXyXyXyXyXuXwXiXsXsXsXiXuXeXpXiXiXiXuXY.;X0XXXuXpXiXZXwX Xw.e.1.q.B =.=.c p.<.p.7.7.a.j.m.j.v.R.R.W.W.#X#X>X>X#X#X>X>X>X>X>XW.>X>X>X>X~.W.W.W.$X@XE.#X#X@X@X#XK.E.E.tXyXyXLXwX*X,.q.3XVXGXxX2XT.7.7.d.R.BXHXbXcXzXzXcXcXrXwXrX*XE.*XE.0.1.0.5.3.P I L V A A m m k.Q.W.>X2XQ.7.L L i 7.L x.f.v.E.#X*X*XE.R.K.K.7X X@X&XL.l.f.7.0.d.v.l.E.@XL.v.7.l.@X-X7XwXwXpXwXwXwX:X:XwXwXtXyX=Xc.f.j.h.a.s.s.2.s.p.=.=.,.K f 2 2 1 3 < < G > * - p h L L 6.5.7.5.,.,.4.7.7.4.,.,.6.4.S V V V B B V Z B Z A A ,.4.,.1.4.,.Z N N N Z A A A A V V V V V V m m B B B B B B V A m m N M $.%.%.%.*.$.$.-.2.2.-.$.v v v v v v c x z i x x + i m m u A A L f.l.,.u ,.1.7.1.,.1.q.K.wXSXSXuXZXuXsXiXZXsXiXuXpXpXrXyXcXcXAXBXxXbXVXxXxXE.L V a p d = d * * d h h d u x <.p.<.p.x.!.#X2X2X#XE.L.E.E.L.E.L.L.E.@X@XE.K.K.K.K.K.K.K.L.L.K.T.T.T.T.K.K.K.K.K.L.L.L.R.L.E.",
"L.L.L.K.K.K.K.R.R.R.R.R.L.L.L.L.R.L.L.L.L.R.E.E.E.@X@X@X@X@X@X#X#XW.T.x.x.T.W.Q.R.Q.Q.Q.Q.Q.W.T.E.m.x.m.R.!.W.W.>XW.m.m.R.W.T.x.Q.Q.T.m.Q.>X>X1X>X6X6X1X6XzX4XL.t.Q 9 6 : 6 8 8 & q R Q Q ' }  .[ [ [ P L ] 0.w.w.L.*XwXyXyXyXwX-XpXuXiXsXZXZXSXwXiXsXiX XuX-X XpXwXSXSXyX%XP j P 1.m N A m =.<.7.<.<.8.j.m.m.x.x.x.m.T.R.W.W.#X>X#X#X>X>X1X>X>X>X>X>X>X~.~.W.!.E.L.E.@X*X2X2X2X8X8X3XcXrXtXZXP.4.7.@XrXVXVX2XE.x.1.1.x.#X8XVXBXbXzXrXrXwX-X*X*X*XE.K.f.1.1.1.1.3.L P P A ,.1.A m 8.x.x.R.#XK.5.K K a 6.L y.l.l.T.T.R.#X1X1X#X#XL.l.z.q.4.,.f.v.f.m.m.x.x.m.c.f.7.7.f.R.*X3X7X-XwX-X&X%X%X&X:XwX@XL.x.j.a.<.-.&.&.:.<.<.Z m V j 3 : : : : : 3 Y , , g - * d d j V L 4.L L 6.6.4.L ,.4.4.6.4.S B B m B Z A Z Z A M A *.A A A N c M A M N m Z A V A A A A A A A Z B m a a a m m N N M $.%.%.%.%.$.v v v v v x x z b x x x M M x . b v v c z i i + ,.f.7.f.m.p.N A ,.,.<.1.7.7.7.0.0.-XZXZXLXpXZXiXiXZXyXuXyXyXwXrX=X3XcXAXxXxXxX1Xv.,.i a h d k f d > * d f d F F u ,.<.<.;.2.h.M.>X,X#XE.L.L.L.L.@XE.L.L.E.E.E.E.L.L.L.K.K.K.L.L.K.T.T.T.R.R.R.R.R.R.R.L.K.K.L.L.",
"E.E.E.R.K.K.L.P.R.E.E.E.E.R.R.R.E.R.E.E.E.+X+X#X+X#X#X@X+XE.E.E.T.m.m.R.W.W.W.W.W.#XQ.W.W.W.W.R.W.E.R.W.W.!.W.#XR.M.m.!.>X2X2X>XE.2X2X8XvX8X>X#XW.4XjXjX5X2X2X=X{.X.@.R q 0 ) ) 6 @.Q ! Q E E ` { [ K L 5.9.5.5.g.l.K.g.g.L.2XwXSXsXyX-X*X@XP.H.%X7XwXwXP.wXH.H.cX3XL.1.1.0.L L N A m m Z m N ,.8.8.8.7.7.f.j.x.v.v.x.x.m.m.R.R.E.E.E.W.#X#X>X>X>X>X>X>X>X~.W.W.L.@X@X+X@X>X1X>XW.T.6X8X#X-X-X0.a x.8X2X8XxX#Xx.k.7.p.x.#X2X8XxXzX5X5XtXtX3X*X%X@XL.0.P 1.5.3.1.1.P L L ,.0.f.8.B 6.q.q.q.l.u.[ _ f d { [ L q.y.l.y.k.p.<.=.,.7.,.7.0.0.f.p.<.<.<.;.*.&.*.*.&.Z Z Z A ,.q.l.E.@XE.*X7XtXtX-X Xc.f.h.h.a.p.-.&.&.<.<.8.4.V V V f 3 9 9 8 4 8 9 T 3 ! | > = d p p j V V V L 5.] C L 4.6.4.4.4.S V Z M Z Z &.Z Z Z &.Z Z &.Z M M N N A A m m Z Z V V V B V Z Z N m m m c c c c c c M M b #.#.$.%.%.&.Z Z b x z c c c c Z Z m c c c z X @ z z x y . + i y m M c x M =.=.=.,.7.d.d.0.1.K.wXZXLXyXPXLXZXSXwX-XSXZXrXcXSXrXzXbXbXDX5X7.<.=.B V t * g > 2 ; > l d t F h m =.=.=.-.-.2.a.n.W.>XE.c.L..X.X@X@XE.E.E.E.E.E.E.E.E.R.R.L.L.R.R.R.R.R.R.R.R.T.R.R.R.T.L.L.R.E.",
"3X=X*XE.L.K.K.P.E.E.E.E.E.E.E.R.E.E.#X#X#X#X#X#XW.W.E.E.R.T.m.x.R.W.>X5X5X2XW.m.#X#X!.m.m.!.Q.Q.W.W.Q.#XW.M.!.#XW.,X8X8X5X2X5XjXvXxX#Xf.7.<.,.p.h.7.=.,.=.A 7.l.t.~ @./ q q 0 0 : R ! Y Q Q g E _ _ [ [ ] L 6.q.7.g.K.x.f.j.x.T.@XK.g.g.l.K.K.l.l.H.w.w.P J.[ u.l.7.q.g.f.L a ,.m Z A m V B m 4.,.,.,.=.S ,.7.p.j.v.j.j.x.x.m.m.j.v.v.v.v.x.R.W.#X#X>X>X>X>X>X#XR.=X=XE.K.R.W.m.m.m.jXxX=X7X%X5.1.R.2XW.W.m.,.7.7.x.m.h.m.>X,X1XR.T.Q.5XrX*XP.H.5.l.f.1.1.1.L 0.,.A N N ,.f.l.q.S 6.r.9.9.t.t.| W * > '  .f 9.l.q.5.4.1.=.A Z A A 8.,.Z *.*.&.-.-.b v &.:.&.&.&.:.*.=.,.7.f.T.W.#X#X+XE.L.l.f.f.h.a.s.s.s.8.7.p.8.,.L C d - , ; : 0 / R 0 R ^ R 9 X.O.G ; g g k _ K h p C ] L h B ] 5.L S L S V m c c Z M b b b M b v b b x c Z m N A N m V Z B S A V Z A Z m m M M M N Z &.M M b $.$.%.%.$.$.#.b b c c c c c c c c c c u i u c n @ n v z z x i c + x M v x v # *.*.*.*.*.<.p.f.K.d.0.H.3X-XPXLXPXLX%Xl.rXcX3XBXbXBXDX5X1.,.p.<.M c y u t h k * % = l g d * t V a m Z *.<.-.*.<.2.m.#XE.z.l.J. XE.Q.#X#X#XQ.E.E.R.R.R.E.Q.#X#X#X#X#XQ.Q.W.W.R.R.R.R.R.T.T.E.@X#X",
"#XE.#X#XE.R.E.#X#X#X#X*X#XR.E.#X#XE.+X#X#X#XW.v.m.R.E.R.m.m.R.#Xx.h.a.p.<.*.=.7.<.<.<.=.*.;.p.m.h.h.a.p.s.<.<.<.m.j.a.7.=.M x + u i i m A ,.1.<.=.,.,.,.S A V h ` ! 9 @.( / 0 9 < < U g E E Y ' _ K [ 9.9.q.0.4.7.p.p.j.m.m.j.d.g.g.d.q.d.d.d.f.0.f.g.9.] ] [ 5.4.f.v.0.,.A A Z V m m m m a m V A ,.4.7.6.7.8.8.8.k.h.h.m.m.h.k.f.T.x.l.c.x.f.x.T.E.R.+X>X>X#X$X+X@X@X#XW.M.T.!.6XQ.#X5X#X0.P L R.R.m.k.<.=.,.<.<.2.a.h.n.n.n.m.g.K.L.K.f.K.K.V P 0.w.0.5.5.[ P N *.N <.x.l.6.q.C { o.| O.X.^ T < , G Q W E ' i.{ ] L L A S 4.8.j.,.*.&.&.b b n v #.#.#.:.:.:.%.b *.<.<.<.s.m.!.m.x.h.j.k.d.7.8.s.s.s.2.2.s.p.8.6.C k > , , 2 & : q / ) ) R / ) / 3 T R 1 1 g > k f - k { [ j p ] D t h D F u i i c M c c M &.&.M b M &.$.v x c x m N m m B A A B V B m B B m x c c c b M M $.$.$.$.$.$.$.$.$.$.b z v b x x x z c x x c c c u z #.#.V.@ n n z z x x x v v @ @ @ M <.=.M M M &.<.*.,.P V d.E.bX3XrXP.H.=XxXxXxXBXGXDX#X,.*.1.*.@ x c c u u h f > %   ' d = = * h V B m m M M &.=.*.*.=.,.4.6.y.z.E.!.!.W.W.!.M.T.p.h.m.R.!.!.M.m.E.m.x.h.p.p.p.k.R.R.W.W.#X#X=X2X",
"*X*X*X2X*XE.R.R.E.#X*X2X2X*X#X#X>X#X#XM.p.<.7.<.x.k.<.,.<.,.A M M c M A M c c M =.=.*.M b M *.-.%.%.-.-.<.<.=.=.N M m m m N m m B B B B V B m m B V B a h V C _ g , < q / 0 q 9 < > ` } ` E g E g g H [ [ 6.6.4.7.<.,.,.<.7.p.p.,.1.7.7.f.f.g.g.g.f.q.I L [ [ ] 5.5.6.4.L V m a S s i a V j j K h B V L L 4.8.8.6.8.8.,.<.7.a.f.7.0.4.4.f.f.l.@XR.E.+X@X+XE.E.L. X@X@XR.E.>X6X1Xm.T.T.g.,.A 5.K.k.p.7.<.<.<.<.<.<.2.s.h.n.n.n.h.K.K.l.H.g.l.H.3.I P I e.5.P K P ,.<.<.h.E.c.9.{ E > , ^ Z.) q 4 & 1 9 ^ Q Y Y ' o._ k ] 5.q.q.6.m x x c x v b v n n #.#.n n n v #.%.-.-.-.s.n.M.h.h.p.p.p.p.p.p.s.s.s.a.a.h.8.L L d - % 2 8 8 q q q 0 ) Z.) 0 4 : 2 : T 9 Q X.Y > E E g g k _ { j h t h h t h B V F y i + + z v z z z z @ . + x c x u i i u m V L L A V B B m y z x x x c v v v @ @ n v #.v @ @ v n #.#.v v $.v v n z z x z z z @ @ @ n n n z z z x c b v # v $.x A M c M &.N *.N ,.,.P A V 5.L P.E.=XtX8X#XE.2X#Xg.,.,.1.N m *.c c m m h h f * = % o.k * = = t C C C V B m m c m u m V L L _ ] ,.*.M M M $.*.<.2.2.2.2.2.s.a.k.,.1.7.p.p.p.p.p.m.M.W.#X#XW.E.E.",
"x.x.x.T.R.R.T.R.#X#X*X*X#X#XE.T.7.<.<.<.*.=.<.<.A m y x M A N c m x c M M c c M c c b b c c b M v $.$.%.*.*.M N A Z m m m B m a t t u u u u m B B B h V C _ _ U g > : 6 9 9 9 9 > % d k g g > 1 g > f k h j C V m m m m m m m m B B V A ,.1.4.7.4.L V V K { { ` K K C C V j a a p f K H f p f H k j h h V C K L L S ,.,.S =.8.8.0.7.L A ,.L L q.l.q.u.l.9.y.J.z.y.y.q.q.l.c.x.p.f.d.7.,.L 4.e.f.7.<.=.=.<.<.<.,.<.<.s.h.n.n.M.M.x.g.1.7.0.L 1.I g.] K [ 9.[ H j N *.p.R.c.9.6. .Q 1 & 0 q q w q & : q / ^ 9 9 T X.Q E ' { { _ h i y c x z z x z n n v n @ @ z n @ v v v n $.;.2.s.s.s.s.p.p.k.k.s.a.a.s.<.,.L K = = 1 2 & 0 0 / ) q & 5 0 / w 0 8 & % 2 & q R : < Y g > G ' ` E f k d k C k ] L B u u u y + . . z z v z @ . z v y y y u u u a B B B m u u a u y c c M M M M v v v # @ @ @ @ # v @ #.#.#.@ n #.@ v n v v v v x z @ @ n v x z @ @ x x y x x @ x c N ,.=.N A N x y x N N ,.a i a a m B P 7.f.f.l.l.l.,.V V A m m Z c c u u h d * = % % o.H * = = * * d k h t t u a B u t h D V h h c v v $.$.v x @ v M $.*.-.-.<.<.p.k.k.p.p.s.2.-.h.h.m.M.m.x.x.x.",
"1.,.,.,.1.7.d.v.f.0.7.,.,.1.1.A *.m m Z A =.,.A A A A Z M m m N Z c x x x x x c x x x c b M M M $.$.$.$.M M m c i i i i t a h a D V h t t a V S ] C C C _ ` E g g > 1 & 6 q q Q ' = t k f E Y < < < g g f f V h a m B B m a u a a a s s a V A A L K C C _ ` E f H f d f f f f j - H ` g , G W Q ' E g f k j h h C h C ] S S L L 7.7.7.8.7.6.q.y.9.K _ _ k } i.r.[ ] [ 6.5.] L 5.q.1.V K 5.q.5.V 4.,.A =.,.<.<.=.*.=.<.p.a.n.!.W.K.K.0.0.g.1.L 5.0.0.] J K ` H f a N g.E.5.j ` X.R : 8 7 & 7 e r 7 8 q w w 0 q 0 ^ ( +.X.! g > = p C V u i i z z x x x x x n c b v b v v v #.&.-.-.;.s.a.h.h.k.p.h.2.&.&.=.,.V t K _ | Y : 8 8 0 C.) ( ) C.) ) / w q 8 : 8 / ( 9 < < ; 1 Q | g % > g d k H k f = t i = . . + z z . . @ @ X . . . + + + i i i i i a a a u m m m m c m M M M M v v M v @ @ @ x x v #.#.#.#.V.%.%.@ @ v v v v v v z v v v x z @ @ @ *.m y x m m x + i a V A A A Z m y a i K a J J f V u + t L q.q.5.l.5.V h h j a i t i i = t * = % % % ' g = % * - % > H d * f _ [ ] C h p h t F h Z M v v v x v v @ @ @ @ @ + . .   + + + x -.s.2.v v v c m m A S ",
"<.*.M m N B Z A N m u i y c m c =.m m A A S L S ,.4.4.S B u a m c x z x c c b M M b b b b b v x v v v c c m m h h a t d k k k k d F t t t F C ] ] C d * > < < < g = 1 & q / R ~ ' = = * = ; 1 1 1 2 1 < > f j d h h h t i t a j h h h h h j V V h j k H E Q ! < 3 3 Y T Y G G G T G 1 , T X.+.( T G < G Y g g g g > * d d h j h a A L A B V C d  .k g G , Q X.E H _ _ k k _ r.i._ K H H j j K L S A V A A A Z B Z m Z Z =.<.k.v.g.K.d.d.l.q.5.5.V e.G. .J G W ` K P q.y.j * g R 9 & & 7 5 r e 7 8 q r 0 w r q q q / C.) 9 : 3 < , H f - j j h h h a u u B B B m M M M M b b $.$.$.&.2.s.p.7.<.<.=.-.,.,.,.L 1.5.e.| | T Q Z.].OXOX].Z./ / / ) ].8 0 / '.].[.].^ & 1 , Y Q < % % , E E E g > - O = t a t i m Z b z z @ v b M v z M x z x y y c m c m m y y x c x M N N M M M $.$.v v M N A m y + # @ @ @ v -.<.v @ x x x x x x y c c u y i i i u 1.A V P L V m p t d C C h h a a a j i j d H G * = h V K ] 6.9.{ { p * H K k d * = * * p d * = O ; ; Q , % % 1 1 2 1 , ; ; Y ' ' { ` l F t i t h c z @ @ z z x v b b v z x b $.&.*.=.Z x x $.&.$.&.&.$.M Z S 4.8.",
"*.M c c c u u u A m m m m c M M V B V V a s S 6.S V B B V B B a c c M Z Z Z M M M b b b b b v x b v x x c a h h d d > * ; = % % = * * t t F h l l d * = 1 < : : , 2 6 8 0 / : < g = d *   % % 2 & 2 & : < , f - = * p p p * - - f H _ _ k d p p - > > , < 9 9 9 4 R ) +.) ^ q 9 q : 4 / ) 0 8 q 4 & & : : 1 1 1 1 , ; = d g * t V L 4.L a h j p ` g Y ! R X.( 9 G k > d o.|.D.G , g G G f p j ] h h h B h B B V V V m m m m A L L 0.1.1.5.5.I K K K ` O. .! Y Q _ H H g > 1 6 9 0 & & q 7 7 7 r r w w w e r r 7 e e ) w 8 q w R 3 T 3 < W W k E _ k j k K K k h m c c m b c x x v b &.*.*.*.,.,.N =.1.1.1.0.E.rXsXXXF.G.D.{.+.+.^ ^ ^ Z.].'.) w q / ].[.[.[.'./ q 9 T ^ ^ 3 1 Y < Q Q g ; % > > f k h t u B A M &.M v v $.*.&.M M v b &.*.Z Z A M Z N m c m b v M M N N *.*.=.=.<.=.,.,.,.A m y + + + + # N A y y m m a a a m a s t i i u a m m L L 5.] K p p f ` ` { _ p = * = p j k E g E ! >   * j K K _ _ _ f - g ' ' o.' ; 2 > g E E g 2 % % % Y 1 % % 3 9 : 1 2 2 9 ( ~ Y Q E U l F i t u z @ x b b x @ @ + @ z x b M &.*.M N M x x v #.v #.M M M M M Z A ",
"@ @ z x c c m A =.m x c x @ x Z L K ] K t O t j K C h h h h t i y c M M b c x x b b b b b b M M M M M m m h h d > > < < , , , g } } C l d t = = * * > < 9 9 6 & < ; ! 9 8 q 2 1 W _ 9._ k E T R q 8 q 0 R Q E g > k ` { { ` g g E W ' ` f * = * E E Y 3 8 8 : & q ) '.C.) ) / q 7 0 ) C.r 5 & 7 7 & & & & & : 9 : Q 3 2 U g * * i i B L a t f k H Y 9 9 R ) / 9 ! E Y o.}.OX( 2 1 < < < g H k d p d d h h h j V V V V B a a a m A L P P P K I j f = = f ! T 3 3 W W g ; 1 : 6 6 / 0 r r 7 5 q ) e e r r r r r 7 r e S.e 7 7 w q q / 0 0 X.Q 3 T ~ Q W ! W E G f V B m Z &.Z M M b M Z A A A ,.1.0.,.L 0.*XtXcXyXwXJ.Y.I.|.F.| Q ^ 0 0 / Z.].].].'.[.OXOXOX[.'.C.+.) ^ ~ ( ~ T ~ 1 Y , % % % g g ' g * t V 4.f.M.a.s.2.-.<.2.<.-.:.$.b %.&.M c M ;.<.<.<.<.<.2.<.A *.,.<.<.<.<.<.m.h.7.1.4.4.1.L V j j m s j K j j K I G J H J j d d p h V L L V L L [ [ _ G G W ' E W E > > k k f g H W Q Y Q < > d k E ` ` g > , G | X.Q +.( % ; , Y Q W , 2 % % % Y 3 & 2 w 0 9 8 8 0 ( +.@.! 9 < g g h t i u m x + @ z c M *.7.p.p.p.7.=.Z c Z *.*.M b v v v @ z x x x y i i ",
"+ + + i u B L 6.,.a i u y i m 6.K k _ _ j * p p p d h h h h h B c M Z M b b Z &.b M &.&.M M $.M M m m B B h f d > < , < : < 9 ! g d - * * * - * < , < 6 9 q q 6 : 2 0 6 5 8 2 9 Y E H d E X.0 0 8 & 5 q 0 ( Q Y '  .o.o.o.| Q Y T Q Q Y ; % ; < , < 9 R ) ) e r r ) '.e e C.) e e '.'.7 & 7 e e r 7 7 7 7 8 w (.0 ].q % : < ; E j t L y.H % 2 < 9 R 8 & 8 0 q 6 : < X.OX].: 2 8 & 9 3 2 2 < , 2 - p * t p h h h a h h B h a a a V a a B y t V p p f f - , Y | X.~ Z.( : & : & : q q 8 q / C.e q w r 7 & 5 q w r 7 e '.S.7 7 r 7 8 w q w ) R & q R R R R T Y 3 , j s t a B B m B m Z =.<.1.1.1.1.A 0.*XcXAXbXcXZXP.5.I 5.9.` f _ | ~ | +.+.+.+.+.+.].OXfXfXOX].'.C.C.) R ^ ^ R ^ q T 1 2 > E  .` k d [ :XJXGXAXGXHXHXGXDXbXvXjX4X<Xn.-.M x @ v *.,.<.<.<.,.<.<.,.d.f.j.T.R.R.T.T.T.x.d.q.q.q.5.L K j K K j s J K J _ ` J J E W G H k k K ] 5.] K [ K _  .D.D.{.{.+.Q ! g ; > G g ' g g Y Q ; < 2   % G X.O.o.' E E > E X.Y : : 2 1 : 9 T < 2 % % 1 < ( ^ 0 : w q & 6 R ( / 8 : : < > * - F u u i i z c *.<.8.p.f.j.j.f.k.p.p.7.<.p.7.<.;.M @ @ v z z z i i i i t ",
"= d d > * l U U d C C C _ j d H E E E g f k G - d h s a h a a A *.&.$.M M Z Z Z Z Z Z M &.$.%.Z B B h h h h f f g > > < ! T 6 < Y G G ' i.o.W W Y T R R R R T 9 ( 0 / ) 0 9 R R 3 ! Q R ^ / e r q 0 q 8 9 / +.O.D.|.I.F.F.t.o.Z.q 0 0 0 q : : 9 0 R 0 ) ) r `.r e ) r r e e e `.[.r 7 7 r `.e 7 7 7 r r e ).e e e e q & % % 1 J K = f Q 4 % & e e '.7 e 8 & 5 0 & '.[.'.& & & 7 & 5 4 4 9 3 : < f d h a a a u u u m B B a p p d t p a a h h p = = = * d g f g X.R ( +.( 9 6 6 6 8 6 : 8 8 4 & & q q q & 3 : 0 w r e S.r 7 7 7 r r w w / 0 5 8 R R 8 9 R ^ 9 : 3 - k * - > k p C A 1.<.<.<.<.,.<.A 6XAXcXGXrXrX3Xl.e.9.w.9.[ K K e.5.[ 9...t._ G.| t.' Z.OXfX].'.'.C.) w 0 0 0 / ) w 9 T ' 6.8.7.S 5.7XJXBXcXAXCXCXVXGXHXGXDXGXLXPXHXGXbXzXrXrXrXE.E.K.f.g.T.E.^.3X-X;X%X%X*X*XE.K.*X7X7X3X8XxXBXtXcXBXtX%X&XwXu.9.` t.t.G.o.f W K H j [ j [ V j [ _ i.}.}.OX].Z.+.' g g g E W G g E > g E > > % 1 T X.X.X.X.' E _ i.{ { o.Q % 2 : : R 9 : 1 % 2 & 8 ( q / q 0 : 9 : < 9 : 2 : g , * f * a i u m y M =.,.8.f.v.x.x.$XR.W.T.j.W.T.m.m.h.p.Z + . . . u B h d > > > ",
"Y ! ! 3 < G g > = * f `  .E ; % g G G > % = p d p a B V S A B =.&.:.-.;.=.&.Z M Z Z Z &.&.:.&.Z S D D l j h f d ; > < Y 3 < 3 T T Y Y | G.i.o.+.^ ^ ( ( ( X.+.X.) / ( ( ( X.+.o.~ R R ( ) / e / / ) w 8 q / +.O.t.G.|.|.O.O.{.Z.0 w e r w e e 0 0 ) ) C.'.'.`.r 7 ) '.e e e e e e `.`.`.r 7 7 r r e `.`.).`.e e e 7 7 e '.( Y ,  ._ 3 R C.e 7 7 `.'.r '.r & & q '.'.e r & 7 & & & q q 9 9 3 1 2 f * = = a B m i i u m h a d d f d d h h j C C H d _ H - ; > g Y ( ( ) ) R : & : 9 : & & : 8 q w & ) ].T T G T 4 w r S.`.S.r 7 7 8 / +.) / q q 9 9 q 3 2 2 : < 1 ; d ; > ; f - j L 1.1.*.<.1.,.,.1.zXAXbXcX3X*X*X#X@X@XJ.9.K K 9.w.K.L.L.0.0.P P.7X:XXX|.}.].C.) [.'.) 8 & 8 w / './ q 9 k B M b Z L.tXAXAXBXcXBXtXtXcXbXcXxXcXbXcXAXHXHXHXAXmXmXGXLXLXLXSXSXmXuXuXuXyXyXcXmXZXSXSXGXHXHXHXHXHXGXGXSXAXAX7X:XtX XJX:XJ.XX:X|. .{ i.` K f K j [ K G _ D.{.].].].].O.' ' | ' ' Q E > %   = g g ` U ! ( ( @.R X.X.' r..Xz.t.' Q : ! R : 9 9 R 0 & % : 0 ) 0 q & 8 5 R @.( R : : < < G H ` k K t i i i y x Z 1.q.0.5.,.d.0.d.d.0.T.j.j.j.p.=.x + i u i t l U G < 9 R ",
"Q Q Q ! ! ! < = * > K { H f , - > - - d d d f t B V B B A B N =.M $.*.*.*.*.=.<.*.*.=.=.=.=.*.A V D D D k j f d d > , g G Y Q | Q ! ! | i.t.O.i.X.( ( ( ~ ~ | | R 0 ( +.+.{.{.O.Z.Q 9 ( ) / / ) / ) w 7 7 ^ +.Z.G.D.:XqXD.D.}.R 9 w / 0 w ) ) / 0 0 / 0 r e r 7 7 0 e ) ).'.'.`.`.'.[.`.e r r `.e `.`.).).e 7 & & e '.'.'.].O.` _ D.( / ].'.7 7 `.'.e '.e 7 7 e [.'.w 5 & : 3 q R w q 4 < , > - - p p a a a a u a a a j j f f > k d p - * = * d f E E < < Y 9 9 8 : 4 0 0 8 9 @.q 0 R R ^ ( / w C.w Z.fXdXA.O.}.[.[.'.e r e ) C.}.oXOXZ.+.Z.{.{.{.{.D.| | O.O.| = = * , > g E ` L 5.,.*.<.1.,.,.k.bXbXAX3X2XE.=X*X=X=X&XL.u.L.=X@X=X7X=XL.H.w.=X%X X XG.{.+.C.[.[.[.) 7 & q ) ) ) 0 9 > * u c m A tXSXBXHXSXtXSXZXBXZXAXZXbXbXZXcXZXGXSXAXAXSXGXSXSXGXSXSXZXZXyXyXyXiXSXSXZXZXSXAXSXAXBXAXAXVXBXGXBXBXSXtX:X:XL.@XJXaX X9.9.J._ 9.K K j ] V L K [ F.:X|.+.Z.Z.Z.i. .O.D.O.Q Y G g % % Y ' W o.' Q @.R T R X.i.{.XX:X:X|.X.+.( ( ) 0 9 : 6 q 9 / 9 0 / q 8 8 / ( q @.( 0 8 R +.( Q X.' > d O = h A B y + i s a s L q.0.q.d.d.x.g.7.1.A u i i c V h t d E E < 6 @.",
"Y Y T T ! ! < = * * h f = % > f f p p p = O t a u m y i z z + c p.p.p.<.=.*.A *.=.*.*.A A A A A C D D C k f d d - > > g E W W ! W Q ` | t..._ W Q Y Y Y Y J H W T T Q O.+.D.{.|.{.' G T ^ R 0 / 0 e q & & ^ +.+.D...XXaXXX|.D.: & q / 0 8 0 / ) ]./ ].].[.[.e '.OX'.'.[.[.'.'.'.[.'.`.`.`.`.`.[.'.'.`.`.[.[.'.0 8 ) `.e e ].O.J ! {.].C.'.`.r 7 `.'.e r r e '.'.'./ 8 4 < G ~ O.Y ; % ; = O = - j K [ ] V a s a a p p f g g < , - = = d f d f E E G < R +.) / ( ].Z.+.].].+.].{.].OXoXoXoXoXOX].C.) ^ +.XXXXD.| ( ].[.C.) ) X.~ {.|.XX{.{.{.{.{.oXF.o.O...`  .F.i.` E E > > f d P ,.,.,.,.N A 1.Q.AXbXcX3X*X#X2X#X@X*X2X7X7X7XtX=X*X=X@X@X@XL.%X7X=X%XF.X.: 4 q ) ) e 7 7 r / ) / 9 > - t a Z =.f.BXGXAXHXGXcXSXSXZXZXAXAXZXZXZXGXSXAXcXcXbXAXGXSXSXSXSXSXSXLXLXSXZXSXSXSXZXcXZXSXSXAXAXAXAXAXBXtX8X8XBXtX=X&Xu.L.7XwX:X X|.F.K [ ` K [ [ L K 5.9.J.:X|.| | X.+.O. .t.|.D.| | | ! , E o.' E ' g Y Y 9 T Q +.{.|.|.oXXX{.( (.) e / R / / ( / / / 0 0 q 5 8 q 0 0 / / 0 8 6 / ) @.( ( : > W f = % d h h t = = s a O t y a a a a t a a u i i u B F D t d E ! < : R ",
"; > < Y Y Y < * d = = p = - > * d i t h V V V a u m c x x z @ z   + m =.<.<.,.=.<.,.A Z B V L ] K C k k j p * - = j  .t.r.' ` ' ' | ` `  .` H H H g g G E _ [  .o.| o.t.t.t.|.uXXXF.' E ! Q R 9 0 w 0 q q ^ +.+.A.G.;XsXdXoXD.O.1 < R R q 8 q / / / ].].[.].e [.[.'.].OX'.e ) '.e e `.`.`.`.`.'.[.'.`.`.[.[.Z.Q ~ ) '.[.'.) Z.XXOX[.'.[.[.`.`.7 `.`.e 7 r [.[.[.) q 4 q +.Z.{.|.F.u.J.L.l.u.i. .K G f f j f p = = = * > < 9 9 3 , - > J ` J G T ~ Q R / C.C.) ].].Z.+.) ) +.+.+.].].].Z.Z.].].Z.) ].Z.~ D.aXqXD.Z.Z.Z.Z.X.A.|.;XqX&X XI.I. XqXSXJX:X.X&X&X.X:XJX.X{ E G > ; f f j V P 1.,.y N x.bXGXbX3X6XT.*XQ.2X*X#X*X2X2X=X=X2X*X#XL.@X=X@X*XE.P.L. Xt.| ^ ) w q 7 7 7 7 7 w ( Y d p a m M M 2XBXSXSXGXAXZXAXZXbXbXZXAXZXZXSXSXAXZXAXSXSXSXSXmXZXSXSXSXSXSXSXSXZXZXSXSXSXSXSXAXSXBXtX7X3X3X2X2X8X3X8X8X7X2XK.5.5.@XtXSXJX&X` F.9.K K ] 5.l.=X@X&XaXqXXXXXoXqXsXaXdXdXXXo.W G Q T Q | | O.o.G Y Y T Q o.+.D.{.{.|.|.{./ (.'.(.'.( 0 / ].(.( q 8 q 0 / / ) ( / ) q 8 8 8 / ) ) +.].R ( X.Q Y g = f ` ` K j a p s s a y i t t t = i = = t h h t l l k } ' Q ! ! ",
"2 ; > < > 1 ; = f t t p = * - - p t a B V V m u =.*.x . . . . . i i u c x x @ + x y i O O O * d d * * p p * * d C [ 9.y.y.u.i.t. . .` ` 9.9.5.9.9.` _ ` {  .9.u.r.t.F.J.|.J. XtX:X&XJ.{ ` | | T R / / / ( +.Z.{.}.uXsXsXsXXXD.}.g > < 9 q q q 0 ].].Z.^ ) ) ) [.8 q / / ) C.C.w 7 7 r `.`.`.`.`.`.'.'.`.e e ( | +.^ r e [.[.oXoXOX[.e [.[.`.`.r `.`.`.7 ).[.[.'.) ( +.].OX}.oX:XwXtXcX3XP.:X:Xt.t.t. . . .e. . .f , , < 3 q q q G G G W Q G 1 2 1 ( Z.) ) C./ / R ( Z.Z.].{.{.].{.{.{.Z.+.Z.D.Z.Z.].{.XXXX XXXqXXXG.}.qXoXI.&XZXBXyXBXJXSXaXtXaXBXtXtXaXZXSXJXLXLXqXoX{.o.g G f j K 5.d.7.N 3.3XAXbX5XQ.1XT.2XE.*X#X#XQ.R.E.#X1X2X2X3XR.@X*X*X3X3X*XE.-XG.O.W T 0 5 5 7 7 7 7 R ! g h m M c z + GXVXSXHXSXAXSXZXZXZXZXSXSXAXSXGXZXZXZXSXSXSXSXSXSXSXSXLXLXJXSXSXmXiXiXZXSXSXSXSXSXGXAXxX3X3X3X7X2XrX2X2X2X7XrX=XL.w.L.5.9.7X:X XJ.[ L a L.g.7XGX@XP.=X&X&X:X:XuXF.|.XXXXD.| ! G Q Q | Q D.XXt.E ! E ' +.O.O.o.i.{.XXoXoX( ) '.[.OX].q 9 0 q @.R 9 R R ( R ( ( +.0 & & 0 ) ].[.OX].].) ].].].OXoX{.|.oX:X:X:X Xl.q.5.I a i p = t t t = = i u F t l k U E ' | Q 3 ",
"2 ; ; ; ; 2 ; * p h p p p p f ` &X8XtX@XL L K.2X2X>Xm.p.p.p.s.<.L V m m N *.=.,.A A A B h d f k * = = * * - d C [ ] V V ] q.u.y. . .[ [ l.L.L. XL.u.9.q.u.q.q.q.[ F.J.J.@X@XL.@X@X*XL.9.[ r.t.| Q R Q ( ( | Z.{.|.iXsXiXuXXXD.t.f f > < 9 0 0 0 ].}./ R ( ( ( ]./ ) / R ) ].) q e 7 7 S.`.`.`.`.S.`.'.[.].OXOXfX{.OXfXOX[.fXdXfXe '.).[.`.r `.`.'.`.`.r `.[.`.`.'.].OX}.}.D.oXqXaXuXwX&Xu.%X:XF.t.t.G.D.t. . .O.| ~ ^ T 0 0 q 0 9 3 3 T ~ ~ G 1 , O.].C.C.C.) R X.+.Z.{.{.{.D.D.oXoXoXoXoXXX|.|.fXdXqXqX&X&XP. XsX:XXXXX X X7XGXBXcXtXrX8X7X7X7X*X3XrXBXSXHXSXtX:XXX.Xi.i.g f H K ] e.g.g.d.R.bXbXrXQ.Q.Q.Q.2XQ.R.Q.Q.Q.R.Q.1X5X#X>X2Xx.R.R.R.Q.2XE.%X;XJ.F.o.W R 9 5 7 r r 0 / < d a M M M M N HXAXAXSXSXAXAXAXcXcXbXbXcXtXcXZXSXSXSXmXyXmXZXSXSXZXmXZXSXSXSXSXiXSXLXSXSXSXSXSXBXZXcX8X2X2X3X7X5X8X1X2X3X2X8X7XxXL.L.=X*X Xu.L u.V K a =XL.8XVX7X2X7X=X=XtXtX7XF.XXqXXXO.' ~ Q W | | ! D.{.E G | ' ' | | ` | i.t.F.F.XX+.Z.].OX].].( ( R : 9 < @.( ! Q < ! Y Q / q 0 +.].(.+.) ) @.9 OXfXdXfX+.+.{.XX:XqXaXtXtX3X#X@Xq.[ [ j k h F t i = = i u l l d l k E U > ",
"- ; ; > , , f f d j j I L. XI.XX X*X3XrXcXAXZX3X*X2X1X1X5X6X!.f.7.L A A L ,.,.*.*.=.L K j d > > k d - d d d j _ K ] 5.5.5.q.l.l.[ [ [ q.@X=X=X=X@XL.l.z.z.g.g.x.l. Xl.5.K.=X#XR.v.L.z.9.] 9.i.t.' W ! ~ Q G J ..t.-XZXSXJXJX:Xe.f K H , < R ) ) 0 ( T }.dX{.+.{./ ( R R ( / R ) ) ) '.[.[.`.`.`.`.`.e C.C.].}.}.fXOXOXOXfXOX) & 7 `.).`.`.r r `.[.`.`.r `.'.`.`.'.'.].) Z.O.{.|.XXt.F.XXF.J. X|.XXXXXXXX:XXXD.| Z.X.( ^ w w w w R T 3 3 T T , O {.{.O.X.Z.Z.Z.Z.D.+.D.{.{.D.F.|.XXXX&X:XqX:X:XqX:XqX&X-XwXSX3X%X:XuXuXuXyXZXcX5XrXvXcXxXxXcXcXrX*X*X*X3XxXBXcXrX@X.XXX{.{.f - H H [ 0.q.l.R.3XbXbXzXQ.2XT.Q.Q.Q.Q.Q.Q.#X#X#XQ.W.1X1X5Xx.#X#XQ.R.1XR.2XE.%XI.XXO.| ^ q 8 r r 0 3 g j m b b $.<.p.BXAXcXtXAXZXcXAXZXZXZXZXcXrXtXmXZXSXSXSXmXyXZXJXSXZXZXSXLXJXSXSXwXSXLXSXcXZXSXZXSXSXcXrX3X3X3X5X5X8X1X8XzX2X2X8X7X=XE.*X@X=XBXL. X5.j P *X@XE.9X9X5X8X#X#XxX8X@XI.oXqX|.G , J W | +.O.J | ' f O.i. .' ` J G _ t.t.9.t.&XqXdXfXfXoX{.Q Q Q ! Q Y E Q Q {.{.XXF.i.T 9 ( +.+.Q ! < < Q Q oX+.O.oXO.O.{.:XqXwXtXtXxX2X2X8X@XH.H.[ 5.B B B u =   . u h t = * f k k k ",
"..` .. . .r.{  .l.@X#X@X:XyXsXZXZXmXyXuXyXcXrX*XE.E.*X1X5X5X1XE.E.@X4.y N ,.N N *.L A j j H G > f f = p j j [ K L ] 5.5.6.q.f.y.[ [ 9.l.@XR.1X#X@Xq.K.*Xl.j.Q.#X2X=X@X@XQ.#X#XQ.W.Q.K.q.5.u.l.u.J.` G W J J J J I uXSXZXLXLXyXP.a y.9.H Y : 9 ].( R T oX}.o.XXD.( R ^ ( ( X.Z.{.].[.].[.[.`.[.`.`.S.e C.].}.}.qXfXoXOXOXOXOXC.7 7 7 ).r r `.r `.`.`.`.r `.[.`.`.r e r C.) Z.Q | | | Z.D.|.D.F.|.XXG.G.:X|.oXXX}.}.Z.C.) w w ) w / & ^ 3 G T % J XXG.G.F.D.G.G.O.F.F.I.|.I.J. X&XqX:XwXwXtXtXwXwXrXrX7X3X3X3X3X*XcXyXtXtXrXtXxXcXrXcXxXxXBXbXrX8X=X=X2X3X2X=X7XrX*XL.J.F.F.= - G H j w.P *X*XbXZXGXE.T.Q.K.T.1XQ.Q.>X1X1X>XQ.W.W.Q.>X#XQ.E.#X#XQ.R.>X1X*X%XP.I.XX|.W ~ 9 w w 9 G H V x v x ;.x +XrXcXZXZXcXcXcXZXBXZXZXZXZXmXmXmXZXSXSXZXmXyXZXSXSXSXJXSXZXZXZXyX;XuXyXyXZXSXSXSXSXBXcXtX3X2X3X2X8XjX8X5X5X3X2X2X3X8X7X7XL.=XGXE.l.q.7.,.=XR.Q.2X2XzX1X2X8XvXQ.K.|.F.D...J J Q ' | oXD. .t.` E t.t...H ` | H ` J.9.e.H.=X:X&X&XaXaXdXoXo.W ' E E f '  .r.z..X|..XE E ` i.{ _ H t.{ t.|.F.{ t.{.t.' i.oXwXuX7X2X1X1X>X>X1X#X*X@Xz.c.i c c     +X8.V u ] C V K h 9.",
"|.|.qXF.|.t.&X:XBXBX2X#X7XaXuXpXuXuXpX0XpXpX*X^.*X*X^.*X*X3X3XwXwX-X@XK.x.T.m.d.,.A m a f G G G f f - f H k ] C ] 5.6.6.7.7.f.y.[ 9.q.g.#XR.>X1X1Xl.L.*XR.T.>X1X1X#X#X#X#X>X>XQ.W.#XQ.l.q.q.q.q.l.u.u.9._ J J J K P.rXSXHXcXP.q.V q.9.' | T : 9 9 T | {.D.| {.O.( / R R ( Z.}.OX{.[.'.[.[.'.'.`.7 e '.[.OXOXoXoXfXfXOXOX[.[.C.w 7 7 `.`.`.`.`.`.`.`.).`.`.`.`.r ).`.`.[.'.]./ ) R R ^ ~ O.O.Z.{.|.|.|.:XXXqXfXoXZ.Z.Z.C.0 q / ) Z.& 2 T ; % = u.I.:XyX-Xu.w.J.J.u.J. X%X%X&X:XwXyXwX3X7X8X8X3X2X3X5X5X5X5X5X3X2X3X7XrXyXyXtXwX3X3XrX7X3X8X8X2X*X=X=X=X*X@X#X=X7X*XL.J.r.F., g f J [ w.w.q.*XrXSX*XK.T.2X2X5X2XT.W.Q.>X1X1X1X6X6X1X2X1XQ.E.E.W.W.T.Q.Q.1X3X-X&XqXXXD.| T 0 R 3 E C V c M v $.M ,X8XyXBXBXcXBXZXZXBXZXZXZXZXZXmXZXZXSXSXSXmXyXyXZXyXyXZXZXZXZXAXyXiXSXSXiXZXSXZXSXSXZXcXtX2X=X3X2X2X6X2X2X2X2X2X2X*X3X*X=XL.E.rXf.x.d.L y K.Q.>XW.2X5X>X5X5XbXvXBXe...O.' , ; W |.D.{.t. . ._ ..t.t.t.` K { t.&XBXVX2X2XrXrXwXwX&X&X:XwXXXF.r.{ r.XXF.9.u. XL.z. X|.{ { J.&X X&XaX7X@Xz.l.u.u.u.r. .t.|.&X*X=X2X6XnXjXjXjX8XrXrX=X2XZ i y   ,.xXHXGX=X7X7XtXBX XL.",
"w.I.F.qXJ.&X.X7XrXxXxXrXBXZXaXyXuXeXpX0X0X0X-X-X%X*X^.E.E.^.3XrXwX%X3X3XQ.Q.1Xx.g.0.3.I I K J J j j - s j K P P 9.q.q.6.7.6.f.l.5.u.q.q.#XR.Q.1X>Xv.K.#XT.T.#X>XQ.Q.Q.>X>X<X>XQ.W.>X1XQ.x.q.q.g.f.l.l.l.u.I J I s 1.E.tXrXE.4.V L 5.[ k g < 3 T Y ! D. .D.D.XX| ( ( ^ R ( {.}.}.].].) C.].e q 7 5 ) '.`.'.OXoXoXoXfXfX[.[.'.C.) r r '.`.`.`.`.`.`.r e `.`.'.`.r e `.e `.'.[.e r ) +.Z.{.+.+.) ( F.XX&X&X|.oXXXZ.T +.].Z.( ^ ^ +.+.^ Y ! > J = H.7XGXHX7XE.@X#X@X@X7XtXtXrXtXyXtXrX3X*X*X2X3X2X1X6XhXjXhX5X5X6X2X*X3XrXtXtXwX2X*X3X7X=X#X=X=X@X@X3X7X7X=X*X=X=X=X=X#X Xu.F.f G G I I 5.g.0.rXyXZX3X2XQ.R.T.E.Q.T.#X#X>X1X6X6X2X1X,X2X>X#XE.+X#X#X1X1X>X>X2X*X@X&X XXXW J < 3 , H V A M $.b v <.jXrXyXcXyXcXBXZXBXmXZXZXZXZXZXmXZXSXSXSXSXmXyXyXyXyXtXmXZXAXSXSXcXSXSXSXZXSXmXcXSXSXZXBXxX2X*X2X2X1X1X1X2X2X2X2X2X2X8X2X8X2X2X8Xx.g.K.x.N E.5X8XQ.8X>X#XzX8XzX8X=XF.O. .| J W D.XXi.o.' { _ K 9.6.5.u.9.` { u.L.*X2XvX1Xm.5XcX8X2XL.L.&X&X:X&Xi..X:X7X:X@Xc.6.f.$Xy.L.tXBXBX@X2XxXxX9X=X$X+Xl.L.7X:X:XwXwX7X8XnXvXvXnXnXnXjXvXvX8XDX>Xc .   CXDXxXGXxXBXBXVXBX@X+X",
"P.H.w.sXuXwX%XrX=X9X5X2X5X=X@X%X%X%X%X^.^.%X;X*X%X*X^.^.E.E.%X*X3X*X3X8X2X2X3X2X*XE.R.P.H.w.[ [ I J p - p j ] 5.] 5.] L L ,.q.y.9.J.e.7.1XW.Q.>XQ.x.T.E.K.x.W.Q.Q.Q.Q.>X<X<X<X>X>X>X>X#XL.f.g.K.l.q.5.l..X9.K [ s P q.g.0.1.m i L q.z.r.` G ! | W W |.W  .O.i.Y X.( ^ ( +.Z.+.X.Z.].) ].OXC.4 4 q C.'.e `.[.oXqXfXOX[.[.`.'.C.C.e `.[.'.`.`.`.`.`.r `.[.[.'.'.e '.[.'.`.'.[.`.e '.].].}.X.) R T {.XX&XXXF.F.o.G Q +.D.{.}.{.+.+.+.{.|   O K i 3XGXHXbX#X2X8X3X=X2X8XtX7X3X3X*XE.^.E.E.E.#X2X2X6XhXkXnXjX5X5X5X3X7X7X8X7X7X3X=X=X7X7X=X@X*X*X@X%X=XwXtXwX7XrX7X=X2X7XtX&X Xp G H I j e.3.w.E.tX3X2XzXcXrX6XT.j.x.Q.Q.#X1X6X2X1X>X>X>X2X#X$X$X#X1X>X>XQ.Q.2X*X*X7XwXuX9.` _ J H [ V A m Z M v n.bXcXcXyXyXyXcXcXyXmXZXZXZXZXZXZXAXSXSXSXSXZXyXyXcXAXmXZXSXSXSXSXtXZXZXZXSXSXZXcXSXZXBXBXxX2X*X=X*X2X2X2X2X2X2X2X2X1X5X*X3XrX3X2X@X7.j.d.  y 1.#X1X5XE.2XcX8XxXxX#Xt.O.O.W G  .G. .` t.{ [ 9.q.l.y.&XtXaX7X:X:X*X#X>X#X4X>Xk.m.2XE.9X@XL.l.z.z.9.u.z. XL.6.f.f.f.p.0.f.R.R.,X>X5X5X#X5X8X5X>Xv.T.CXtXyXcXcXxXzXzXnXvXnXkXkXjXxXxX9XkXW.8.M N vX8XHXBXBXHXGXVXtX2X7X",
"w.P.K yX5.%X5.E.5X>Xn.j.W.E.K.K.K.K.K.I.K.P.^.*X*X*X*X*X*X*XE.E.*X*X*X3XrX1X*XtX-X*X-X3X-XE.H.H.e.I j p s V L 5.] 5.] L L 5.l.z.9.J.q.4.2XQ.Q.Q.Q.Q.#X*XE.K.R.Q.#X#X>X>X>X>X>X>X1X#X#X#X@Xl.l.l.l.f.6.9.J.i.[  .V t m a i u i u q.L. XJ.' H E ' f H &Xt.F.F.F.O.+.Q T X.+.X.^ R ( ( ( Z.oX{.T T ^ ) `.`.[.[.}.fXfX[.'.`.[.[.].^ / '.[.[.`.'.`.`.`.'.`.'.[.`.e `.`.[.[.'.'.C.'.[.[.[.[.].) ( +.D.J..X X|.|.t.` H X.i.D.{.oXoX{.D.D.i.t.k a   7.GXGXDXjX#X1X2X2X8X=X3X2X*X*X3X*XK.K.T.E.E.#X*X2X5X5XzXnX8X3X3X7X7X8X7X3X3X3X3X7X7X7XwX=X@X%X%X%X=X@X7XrX7X8XtXrX3X8XzXAXBXuXG J [ [ 5.cX*X*XK.3XK.g.Q.3XrXzX*XK.#XE.R.R.Q.>X2X2X2X>X>X2X2X#X#XQ.#X>X1X<X<X1X*X=X7XtXyXl.P 0.K ] L V V m B Z &.M.MXcXBXyXyXyXyXyXyXmXmXZXZXZXZXZXSXSXSXAXZXAXZXZXmXAXmXZXAXAXSXAXrXZXZXZXSXSXZXcXSXBXcXcXrX*X@X*X*X2X2X2X2X2X2X2X2X*X2X#X2XrX7X2X2Xj.T.j.+ + x Q.jX2X#X8XxX2XrXBX*XH '  .J , W  .` H .Xy.] y.c.c.R.7XtXxXtXtX7X2X9X,X5X4XhXjXm.f.2Xx.#X9X2X=XL.6.6.z..XL.6.l.v.v.7.+XR.x.#X#X4XjXvXvXDXbXbXDXxX8XbX8XrXxXxXxXzXzXzXnXjXkXkXjXnXkX5XW.,X!.  ,.HXGXGXZXcXbXcXyXtX-X=X",
"rXmXyXrXZXwXxX#Xj.j.k.h.T.T.T.Q.T.K.K.R.R.R.Q.*X2X2X*X*X*X*X#XE.K.*X^.*XrX1XE.3X3X3X3X3X3X*X*X*XH.e.[ j j K K ] 5.9.6.5.6.l.L..X9.J.q.7.1X>X<XW.Q.#X1X*X#XR.R.W.#X>X>XQ.Q.Q.>X>X>XQ.Q.#X#XL.g.q.f.R.z.6. .t. .` K O i u u i i 4.L.@X.Xi.r.{ ` | F.i.&X|.:XoXi.W o.T G ~ X.( ^ ( ( ~ ~ X.{.{.~ Q ) ) e `.'.C.Z.}.].'.'.[.[.'.C.) ^ C.].'.`.`.`.`.`.[.'.'.'.e e '.).e e e [.].[.[.[.[.OX[.OXZ.{.oX|..X.XJ.|.{ E ` o.i.i.t.F.|..X XXX&X:XtX7.  DXDXDXvX5X5X5X=X=X7X7X7X3X=X3XrX3X*XK.E.*X*X@X@X*X2X5XjX8X3X3X7X7X7X2X3X3X5X5X8X7X7X7X7X&X X@X%X%X=X*X2X3X2X3XtXcXxXbXvXGXJXJX9... .:X;XwXK.Y.E.tXtX5X2XE.*XzXxXxXGX8X3X1X#X#X#X#X*X#X+X#X#X#X#X#X#X>X6X6X<X1XQ.E.=XwXwXR.,.7.A ,.V V h a B m 7.W.vXcXBXyXyXyXZXZXyXmXmXZXZXZXZXSXSXSXSXZXZXAXSXSXAXmXcXmXAXAXGXGXcXSXSXZXyXyXuXtXZXZXcXtX7X*X*X2X2X2X2X2X2X2X2X2X2X5X5X2X2XrXrX8XzXj.d.h.x x + f.E.rX#X8XtXxXVXBXq._ g g W E ` r.t.|.ZX:XL.7X9X9XxX2X8X8XxXBXBX8XCX4X>X4XvXxXVXtXc.v.W.5X2X7X=Xy.5.J..X&XL.#Xl.@X2XxXtXxXKXVX4X>XvXbXbXnXjXvXvXjX5XxXcXxXxXxXxXxXxX8X9XjXkXjXxXvXjXvXj.p.. 5XHXcXZXSXSXZXZXZXZXyXyX",
"3XcXpXwX3XE.#Xd.1.k.n.M.m.d.0.K.T.x.x.K.T.T.R.E.*X*X1X#X#XE.E.Q.Q.1X6X3X3X3X*X3X3X3X3X*X*X1X1X*XE.w.e.K j K K [ L ] ] ] 6.l.J.z.w.H.g.f.#X~.4X>X#X#X#X@X#X#XR.R.R.Q.#X#XQ.Q.Q.#X#XQ.E.#X#XE.l.f.f.c.L.y.` {  ._ ` p a a V h i y.z.&X&X.X&X.X . . ._ I ..&XdXoX+.O.Q Y Q ( ( ( +.{.Z.Z.O.D.|.t.' C.e e e e e e '.C.'.'.'.`.e C.].( ( ) '.'.`.`.).`.`.'.'.) e e e / r e '.OX[.[.[.[.[.OX].dXX.O.|.&X=X&X.XJ._ H { t.i.|.|.J. X:X&X7XtX#Xx.c x KXGXFXjX4X9X9X7X:X=X2X2X3X=X-X*X*X*XE.%X*X*XE.@X*X2X3X5X7X-X:X:X:X-X=X3X5X8X8X8X5X3X7X7X&X@X@X@X@X*X=X=X=X2X3XrXxXxXbXbXGXSXSXu.t.e.e.w.H.K.^.rX*Xg.T.K.d.g.E.*X#X*XxXxXxXrX7X2X*X#X#XE.R.#X#X#X#X1XT.W.W.~.1X#X#X=XwXrX5Xj.2.2.<.,.V h j V u n.W.kXcXZXZXBXBXZXZXZXmXZXZXZXZXZXSXSXSXSXmXmXZXSXSXAXZXmXAXGXSXHXHXAXSXSXZXuXwXwXwXyXZXcXcXcXrX8X8X2X2X2X2X2X2X2X2X2X2X2X2X2X2X8X8XzX1Xh.1.+ y c R.9X9X@X8XxXAXBX7X5._ > , `  .o.i.|.&XaX=X+X2X2X9XjX4X5X5X8XxXxX8XjX9XVX8X+X8XJXaX XGX8X#Xl.c.z.6.6.9.6.l.y.7X7XBXxXBX7X=X8XvXxX8XkXvXvXVXbXnXxXvXvXvXbXnXrX8X8X8X8X3X2X9X9X5XjXkX8XR.k.v.  3XBXSXZXuXyXiXsXyXyXsXsX",
"pXcX3X3XK.a 7.j.T.m.n.!.Q.T.x.Q.R.T.x.R.R.R.Q.#X#X1X2X2XQ.R.R.Q.1XQ.1X1XE.^.3X^.E.*X*X^.Q.*X1XQ.@Xq.5.s p K K 9.5.9.9.6.l. X@X Xu.J.l.f.R.W.jX6X1X*XE.E.*X2XQ.R.T.W.Q.#XQ.Q.Q.Q.#XQ.E.R.E.#XE.T.x.8.q.L.r.` ` ` H j k * j K t q.L.=XJ.y.J.z.9.J.L.L.q.[ t.|.F.t.t.o.| | o.o.X.( Z.X.Z.O.O.|.t.W w e e e C.C.C.[.[.S.r e e S.C.C.Z.+./ C.'.'.e e ).e C.C.w r w & 8 0 ].[.OX'.'.[.OX[.[.( dX| O.XX:XtXtX XJ._ _ i.J..X&X:X:XtXBX7X9X9Xv.y M !.bXKXvX5X5X9X$X=X:X=X=X=X3X3X=X*X*X3XE.E.E.E.E.@X=X7X7XrXwX7X:X:X-X*X7XrX8X8X8X5X5X2X7XwX-X%X%X%X@X*X@X@X*X2X3X3X8X8XkXMXHXBXyX9.e.e.w.w.H.3.L.3X3X*Xj.T.T.j.x.Q.1X1XQ.2XxXAXAXBXxXtX9X>XW.#X#X#X#X#X6X1X>X>X2X#XT.L.3X3XjX!.<.p.&.A V j K C y W.W.nXZXSXSXZXBXZXZXyXmXZXmXZXZXZXSXSXJXSXyXyXZXSXSXZXSXSXSXSXAXSXSXZXZXJXSXyXyXyXyXtXbXBXGXLXHXVXtX*X2X2X2X2X2X2X2X2X2X=X7X2X2XxXcXvXQ.k.2.@ N *.1XxX2X#XtX:XJ.V K f g W t.F.t.F.&X:XaXtX8XCXCXkXCXkXvXvX5X,X8XvXvXvXjX9X,X$X=X8XSXJXVXvXVXCXBX7Xc.@Xu.&XBX@X8X=XBXtX7XxXVX2X2X5XVXvXvXjXxXVXjX8XxXzXzXzXzXzXrXrXrXrX7X2X2X2X2X5XjX5X8X7.,.  3X3XrXyXyXyXyXsXZXyXyXwX",
"3X3X-X-X3X3X2X2XT.x.j.m.m.x.j.j.j.j.x.x.x.x.E.2X#X#X1X2X3X2X#XE.E.T.E.Q.E.*X*X*XT.^.*X^.E.E.E.@XJ.9.9.p K L K L 5.q.l.R.+X+XE.R.v.@Xl.f.E.#X+X2X#X#X#X#X>X#Xm.k.h.m.W.#XW.W.W.>XW.#X>X#X>X>X,X#X#Xm.f.q.6.4.] _ _ f f k d h L q.5.V y.L.L.4.l.E.x.l.E.@Xw.[ 9.F.q.q.&XsXF. . .| o.O.^ | O.D.{.W ) C.C.C.[.C.C.C.w e 7 7 q 8 w ) Z.].) Z.].C.) ].) ].].) ( ^ ( Z.].].}.}.}.].C.) C.) ].Z.oX{.:X:XtX:XaXy.] y.&X=X@X$X7X9X9XxXGXPXHXhXp.+ y 5XbXHXjX8X9X2X2X=X=X2X2X3X3X3X-X-X3X3X2XE.L.#X=X=X=X2X2X7X7X7X7X7X7X7XrX8X3X5XrXtX5X*X3X3X=X=X=X=X%X@XP.@X=X=X7XrXtXzXjXDXDXHX8X7.g.g.e.w.L a L.tX#Xx.v.x.x.R.W.+XW.W.R.E.#X2XrXcXVXVXjX8X8X9X2X#X#X>XQ.2X>X1X>X#X1XR.2X2X2Xm.<.<.7.V V V j P K E.g.ZXcXmXZXmXZXSXSXZXcXSXSXZXZXSXJXSXuXuXqX:XqXuXyXaXSXsXwXqXuXqXqXaXSXZXsXZXSXSXSXAXHXPXHXHXGX2X2X>X8X2X=X9X9X2X2X5X#X#X2X2X5XT.>XxXjXk.k.. v $.jXkX#X2X&X:X|.= = E E t.{.i.i.&X7X8XxXjXjXvXbXvXkX8X8X8X5X2X5X8X9X2X>X2X5X9X9X8XtX8XjXkXxXvXxX2X#X7Xv.#XCX8XxXVX1X8XvXjX5X2X5X8XjXxXxXjXkXvXvXkXkXvXzXbXbXxX5XvX7X8X8X7XzXxX5X8XxX5Xm.p.A y 7XtXwXsXZXaXyXyXyXyXtXtX",
"3X3X3X-X*X@X@X@XR.T.x.v.j.m.m.m.j.j.x.R.R.R.Q.*X#X#X*X2X2X2X2X2XE.E.*X*XQ.^.^.E.^.E.E.E.R.E.E.@X@Xu.9.p V K V L 6.c.+Xm.m.#X>XW.v.@Xc.q.c.+XR.#X9X2X>XW.m.h.p.p.p.h.R.W.!.R.!.W.!.W.W.Q.>X4X6X2X#XR.x.v.f.4.C j { _ H f j 9.J.l.6.y.c.q.f.1.p.x.m.j.#XrX7X XJ.J.q.q.l.@Xu.|.F.O.W O.O.~ 3 , | ^ Z.}.].].Z./ C.C.C.].) / ^ 0 ^ ^ q Z.].Z.Z.].X.R ( +.+.^ T 3 T +.C.C.Z.X.| Z.{.}.].) ].].+.{.sX7X X=Xz.] +X@X@X+X2X8XHXGXIXKXPXHXlX-.$.M x 4XDXVX8X9X3X3X2X2X2X7X2X3X3X3X-X3X3X3X2XQ.E.*X2X2X2X3X2X7X7X3X2X=X2X3X*X3XrXtXrXrX3X3XrXxXrX2X@X@X@X%XP.L.P.%X7XrXrX8XjXGXGXHX#XA 0.K.q.1.A 4.2X2Xx.v.v.x.m.W.W.+X#X#X#XQ.Q.Q.>X2X5X8XxXvXCXvXxX9X2X>X#X2X#X#XQ.Q.1X#XQ.6X2X#XA ,.L L L L P P P K.%XrXGXGXSXSXAXAXSXSXSXZXZXSXSXaXwX-XqXqXuXqXuXuXuXuX;XqXqXqXqX:XqXsXqXZXLXJXJXHXHXLXAXLXPXxX2X2X#X#X=X2X2X$X#X#X#X>X9X9X#X2X#X>XW.5X2Xh.p.M #.2.hXkX#X=X:X:XW 2 Q Q {.{.F.z..X:X8XjXkXkXvXvXvXkXkXvX8XjXxX8X2X2X>X#XvXVXvXxXvXDXDXvXCXVXCXVXvX2X#X2XE.#X2X1XvXGXvXDX8X,X2XxXvXjXjXbXCXvXvXbXVXvXvXvXxX8XrXbXzXBXxXGX8X8XxXxX8X8X8X5Xj.1.<.N rXwXZXuXyXuXwXuXtXtXtXzX",
"-X3X3X-X@XE.E.@XQ.#XW.m.x.M.R.M.m.v.j.j.x.T.Q.1X*X*X2X*X*X*X*X2X*X*X3X3X3X*X*XE.*X^.E.E.E.E.E.E.E.e.] j I ] L 5.6.E.$XW.x.!.#XW.v.#XL.q.l.R.L.L.x.m.m.x.j.j.x.M.p.h.!.W.W.!.W.#XW.>X,X,X2X4X2X>X>XW.M.R.m.v.5.C f k H f p K l.L.E.#Xc.0.#X#XR.R.R.T.2XrX@Xl.L.-XtX@X5.6.5.J.F.F., G G T G , W G | D.}.}.Z.+.Z.~ ^ Z.+.+.X.~ ~ Q Q +.{.+.+.+.+.T X.~ T T ~ ~ | Z.].( ~ O.| ~ O.{.oXZ.: 3 o.t.K K q.L.L.=XBXDXPXxXGXDXHXCXHXkXxX4Xm.-.$.c <.5XjXvX5X2X#X2X2X2X2X2X2X3X3X3X-X-X2X2X2X#X#X2X3X3X2X3X2X2X=X2X2X3X3X3X7X8X3X*X*X*X3X3X#X7XxXrX*XP.@X@X@XL.L.*X7XrXrX8XjXGXGXGXR.V 5.l.V y t B l.6.8.f.v.x.m.W.W.W.#X#X1X#X#XQ.Q.Q.#X#XxXjX5X>X,X9X5X2X#X5X2X5X5X#X1XQ.T.>XQ.1X,.,.A 4.L V L V I K.3X3XSXSXGXGXSXZXSXSXSXZXSXJXJXaXuXuX-X:X:X:XqXuXqX:X:XqXqXuXsXsXaXsXZXJXLXLXLXIXIXLXPX7X3X2X8X=Xq.E.E.2X8X2X=X3X9X2X#X2XW.2X2XzXQ.T.DXR.N c v !.5X9X@X:X:XF.> > o.Q {.i.i..X:X8XxXCXvXvXvXMXvXkXvXvXxXvXvXxX8X2X>XW.jXvXCXxXxXCXVXxXDXDXVXVXCX2X#X2XE.2X#X2XbXVXvXnX#XjXVXvX9X5X8XjXxXxXxXjXxXxXxXjXDXbXxXcX8XbX8XcX5XrXzX9X1XQ.2XVXh.*.,.0.2X7XZX-XwXwXwXwXrXtXtXyX",
"*X-X3X-X*X#X*X=X*X3X5XW.M.R.M.j.R.x.j.j.x.T.E.Q.Q.#X*X*XQ.E.Q.*X2X*X3XrX3X3X3X*X1X*X*X1X*X*X#XE.x.7.L P q.q.7.q.l.T.#X#XW.m.m.W.l.#XE.6.f.L.c.v.f.x.T.m.x.j.h.j.p.h.!.W.W.W.Q.>X>X2X5X5X4X1X>X#X#XW.R.W.#XE.x.q.K k _ ` j V q.@X$XR.v.c.2X2X#X*XE.l.L.7XtX7XE.w.l.=X2X7XJ.9...|.F.Q , G G 3 G , , ` O.D.X.A.}.D.O.oXoXoXoXXXXX|.D.Q | D.+.o.o.| | o.O.| Q 4 G O.Z.+.X.O.O.~ ! Q Y X.Q T F.i.u.8XBXz.+XPXPX8X9X2Xf.7.j.#X2X>XM.!.M.n.<.+ <.8X4X8X2X#X#X*X2X2X2X2X3X3X3X3X-X=X=X=X3X*X*X2X3X2X2X2X2X2X2X7X7X7X7X3X2X3X3X3X2X#XK.g.x.#X7X3X*X@X@X@X@XL.L.=XrXrXrXxX4XvXCXHX#X1.1.5.a V V a q.7.c.R.f.x.m.R.M.R.W.#XQ.#X#X#X#XQ.W.R.k.>XxXjX,X>X2X2X2X5X2X8X8X5XxXxXjX6XR.Q.k.7.A =.V m A m 7.R.E.rXcXAXGXHXSXZXcXZXSXSXZXyXwX-X-XpXuX0X&X&XqXaXyXwXqXqX:X0XaXsXdXaXSXBXtX7XrXyXBXxX@X*X2XE.E.#XR.2XK.#X2X*X*X2X2X*X2X1X1XQ.5XQ.K.d.m m m =.y p.T.2XJ.&Xi.G E E E o.r.F.&X7XaXCXxXvXFXvXkXMXDXFXvXkXVXxXkXxXvXvX8X>X>XjXDXGXVXvXvXVXVXCXvXCXCX2X+X$Xc.xX2X8XcXzXvX2X#XjXCXjX8XxXVXvXxXCXCXvXvXVXVXvXzXxXzX8X8XHXDXbXrX2XR.Q.5X2X1XzXW.x N R.E.tXwX:XwXwXwXwXtXyXyXyX",
"-X-X-X3X3X3X2X2X2X9X5XW.m.M.m.j.m.m.R.#X#X#XT.v.x.R.#X1X*X*X*X2X*X#X*X3X*X3X3X1X3X3X3X3X3X1X2X2XR.f.*.,.0.f.7.f.T.x.m.W.M.m.m.W.v.@XE.q.f.T.T.v.x.m.R.R.R.m.h.h.p.h.R.W.W.W.#X#X>X4X8X4X>X#X,X2X#XW.M.M.W.#XE.L.u.K j K [ 5.l.K.T.x.#X9X+X@X3X=X3X7XrXrX2X7XxXcX*X=Xf.q.l.L.[ [ t.`  .t...J f J j K K K ` I.aXqX:XSXSXSXSXZXZXwXXX_ H F.|.i.O.o.|.G. .o.O...~ O.| O.X.W | G.O.J | ! {. .r.q.L.L.0.xXHX9X$X$XW.9X4X9X2X>X#XW.M.m.~.<.-.x M #X8X2X9X2X*X2X3X3X3X2X*X3X3X3X3X=X2X2X3X2X=X2X2X=X=X2X7X7X7X7X8X7X3X=X*X2X3X3XE.T.K.K.#X#X@XE.L.E.@X@XE.L.E.=X3X2X3XrX4XjXvXHXR.7.,.L i V L 4.L.v.v.=.v.x.m.m.x.x.m.R.m.R.R.R.R.T.m.m.m.x.f.x.2XxX#X<.>X9XzXGXHXGXHXGXHXnX6XW.!.<.A N M m N x p.Q.3.rXbXAXGXHXSXbXcXBXyXyXuX:X-XwXwXwXqX&X X X:XuXwX&XJ. X&X&X&X&XqXuX-X*X=X*XE.z.E.3X@X3X@XE.@XE.*X#X*X#XQ.#X*X*X*X*X*X3XnX#XT.m N L m A Z m + Z z.:X .t.W g o.' ` .X.X:XaXBXBXCX8X>Xn.M.~.4XkXvXbXDXVXvXkXvXDXDXvXjX2X2XxXGXVXxXCXGXCXvXxXCXvX2X+X#XL.DX7X2XxXvXDX2XGX9X2XvXVXjX9XxXxXvXvXvXxXxXvXvX9X8X5X5XrXPXDXxX#X*X#X1X9X1X#X8XjX  N x.*XcXwXyXuXwXwXwXtXtXtXtX",
"wX:X-X-X3X3X=X*X=X2X#Xm.j.m.M.m.m.T.R.E.Q.E.K.g.K.E.*X2X2X*X2X2X*X#X*X*XE.*X3X1X3X3X3X3X1X3X8XrXW.m.&.*.<.7.q.f.l.l.f.7.0.x.W.c.v.E.L.q.0.c.R.x.x.x.x.m.R.!.!.R.x.m.R.W.#X#X#X#X2X5X5X#XM.M.#X2X,X>XW.M.!.W.+XL.y.[ K p j 5.g.d.j.j.2XxXE.9XBX*X*XE.E.=X3X2Xx.A f.8X8X2X*X7X@XJ.[ K 9.F.t...J I 9.y.q.q.H.-XSXBXyXHXHXHXHXSXGXBXaX.X9.t.J. XXXXX Xi.` ` t.t...O.O.| ..F.|.|.F.F. .' aXaXSXL.E.CXHX,XW.#X,X,Xp.m.,X2X2X,.k.j.,XM.M.$.v x p.m.m.2X9X2X2X2X3X2X2X2X*X*X=X3X3X3X3X3X2X2X2X2X=X=X2X3X7X8X8X8X7X3X*X#X#X3X3XE.K.K.3XbX2X*X@XE.@X*X*X@XE.E.*X3X3X*X2X8XjXjXbXGXp.A ,.0.xXE.V L q.l.$XR.v.j.x.x.j.j.x.m.x.x.x.j.h.h.j.x.x.x.v.p.8.k.j.j.W.#X1XbXDXxXzX5XbX5X5XT.Q.*.*.*.&.M c x <.h.M 1XrXrXcXBXBXcXBXSXBXyXwX:XyXSXZXqX XI.F.J. X&XP.u.5.u.F.J.XXXXXX&XL.l.E.7X2XE.L.=XcX3Xq.E.tX3X3X@X*XE.K.K.T.E.*X3XcXT.# y N ,.N A Z V m a a s t = g - E |  . .J.7X7XaXxX8X8XjX,XM.vXFXGXGXkX4X5XvXvXvXbXbXvXvXvXDXvX2X#X9XxX8XxXVXCXCXxXCXxX=XE.#XE.BX2X2XcXVXBXR.xX9X8XvXxX2X#X9X9X9X8X8X8X2X2X9XbX8X2X8X5X8X#X2X*X1X#X#XQ.R.#XzXvXo x 1.rXrXrXZXyXuXtXtXrXrXrXwX",
"wX7X-X-X3X3X2X*X#X@Xm.v.x.x.M.R.R.R.m.x.x.T.T.m.Q.#X1X1X1X#X1X1X*X#X#X*XE.*X3X3X3X3X3X3X3X2X2X2XT.m.N *.,.7.7.6.6.6.4.L 4.v.c.x.l.c.l.f.0.x.E.x.E.T.m.m.m.m.m.x.R.M.M.W.#X>X>X#X,X2X>XW.m.m.R.!.#X>XW.M.M.W.R.L.5.5.[ K B 5.l.j.7.<.k.#X@XtXtX@XtX=X*X*XR.j.j.x.d.m.k.k.v.3X7XtX7Xu.[ I K [ _ [ y.+XT.+X2X7X8X7XxXDXAXDXGXDXGXGXGXtXL.q.w.L. X&X&XuXaXqXXX|.XXqX&XF.t.oX:X.X.X:X&Xu.wXSXIX9Xp.2XjXm.a.M.h.,X,XM.h.m.>Xp.!.m.#Xh.n.*.v @ M.h.1.2X2X2X2X2X2X2X2X2X*X*X-X3X3X3X2X2X=X=X=X=X=X2X7X7X8X8X8X7X7X=X*X*XR.=XrXrX1X2X5XzX*X2X=X=X3X3X2X*X*X2X7X8X3X2X3X5XjX4XvXVX,.A 0.#X3XR.V L.l.y.q.4.v.v.v.j.v.j.x.x.x.x.v.f.f.k.j.x.v.j.x.m.m.x.f.p.R.v.7.v.T.x.R.Q.Q.Q.1XT.W.<.$.*.$.v z v ;.-.h.!.Q.E.=XrXcXtXyXZXZXtX-X%X&X&XP.F.I.J.J.J.P. XP.H.5.5.] [ F.J.i.w.q.q.v.=X3X#XE.E.g.8XwXE.E.rXrX*X0.f.0.3.3.d.j.j.+ A ,.0.P A N P ,.1.A u + i h _ * ; ' o.t.|.@XtXtX8X9X9X9X4X6X<X<XhXkXkXhX4XjXDXxXvXMXVXvXxXvXDXDXxX2X2X7X8XxXCXvXCXCXCXtX=XE.@X+XtX2X3XcXxX3XK.x.2XrX9X=X2XrXxX8X2X3XtXcXrX8X8X8X2X2XrX2X2X#XxXDX2XT.T.#X5X5X#XzXx + 1.rX7XrXyXyXyXyXtXtXrXrXwX",
"-X-X-X-X7X7X7X3X@XR.x.T.R.m.m.M.m.R.R.m.m.T.T.m.#X#X#XQ.Q.#X6X3X#XE.E.#XE.*X5X3X3X1X3X3X3X2XE.m.n.!.*.,.,.1.L B ] C L q.y.y.l.L.l.l.v.f.7.v.T.m.v.x.x.m.m.m.m.m.R.m.m.M.W.#X#XW.M.!.W.W.W.W.M.x.j.M.M.M.m.M.m.x.4.B j L 5.5.0.7.<.<.7.#X=X7X=X7X&Xq.q.@X1XQ.Q.1X1X!.x.#XT.K.K.7X=Xu.l.u.u.F.[ [ f.W.m.m.#XW.#X#X6XjX5XkXnXhXNXbXjX8X#Xv.d.1.P 5.q.z.L.&XaXSXsXaXaXuX&Xu.u.&XtXtXL.L.HXBXv.m.m.m.<XvXM.M.m.W.M.m.M.h.h.M.M.m.j.M.h.x v c p.m.m.#X2X2X2X3X2X2X2X5X2X3X3X3X3X=X*X*X*X=X=X=X=X3X7XtX7X7X8X7X2X=X3X3X8X8X5X3X3XrXrX3XrXrX8X2X*X=X3X3X=X7XrXrX7X3X3X2X5X,X8XvX,.7.K.rX*X*X5.=Xf.f.v.v.v.v.j.v.j.x.x.x.f.f.j.j.k.k.f.v.f.a.a.f.j.f.f.v.k.k.j.9XbX5X1XW.T.Q.Q.Q.~.a.M v $.v @ b <.$.vXW.R.R.*XtXcXrX3X3X&X XP.P.H.u.H. Xu.u.u.u.u.H.L..XH.L.H.w.u.i.u.J.q.v.E.$XE.L.E.=X*XrXSX3X%XE.1.3.1.f.g.1.P 1.1.N ,.,.,.m 1.1.d.1.7.7.m m i B p j -  .o._ &X7XE.xXjXjXxXxX5X>X4XMXFXbXkXvXkXkXxXvXbXvXvXMXDXbXbXVX8XvXtX$X@X=X8XtX8XxXCXCXtX@XL.=X*XtX3X=X7X2X2X8XcX8X3X7X8X9X2X2X3X@XE.8XBXxX8X8X5XrXxXzX*X3X5XDXrXxXVXcX1X*X3X1X8Xj.  K.3XcXrXrXcXcXyXyXyXyXrXrX",
"wX:X-X7X7X7X2X*XE.x.f.x.m.x.x.m.x.m.T.T.m.m.T.R.Q.Q.#X>X1X#X#X*X#X#X#X#X#X#X*X3X3X*X3X3X#X#X#XT.k.W.W.N P L C [ [ [ 6.6.6.q.l.L.c.E.v.c.0.l.R.T.T.m.x.x.m.T.T.T.m.m.m.m.m.m.m.m.m.W.#X#XW.R.T.T.M.M.m.h.n.M.j.p.m V K K L 1.7.7.<.<.,.f.E.@X7XtXP.0.@X2XR.Q.Q.>X>XW.!.m.m.R.#X=X@X@Xq.l.J.u.[ ] y.W.W.#Xm.h.W.h.T.~.6XhXhXhX6X6X>X>XW.R.m.m.f.1.,.L L L 9.H.&X7X&X%XP.L.&XtX8X@Xx.2XM.m.R.x.<.!.m.m.M.M.M.M.M.M.n.h.jXjX!.>X!.p.s.x -.@ M.p.j.#X2X2X2X2X2X2X2X2X3X3X*X=X-X-X=X=X2X=X*X=X3X7X2X=X=X=X=X*X=X7X3X=XrX=X3X2XzX3XtXtX7X3X3X3X3X3X3X3X=X3X8XrXrX7X=X*X5X4XbXW.1.x.=X*XE.L.V E.l.q.8.x.v.x.x.x.j.v.v.j.v.f.v.M.W.m.f.p.p.f.h.h.f.a.f.v.h.j.v.#XxXjX#XW.1X6XT.m.>Xa.v %.@ v n n -.$.jX~.E.E.3XtXwXrXwX*X%X@XP.H.e.5.w.H.J.J.l.u.l.H.K.z.E.l.u.J.P.J.u.l.l.f.L.7X=Xg.v.2X2X*XK.*X*X0.0.0.1.d.1.1.3.1.1.A P ,.,.1.1.1.1.3.1.M.x M y i C d * r.i..X@X8X4XMXkXkXkXkX5X<X<XhXjXvXFXvXkX8XkXvXDXbXnXvXbXVXDXVXGXGXGXVX8X2X#X+X9XCXVXxX9X=X+X@X@X:X*Xl.=X3XxXGXtX8X8XrXtX8X2X*X#X#X2X8XxXvX8X2X1X5X8X2X*X2X8XxXcXbXbXxX3X1X2X5X5XbX  K.tX3X3XcXZXBXyXyXyXyXyXyX",
":X-X-X-X7X7X2X=X#XR.x.T.W.m.M.W.m.m.m.m.m.m.T.m.T.R.R.R.R.R.R.R.R.T.R.@X*X*X*X*XrX*X2X2X*X*XE.d.d.T.x.m V V j _ _ [ [ { 6.q.l.z.l.R.v.x.7.f.T.x.T.T.x.x.m.m.m.m.m.m.m.m.m.m.T.T.m.R.W.#XW.R.R.R.m.#XW.m.n.M.h.,.m A L L V N m x c N Z 7.L.E.*X@X7XL.2X3X#X2X5XjX>X~.W.!.R.W.Q.#XE.E.f.l.l.H.P ] q.c.W.>XR.m.W.h.,X>X~.~.<X1X<X~.~.~.>X>X>XQ.W.T.T.x.l.f.q.0.5.5.z.w.L.%X@Xg.7.d.1XhXM.m.M.M.p.!.M.M.M.M.W.W.W.W.M.n.hXhXM.W.M.<.<.@ M c M.p.m.#X2X2X2X2X2X2X2X2X3X3X3X-X3X3X=X=X2X=X=X=X=X=X&X*X%X*X#X*X=X2X#XK.E.3XrXrXrXtX5X*X3X3X2X2X2X2X2X3X=X2X3X3X3X3X=X=XE.9XjXx.f.E.E.E.E.L.,.l.f.v.p.v.m.f.p.a.h.h.j.v.f.f.f.x.m.v.p.p.p.a.f.f.p.p.a.f.v.v.f.x.+X2XjXbX5X6XQ.!.>Xa.v v n v n z v x hX!.*XK.R.*X3XtXrX*Xl.H.H.H.w.5.e.w.u.u.u.u.l.J.H.l.J.H.L. X XL.J.J.z.x.E.2X#Xv.f.x.3X*X@XcXrXf.1.1.1.g.0.1.P N A P ,.,.1.1.1.1.1.3.p.~.M x + y S B a .XtX=XvXvXkXhXkXkXvXvXkXkXkXMXhXjXkXkXkXkXkXvXDXbXvXvXkX8X2X+XGXGXGXVXxX7X=X$X+X#X#X=X=XL.l.L.L.:X7XE.7X7XcXHX8X8X8XrX8X8XrXcXxX8X7X8XrXxXxXxXrXzXzXzXxXzX8X1X8XrXxXBXVXbXrX3X1XbX  0.*XBXSXyXcXcXyXyXrXrXrXyX",
":X-X-X-X7X7X7X7X=XE.x.x.m.x.m.m.R.m.x.m.m.T.m.m.x.x.m.m.x.x.T.T.T.c.R.#X*X#XE.E.*X3X5X2XK.x.g.7.d.x.g.y B V k K _ _ _ [ 6.y.l.l.l.T.f.x.7.f.x.x.T.T.x.x.T.T.m.x.x.x.m.m.m.m.T.T.m.T.R.R.R.R.W.W.+Xv.h.m.h.<.*.=.B S L L A N x y m x + Z f.E.@Xl.2XE.=X*XR.#X>XQ.~.W.W.W.W.Q.#X#X#XE.K.g.l.@X[ 5.c.$X2X7X1X#X1XM.<X~.W.W.!.W.~.~.W.W.~.>X>X~.>X>X#X#X#X*X*X#XE.L.g.l.L.L.K.f.f.x.m.~.n.!.>X!.<.7.M.M.M.M.M.W.M.M.W.m.<X<Xm.M.h.-.*.x z =.M.k.R.#X2X2X2X2X2X2X2X2X3X3X2X*X*X*X=X=X=X=X*X&X=X=X*X&X*X#X@X*X3X7X*XR.R.3X3XrX*X3X*X*X=X=X=X=X=X=X2X2X2X3X3X3X3X-X-X2X8XxX8X#X#X#XK.@Xd.5.A B 7.m.f.p.j.k.j.x.v.f.f.x.v.f.f.v.h.a.s.s.s.f.f.f.p.s.a.f.k.k.f.f.j.+X8XjX#XE.M.M.M.s.$.n n n v n @ v hXQ.#XK.l.E.=X7X7X@XH.H.H.H.u.q.9.e.w.u.l.l.J.L.K.l.l.L.E.L.H.l.l.z.l.K.T.K.K.l.g.0.E.3XBXHXSXZXbX*Xg.3.P P f.K.1.P 1.,.,.1.3.3.3.1.s.<X*.@ + x =.A 6.=XBX=XjXkXMXMXvXvXvXbXvXkXvXFXjXjXjXjXxXxXkXjX4X6X5XjXkXjX5X,X#X#X,X9XtX8X8XxX9X$X=X7X9X@Xc.+X+X7X7XE.*XE.#X2XBXcXzX8X2X*X1X2X8X8X5X5X8X8X8X5XcXzXrXrXzXcXrX3XzXrXrX8X5X5X6X*XzXBX  K.*X3XBX7XyXcXcXtXwXwXwXtX",
":X-X-X-X-X7X7X7X2X@Xx.x.x.x.x.x.m.m.m.m.m.m.m.R.T.T.T.T.m.T.T.R.W.E.E.#X@XE.R.E.1X3X3X2XR.g.v.v.f.f.f.a V K H K _ _ _ [ 9.y.l.l.x.m.f.x.7.f.x.x.m.x.x.x.m.T.T.x.x.x.x.m.m.m.m.T.m.m.m.m.m.m.R.W.#X7.=.7.<.M c ,.A A V B V L ,.L A N i B 1.7.R.Q.L.T.#X#XR.1X5X1XW.W.!.W.>X<X>X>X>XR.E.g.q.*X5.5.q.L.#X@XK.x.T.x.W.Q.>XQ.!.T.W.~.!.M.M.M.M.m.M.W.Q.#X#X#X*X=X2X2X#X#XE.L.L.E.W.W.M.~.n.M.~.#Xf.f.!.M.m.m.m.M.m.m.M.h.M.W.n.n.a.$.$.v @ s.M.k.R.#X2X2X2X2X2X2X2X2X*X*X*X*X*X*X*X*X*X=X&X=X=X&X&X&X*X@X@X#X2X7X7X3X3X2X*X8X*XQ.E.3X3X-X-X-X-X-X2X2X3X3X7X3X=X=X=X=X=XR.+X2X#X@Xg.@X0.5.d.N 7.m.j.m.j.x.x.x.v.v.v.v.v.v.v.f.a.a.f.v.v.v.v.h.f.f.f.h.k.8.p.p.p.W.2XR.m.f.v.m.p.2.:.n v @ n v z M hX>XT.K.R.E.@X@X@XE.@XL.H.l.u.u.u.u.u.u.J.J.L.L.L.z.l.E.E.l.q.w.l.l.l.l.x.f.l.R.E.R.K.*XxXxX3XcXZXE.K.g.j.0.g.H.,.1.1.1.,.1.3.3.3.1.<.W.*.@ x @ Z =.x.$X#X2X>XhXhXFXvXkXvXvXvXkXkXvXMXvXxXvXvXxXjX4XjXjXjXjXjXjX8X9X2X#X2X8XxX8X8XxXxX9X9X8X8X#XL.@XtX8X7XE.3X#XE.L.R.x.T.*XrXcXxXxX8X8XrXrXrXrXrXzXrXrXzXrXrXrXzXzXcXzXrX3X2X2XrXcX2XrX  g.rX@XcXbXcXyXyXtXwX7XwXwX",
":X-X-X=X=X=X-X7X7X*XE.T.m.m.m.m.m.m.M.M.m.m.R.!.R.R.R.T.T.T.R.W.#X#X#XE.R.K.E.*X3XT.g.K.E.x.q.f.f.0.0.a V K K K _ K K 5.q.l.x.x.x.m.f.x.7.f.x.x.x.x.x.x.T.T.L.x.x.x.m.m.m.m.m.m.m.m.x.x.x.m.m.T.T.c.p.*.&.<.<.=.,.V a a A 4.7.,.A L A ,.m i 1.W.Q.1X1XQ.T.Q.2X1X>XW.!.W.W.>X>X>X!.m.E.f.5.@X5.5.5.z.=X#XK.K.R.W.W.Q.Q.W.!.!.!.!.<X~.W.W.~.>X>X<X!.W.W.R.R.R.#X1X8XR.K.*X#Xg.p.h.M.~.N.M.W.W.f.v.W.!.m.m.m.m.M.n.m.h.h.n.h.h.s.$.$.v x h.M.j.R.T.2X2X2X3X2X2X2X2X*X*X2X*X*X*X*X=X%X*X&X=X&X&X&X&X@X@X@X#X=X=X3X3X8X*X3X3XrX*X*X3X7X:X-X=X=X=X=X=X=X3X3X-X*X@X@X@X+Xv.@X9Xl.L.q.L ,.1.x.m x z b p.m.m.v.p.f.m.m.f.j.v.v.f.f.f.v.v.v.v.v.v.h.h.h.v.h.p.8.8.8.m.2X#XT.v.m.j.<.-.-.n v z z v x M #Xx.K.E.E.E.L.K.L.P.L.l.w.q.u.l.H.H.u.H.J.J.H.L.K.l.L.E.R.l.f.z.L.l.K.l.K.l.K.E.*X3XrX#XrXVXrXzXbXxXE.K.K.0.f.g.,.3.1.1.1.1.3.3.3.1.7.h.%.z v + &.p.v.+X+X8X4XhX<XkXkXkXkXvXvXvXbXCXbXvXvXvXxXxXjX8XvXxXxXjXjXjXjX8XxXjXjXvXvXjX8XjX9X8X8X9X9X=XL.+X9X2X=X@XtXtXvXzX8X2X2X5XzX5X1XQ.1X#XQ.R.R.Q.2X5X5XrXcXcXcXrX5X3XzXcXcXcXrX5X8XrX*XxX+ A rX*XcXcXbXcXyXtXwXwXwX7X",
"wXwX:X-X-X-X7X7X8X2X#X+X+XE.W.m.x.m.m.M.m.m.m.M.R.R.T.T.T.T.R.R.E.E.E.E.K.K.#X3X3XE.g.g.l.7.,.8.d.1.5.a V V k j K K L 6.f.x.m.m.m.m.f.x.7.f.x.T.x.x.x.x.T.T.c.c.x.m.m.m.m.m.m.m.m.x.x.x.x.x.x.x.T.T.v.7.<.7.<.=.Z m a V 4.d.d.4.L L A ,.A + c N d.T.W.Q.Q.E.#XR.>X>XW.!.!.W.W.W.m.x.R.l.5.E.l.q.V 5.E.E.g.K.T.W.5X>Xm.m.!.W.T.h.n.n.a.h.n.M.!.M.W.W.Q.Q.Q.Q.#X>X#XW.Q.*X#Xx.j.M.n.M.M.~.!.R.6.4.#XW.M.M.M.M.m.n.n.n.a.n.h.s.2.$.v v $.h.M.m.W.m.#X2X3X3X2X2X2X2X2X2X3X2X*X*X=X2X*X=X&X&X&X&X&X&X*X*X*X=X=X#X@X@X3X*X3XE.3X2X5X-X&X&X&X&X%X%X%X*X=X-X7X-X&X XP..X$X+X:X@XB L.E.P g.0.d.m N x v *.=.v.W.T.v.j.x.j.h.h.f.a.f.v.v.v.v.v.v.f.f.f.f.h.p.f.f.8.,.p.m.W.x.v.v.s.=.:.:.b v z z v m *.x.l.R.E.K.l.L.L.K.L.z.l.u.u.l.J.H.u.u.H.J.l.z.z.l.l.l.L.L.x.K.E.L.l.K.K.L.E.E.R.E.*X#XT.2X8X8XxXbXbXrX*XK.0.g.g.1.1.1.1.1.1.3.3.0.d.h.p.M @ x + <.j.m.+X9X,XjXjXkX4XkXkXkXvXvXxXkXvXjXjXkXkXjXjXkXkX8X8XjXjXxXxXvXvX9X8XjXxXxXxXxXxX8XvXxX9X2X+Xl.c.=X#X=X#X8XrXDXGX8X8XzXzX5X2X2X5X5X5X5X2X2X5X8XzXrX3X3X5XzXzX8X5XcXzXrXzXcXcXrX3XBXrX+ y 8X2XrXbXcXcXtXrXrXwXwX3X",
"uXuXwXwX7X7X7X7X8X3X=X#X#X$XW.m.M.m.m.M.!.!.m.x.m.m.M.M.T.T.R.R.T.E.E.E.R.R.*X3X3XrX*XK.l.7.1.p.7.,.7.V V V V f C C L 8.f.m.m.M.m.m.f.x.7.f.x.m.x.x.x.c.L.c.x.x.x.x.x.x.x.x.x.x.v.v.v.v.v.x.v.v.c.f.p.k.p.=.=.,.a m V I q.l.f.7.4.] V A ,.*.N + @ ,.<.j.#X#X*X#XM.M.M.M.M.M.M.!.M.R.R.R.0.L.H.l.e.g.*X@XR.2X6X5XzX1X!.m.m.M.m.h.n.M.W.!.~.<X,XW.Q.W.W.W.Q.W.m.j.m.Q.#XT.T.#X4X6XhXlXM.M.n.W.l.l.W.M.m.j.m.M.m.n.h.n.s.h.h.2.2.$.v @ <.h.M.W.W.x.#X2X3X3X3X2X2X3X2X3X3X3X*X*X=X3X*X=X=X&X&X&X&X&X=X*X=X=X=X@XE.E.3X*X#XE.*X*X3X=X%X%X@X@X@X@X@X@X=X-X7X-X%X X.X.Xz.z.l.6.i @X%Xq.5.,.y + M v b @ + ,.m.W.j.p.f.m.h.h.f.a.f.v.v.h.v.v.v.f.f.f.f.f.8.f.f.p.7.,.,.8.8.4.4.=.&.-.;.b z v z x N A q.K.K.R.x.g.L.K.l.K.H.H.H.l.H.J.l.w.u.l.J.l.z.K.L.K.g.x.l.l.L.L.L.l.H.K.P.P.L.K.K.K.E.*XzX2X5XDXjX2XrXBXxX2Xg.A A 1.1.3.3.1.1.1.d.j.p.A M + @ x h.M.M.+X9X$X9X9XvXjXvXkXkXvXkXjXjXjXkXkXjXjXjXkXkXxXxXxXxXxXjX8X8X8XvXDXDXvXxXxXxXjXjXjXjX9X=Xc.f.l.8X9XtX8XxXrXDXVX8XzXxXnX5X1X6X8X1X6X5X8XjX8X5X2XrX3X*X*X3X5XrXnXcXzXrXzXbXAXBXcXrXx.O N j.*X3XbXtXtXtXrXwXwXwXwX",
"wXwXwX:X-X-X3X7XrX7X2X2X2X$X#XW.#XW.x.T.#X#XT.j.T.m.R.R.T.R.R.E.E.R.E.#X#XQ.*X2Xj.Q.x.1.7.0.,.A <.A 7.A A V V B V A ,.8.h.n.m.m.m.m.f.x.7.p.x.x.m.m.m.c.m.c.x.v.v.v.v.v.v.v.j.j.j.j.v.x.x.v.v.v.q.f.p.<.,.<.<.=.m V I 5.e.q.7.1.L f.7.L A ,.1.,.*.,.+ N 1.1.d.d.k.h.h.n.h.h.m.m.T.W.R.E.0.q.H.w.L.H.E.K.g.*X6X5X6X6X1XW.m.j.j.m.a.M.~.!.!.~.W.h.m.h.h.m.Q.1X#XW.W.M.m.R.W.W.W.~.~.~.M.W.M.E.y.6.m.h.h.h.h.x.h.h.p.h.2.h.h.2.2.$.M @ s.a.m.W.W.x.#X2X2X3X3X2X2X3X*X2X3X=X*X*X*X=X=X=X&X&X&X@X@X&X=X@XE.@X#X#X@X@X3X*X@XtX7X=XL.@X X X X X X@X%X%X%X*X=X%X XL.J. XL.L.y.y.V L.q.4.A 7.N x v v -.M M z x =.a.p.a.v.j.j.v.f.v.v.j.f.m.h.h.f.f.f.f.f.f.h.7.<.p.<.Z *.,.B.*.Z =.;.-.v n Z x y c m A f.g.E.R.K.R.l.q.l.g.l.l.w.l.J.J.l.q.l.J.L.L.L.L.L.K.K.x.x.l.K.L.R.K.E.R.K.K.E.E.T.Q.W.2X1XjXvX4X5XQ.5X2X8X*Xd.d.0.1.5.0.1.1.3.f.x.=.x M + + M M.m.v.v.L.8X$X2X2XkXkXjXkXvXvXvXvXvXDXbXvXkXxXxXxXjXxXxXjXjXjXjXxXvXjXDXGXvXjXxXvXkXvXxXxXvXxX#XL.#X8X=X3X3XxXxXVXjXzXzXzXnXzX5X2X1X6X6X6X5X8XjXzXzX5X8XrXrX5X2X3XxXVXAXBXxX5X#XR.K.T.j.m m + R.E.g.7XrXtXtXwXwXwXyX",
"yXwX-XwX3X-X-X7X-X8X7X*X=X=X#X*XL.*X-X*X#X=X2X*X#XE.R.E.#X#X#X#X%X%X%X-X3X3X*XQ.#XQ.f.7.v.6.S S A ,.,.Z N A =.*.=.=.<.p.h.m.m.j.x.0.x.x.,.7.E.c.m.x.m.m.m.v.v.v.v.v.v.v.j.j.x.m.M.m.j.m.M.m.x.v.f.f.7.<.<.p.1.N V P P I 5.g.d.3.d.f.f.p.1.,.1.1.j.f.1.*.N M <.p.T.h.k.n.m.n.h.j.T.Q.Q.E.l.q.L.H.H.H.E.K.T.3X*X1X1X1XQ.Q.T.m.T.h.j.h.h.n.m.m.j.m.n.m.m.j.k.k.m.W.~.W.W.!.!.!.W.W.6X>XW.!.M.m.f.8.j.j.j.j.j.h.f.f.h.j.k.<.<.2.<.$.v b s.<.M.>XM.M.4X5X2X2X9X9X7X7X3X=X@X@X*X@X@X-X7X7X&X&X&X&X&X@X@X2X3X*XE.E.#X#X=X=X=X&X%X X X XI.|.|.|.|.|. X&X@X@X#X@X@XL. X@X2Xh.h.x.u f.8.1.4.=.c + v -.-.v v x x M *.p.a.h.j.h.h.h.h.h.h.h.n.h.a.f.f.f.f.f.p.p.<.-.;.;.-.;.=.=.;.;.-.:.-.$.v c c i i u B B ,.h.k.<.p.7.7.v.v.d.q.l.l.u.u.J.L.K.H.L.L.R.K.x.T.T.R.E.R.R.R.E.W.R.W.#XR.R.W.#X>XW.Q.>X1X<X>X<X6X>X6XnX5XK.0.0.w.I I I I e.H.0.M b + .   B c.L..Xz.y.z.+X$X$X>XjXvXkXkXkXkXhXkXhXhXkXkXnXnXnXnX5XkXnXkXjXkXkXkXVXDXbXxXxXvXvXxXzXcXzXbXcX8Xl.2X8X7X2XQ.#X6X5X5X2XrXzXrXcXcXxXxXzXxX2X2XvXvXjXxX5X5X2X2X2X5X5X2X8X5X2X#X>X2X#Xm.M.>X. + ,.>XW.E.E.E.8XrX3X%XtX3X",
"wXwXwX-X-X3XwXwX7X7X3X7XtXrX#XL.%X%X*X%X*X3X7XrX8X3X=X*X#X2X2X3X-X%XP.R.E.E.^.1Xm.x.f.p.f.8.L ,.,.7.1.=.A =.;.-.-.-.;.p.a.h.h.h.m.p.m.R.8.p.m.f.m.x.x.m.m.x.v.v.f.v.f.f.k.k.j.j.h.n.m.j.j.f.v.v.f.p.<.<.<.p.2.1.P 3.e.e.e.0.w.0.d.h.h.f.0.1.,.,.,.7.d.1.N v M -.j.n.n.h.h.j.j.j.T.Q.Q.Q.K.g.L.l.H.l.P.K.K.Q.E.Q.1XQ.Q.Q.T.T.K.d.k.p.p.k.h.h.h.j.T.T.T.j.k.p.k.j.M.M.W.W.W.M.M.m.x.h.m.M.M.m.p.<.h.j.j.h.d.d.7.7.7.p.p.p.s.2.-.v b M s.-.n.M.M.M.4X4X9X9X9X2X2X=X2X*XE.E.@XE.P.=X7X7X-X&X%X@X XP.#X=X2X1X#X#X#XQ.=X=X&X&X&X X.X.X|.|.|.|.|.|.|. X@X@X#X=X=X@X X+X,XM.h.a.+ 4.8.f.,.A M m $.*.%.v -.*.M z @ M a.~.m.M.m.m.j.j.h.h.n.a.a.f.f.f.q.0.<.<.-.&.-.:.&.:.;.=.;.-.&.&.&.b b M m i i u B A =.p.<.A <.,.*.7.7.7.q.z.z.q.9.q.l.l.w.g.g.g.j.j.T.T.R.R.R.E.E.@X#X>X>X>X#XR.M.!.M.M.W.Q.>X>X1X6XhX<X<X5X5XE.e.5.[ I [ e.e.Y.I.Y.N b z y i C i.6.{ { 6.b.q.v.+X2X4XjXjXjXkXjXkXMXnXkXjXhXhXjXnXnXvXMXvXvXnXkXjX8XkXxXxXjXjXkXvXvXxXxX5XrXxXrXL.3XBXBXbXxXzX8X5X2XrXtX8X8XrXrX8XxXVXvX8X5XjX8X4X4X8X9X9X2X9X8X8X5Xj.M.>X2X#Xm.j.h.h.M.+ b <.j.j.#X#X#X#X*XtX7X3XE.",
"wXwXwXwXwX7X7X-X7X7X-X=X*X@X@X*XE.E.*X=X3X2X2X2X7X3X2X2X2X2X2X2X3XE.H.f.d.d.g.x.x.g.f.f.7.,.1.1.7.7.7.=.=.<.<.;.*.*.;.;.p.a.h.h.v.p.x.R.k.v.W.v.m.x.x.m.x.v.v.v.l.v.f.f.a.a.h.j.j.j.j.j.j.v.v.v.8.8.<.<.<.<.1.7.L e.w.w.e.w.w.d.d.j.j.j.g.0.1.P A 1.d.k.<.N M M <.h.m.j.k.h.j.j.T.R.Q.Q.L.K.P.g.H.g.K.K.K.T.T.E.Q.Q.Q.Q.Q.Q.T.d.d.7.1.7.p.d.k.k.h.j.j.h.k.p.d.k.h.h.m.M.M.m.h.h.h.k.p.k.h.h.p.p.k.k.h.f.k.7.1.1.1.1.p.p.s.<.$.v v $.2.;.n.M.M.W.>X>X>X,X2X2X9X9X7X7X2X2X7X7X7XtX7X7X:X&X&X&X&X&X@X*X*X=X2X2X*XQ.=X=X=X&X&X X X.X|.|.|.{.{.|.|..X@X@X+X@X&X X|.L.>X<Xs.s.y S ,.S S A Z *.*.*.%.$.b b b b x @ + . + x M *.<.<.7.p.p.p.8.8.7.8.7.<.<.2.<.;.;.;.-.B.8.=.=.*.M Z &.M b M m i i u B S =.7.=.Z =.=.m A A L 7.l.z.y.q.u.l.u.u.l.z.K.L.R.l.x.K.K.L.E.@X*X2X9X2X,X5X#XM.#X#X>X>X1X>XQ.Q.>X,X>X#X4XzXxXtXrX%Xw.P I ..H.Y.e.A M y u u j { k k U } { ] 5.y.R.#X2X5X5XhX4X<XhXhXjXnXbXbXvXjX5XkXkXkXvXvXvXkXkX5XjXxXjXjXjXvXvXbXDXVXAXvX8Xl.*XxXxXxXCXBXBXVXAXrXrX8XrXvXxXnXbXxXjXvXvXxXxXkX5X,X2X2X2X2X4X4X5XvXjX5X4X>Xx.p.p.<.a.z b =.h.h.,X#X9X=XK.*X@X3XBX",
"yX-X-X7XwX=X-X7X=X=X7X7X*XE.@X#X2X3X=XE.R.#X3X9X=X1X2X5X8X9X2X#X2XQ.T.x.K.g.g.x.x.0.f.p.,.,.8.8.d.7.1.=.=.<.<.<.;.*.=.<.s.a.j.j.j.p.x.x.p.f.W.m.m.m.x.m.x.v.v.v.x.l.v.f.f.f.j.j.m.h.h.j.W.W.x.p.8.,.<.<.<.M N 1.P e.w.w.e.0.w.g.0.g.j.j.g.0.3.1.1.,.1.1.1.<.,.&.N 1.j.m.n.j.n.m.T.W.T.E.L.K.P.g.L.w.g.K.K.K.K.Q.Q.T.Q.Q.Q.Q.E.g.d.p.p.p.d.d.p.1.1.7.p.p.p.d.k.k.k.p.k.p.k.h.h.h.j.h.d.7.p.p.p.p.p.k.k.k.k.p.7.7.d.1.2.p.2.*.$.$.@ $.2.s.M.M.M.W.m.m.R.W.#X$X2X2X2X2X=X2X7X7X3XrX*X*X*X&X@X X@X@X@X@X@X=X2X2X1X#X=X2X=X=X&X&X@X X|.|.|.|.|.|.|.|.&X X X.X.X|..X X+X4Xs.=.i u A V ,.A Z =.=.$.$.%.*.Z Z =.<.<.=.M b M &.*.<.<.<.<.:.:.&.*.=.=.=.=.-.;.-.-.;.=.Z =.8.=.&.&.Z Z =.*.Z Z m c i u B S ,.8.8.=.=.S B A V A L 6.5.9.y.J.u.u.u.y.l.l.z.x.l.l.l.l.z.L.@X@X$X2X+XW.2X#Xx.W.v.m.R.R.Q.Q.#X1X#X>X>X#X#X3XtXBXZX%X5.P [ G...K 5.V u a * f } g g g k _ 6.6.5.6.f.x.R.#X5X5X4X5XvXnXkXjXjXkXvXVX8XjXjXjXjXkXkXjX8XjXnXkXjXjXxXvX5XjXzXbXbXcX#X2XAXcXxXBXCXxX8XrXcXxX2XE.*X8XzXvX2X>X5X8X2X8XvXkX4X8X8X5X5X5X5X4X,XM.h.p.p.<.<.<.*.p.z z &.m.!.>X2X#X#Xx.*XR.g.g.",
"*XJ.K.q.P.L.%X@X2XE.L.+XE.+X+XK.x.#X*XE.K.R.R.x.R.m.R.W.>X#XR.h.p.1.1.7.0.7.7.0.5.L 1.7.<.7.h.p.7.1.,.A *.,.<.<.=.=.=.<.<.p.h.h.j.h.m.m.a.a.m.m.R.M.m.m.m.j.v.v.x.v.v.v.v.v.j.x.j.h.h.m.W.R.f.<.,.=.<.<.*.x x A 5.e.w.w.e.w.w.g.3.d.H.j.d.0.0.0.3.1.P P ,.<.,.*.N &.2.n.m.h.n.!.T.Q.Q.E.K.K.P.g.H.w.e.K.R.K.T.Q.E.T.E.E.T.T.T.j.f.d.k.f.f.f.d.1.d.7.7.3.1.7.7.7.d.p.p.7.p.k.h.j.d.h.j.h.k.d.1.<.p.d.k.k.d.p.2.3.p.p.p.a.2.-.$.%.v -.;.a.M.n.h.m.m.m.m.R.R.R.R.R.#X*X#X=X7X=X*X=X7X7X7X=X@X X X X@X@X%X*X=X=X2X2X1X2X=X2X=X&X&X XXXXX|.|.{.|.|.|. X X X X|.|..X&Xc.,X8.B . i S 8.8.S m A *.M $.*.M Z Z N m N =.7.M M c x v M M x b M Z &.*.=.=.*.-.<.-.;.;.Z V 4.8.=.Z Z M Z =.=.<.=.Z m u u m B Z <.4.=.A A B A S S V V V C 4.6.l.l.l.l.l.v.v.v.l.l.l.y.l.l.L. X#X,XT.m.,X#XT.,Xv.T.E.Q.Q.#X1X2X#X$X#X+XE.$X2X2X7X@XP.w.t.t.` I ] j p d * > ' ' g , g ` { [ _ C C L 4.f.#X9XjXxXkXjXjX4XjXkXkXvXjXVXVX8X2X8XjX5XjX8X8X8X8X8X8X8XDXkX1X5XjXVX2X=XrX7X7XcXGXAXBXbX5XbXxX2X5XjX2XR.W.x.h.h.7.h.>X4XW.#XW.m.h.h.p.p.p.h.m.p.-.-.<.2.$.-.v @ b a.h.M.4XW.8X2X>X#XE.K.",
"K.E.=XL.7X7X7XL.R.l.T.E.c.W.#Xv.j.#X2X#XW.#XW.x.h.k.p.p.k.k.7.,.p.2.2.p.f.f.q.q.,.L 1.f.f.k.k.p.1.,.A N N *.,.,.=.=.=.,.<.7.p.p.p.p.j.m.h.h.m.m.M.m.m.m.m.x.v.v.v.v.f.f.v.j.x.j.h.j.m.m.x.k.7.,.,.=.<.<.&.x x A f.w.w.w.w.0.0.0.0.d.j.g.0.0.0.f.0.0.3.1.,.,.,.<.N v M <.1.<.2.m.!.Q.Q.#XT.K.L.w.w.w.0.H.P.K.E.E.E.T.E.T.g.j.K.f.d.d.d.f.j.j.f.3.d.d.7.3.1.7.p.d.d.d.d.d.d.d.k.d.d.f.h.d.d.2.3.2.2.p.d.p.2.1.1.1.1.2.k.h.s.<.%.%.$.;.:.a.n.n.n.!.R.R.R.M.m.m.m.x.x.E.@X#X7X7X7XtX7X7X=X&X*X@X@X@X@X@X&X%X#X@X*X2X1X1X2X2X2X=X*X@XoXXX|.{.{.|.|.|.J.|..X.X|.{.{.XX+XM.*.c c B S S 4.S m Z A Z *.=.,.,.S S A A A A *.A M c M -.-.&.b c b M &.*.*.%.-.2.;.<.,.S C 6.8.S B B m m A A ,.A m c y i i i c Z =.=.A B V A S S V V V V S L 8.6.f.v.l.x.c.c.c.l.l.l.y.l.z.L.+X+Xx.x.E.E.E.2X#X#X#X#XE.#X#X$X+X+X+X@X=X2X$X@X@XL.H.[ ..o.G E k d > g ; ; E E ' Q ' ' E k k C _ K j V 7.x.T.#X>X4XkXvXvXkXlX<X>X8XxX2X2X8XvXxXvXxXkXxXxXjX8X5X~.~.W.T.p.f.,.1.3X@Xl.d.f.f.d.0.j.>X5X2X5X2Xj.<.k.p.p.7.<.7.h.m.M.M.M.h.a.p.s.s.s.h.a.-.$.$.M v $.b $.$.v b v <.p.<.>Xx.<.7.T.#X",
"7.7.#XT.2Xf.p.A =.8.!.>XW.>X>Xh.x.p.=.m m A 1.k.a.p.p.p.p.p.p.2.s.2.2.7.7.4.,.L 4.6.7.q.j.k.2.2.<.,.=.A N A *.1.,.,.1.,.1.<.<.<.=.=.<.p.j.m.m.m.j.h.x.m.m.x.h.x.f.f.f.v.v.x.j.j.j.m.m.h.a.7.7.7.<.<.<.*.v v N =.g.g.g.g.g.d.g.g.g.g.g.d.0.0.0.0.0.d.d.0.1.,.,.<.N c v M M v N <.h.T.Q.*XR.x.L.f.w.w.5.l.L.K.Q.R.E.T.T.K.g.j.j.d.d.d.d.d.j.x.g.7.0.d.0.7.3.7.d.d.7.7.0.0.0.0.d.0.k.k.d.p.1.3.p.k.2.2.2.2.2.2.2.2.2.k.h.h.2.-.$.M #.-.$.a.n.n.m.W.M.m.R.R.W.W.R.W.j.x.x.x.#X#X=X7XE.E.L.L.+X+X@X X X.X&X&X@X@X$X2X2X2X>X$X$X#X@X XXX|.|.|.|.{.{.J.J.J.J.J.i.t.i._.+X8.S B S L F u S V B A A A *.=.S m t s S 7.q.7.7.7.,.m x v v v x x x c m M #.#.v $.$.N B a f { 6.V a a u a V A A u i i y y i y z b &.=.A A S A S V V A S L =.A m N A =.<.8.a.h.f.f.f.f.0.8.q.y.p.p.7.7.7.p.v.T.k.f.l.g.l.K.R.L. Xz.z.z.c.l.v.f.E.q.5.j _ o., G f - > g ; % g < X.X.| ' H f f H _ _ h p h B V =.,.=.-.-.;.2.s.s.h.x.R.W.W.>X4X5Xk.p.p.h.p.1.<.<.2.n.~.~.p.h.1.p.m.j.7.=.=.<.k.h.1.p.,.*.=.=.;.<.=.<.p.s.p.s.p.p.2.p.p.2.2.2.s.s.a.<.$.M %.-.-.%.:.v &.#.v n . v s.<.>XW.>XW.7.<.",
"W.p.W.#X1XM M *.*.x @ @ c h.<Xh.h.=.M *.<.A *.<.*.;.<.p.p.p.p.s.s.2.2.s.p.8.,.L L 4.L ,.7.1.<.k.<.,.,.A N N A ,.,.1.1.1.1.,.,.,.,.*.Z =.p.j.j.j.h.h.j.m.m.m.x.x.h.j.j.j.x.m.j.h.m.h.p.7.7.p.p.p.<.<.-.$.v # M ,.g.f.g.g.g.k.j.K.K.Y.f.d.d.d.0.3.d.3.1.1.1.1.,.,.N *.,.*.N x x N <.h.T.#XR.x.R.g.w.u.0.l.L.K.*XR.E.K.K.K.K.T.K.g.d.d.d.d.j.j.g.7.0.d.d.0.3.1.3.3.1.1.1.1.3.3.0.d.p.d.j.j.k.2.3.1.2.2.2.2.2.2.p.d.a.n.n.s.=.$.M v v -.v a.h.h.f.v.M.M.W.W.W.W.W.W.W.#XR.x.m.T.W.#X#X@X@X@X#X@X@X@X X.X X@X@X@X#X#X2X2X#X#X$X@XE.L. X|.|.|.|.|.XX X XJ.l.i.i.t.i._.b.S 5.S u u F ] u h D S S A S L a h V C L ] 5.q.6.q.8.Z x x c c c c y x c v v v v M M m h d g o.6.j t p p a V S h i + i m B M b z n Z &.Z S S B S V B B A =.A Z M &.*.*.*.*.<.7.<.<.,.=.=.=.=.,.8.,.8.8.8.p.x.T.T.T.x.g.g.v.l.q.z.i.i.y.q.6.q.c.5.5.u._ ' X.1 T > 2 ; g > > Q Q Y Y E E W H G k d k h h h a a A Z &.*.;.2.s.a.a.a.7.p.h.h.2.<.p.2.s.a.k.s.<.<.2.a.2.2.s.<.h.<.N *.<.1.,.*.=.=.&.<.=.*.=.-.M M <.-.p.-.*.<.<.;.a.s.a.a.s.2.s.s.s.-.*.$.%.%.#.$.-.-.#.:.@ v :.n @ v 2.4X>XjX,Xj.>X",
"n.h.h.s.<.-.$.b x $.&.$.n z v $.M &.*.&.&.&.&.M $.-.<.;.*.*.*.-.>.>.;.-.Z m u u s s a m Z *.*.&.,.m A N m m B L ,.,.,.,.,.,.,.,.=.A *.*.=.<.p.p.p.7.7.p.h.h.h.j.h.h.j.m.m.m.j.j.a.p.p.<.<.<.<.<.<.<.-.%.v @ v ,.d.d.d.g.g.k.j.j.g.g.g.g.k.0.3.0.3.3.3.3.d.3.,.N N N *.*.*.$.N N x N k.W.K.x.K.g.w.e.w.H.L.E.E.j.T.j.j.E.2X^.j.d.d.p.3.3.f.j.h.3.<.1.3.1.1.3.3.1.1.1.1.1.1.1.3.p.d.d.d.d.p.2.3.3.<.2.d.k.p.2.2.s.2.2.<.*.M M M v $.M M =.p.8.8.v.c.R.c.x.M.W.M.M.W.R.m.R.+X$XW.x.v.f.b.x.+X$X$X+X X.X X XL.L.E.#X,X5X9X2X2X2X=X&X XJ.F.F.F.|.F.z.z.9.6.6.9.t.i.i.y.S 5.t F = ] h h h V D C ] ] S j K [ K K L [ 9.u.9.H.m ,.N y + i Z A ,.7.<.-.2.*.M c a p > Y X.H d f d = k ] t O = a A B A M + n z z c b B B V u u u u c c c c b b b b b $.&.&.:.:.:.*.*.&.&.Z A =.A N A A A A L x.E.d.7.g.x.q.{ o.i.i.6.q.q.] C C [ ' W Q 9 2 > ; ; > < Y g g G G E G G J J G g g k p j h V m c Z &.%.-.s.a.2.s.<.M c x x # @ #.-.2.-.$.M $.$.$.:.2.2.2.2.*.v M M v v 2.v $.$.$.M $.M M b $.*.*.*.-.-.;.;.;.;.2.2.2.2.2.2.2.2.2.;.:.%.%.%.:.-.>.:.#.n #.#.n @ X -.a.n.~.,XW.j.",
"v v M $.$.#.M #.:.v X @ #.:.%.v &.:.&.$.&.&.&.&.M &.*.*.$.&.&.$.:.#.v z + i i u u s s a m m c c M + N Z m m a V P P L L P L ,.,.A A A A =.=.,.<.<.<.<.<.<.<.<.<.<.2.2.s.s.p.p.7.7.7.<.8.<.<.<.<.8.8.s.2.-.$.%.<.d.7.3.3.d.k.j.K.K.g.g.g.d.3.1.1.3.3.3.0.7.1.,.N *.N &.*.&.$.*.<.1.&.A 1.d.R.#Xg.L.5.1.L.*XK.g.T.j.T.E.Q.Q.H.d.0.1.1.1.1.p.d.3.<.1.3.1.<.<.1.p.3.3.0.0.3.3.1.3.3.3.3.1.1.<.<.1.,.1.2.p.2.<.<.*.-.<.-.&.M v x c m M Z A A 4.4.S ] q.l.c.c.W.W.M.M.W.M.m.m.W.W.x.f.v.f.p.q.f.v.c.c..X|.L.L.L.E.#X#X#X#X>X#X$X$X+Xz.9.t.F.F.t.r.r.r.q.5.6.6.6.r.t.r.i.6.D i F C d * t d k C ] { ] K {  .[ ` K ` {  . .i. Xj V V 5.q.q.q.7.4.7.1.=.=.p.=.a i d W ( ~ ' > - f d E ` d * h ] L u . i z z z n c y i i u D h u i + i x M b b b b v v v v M b c v b b M M m Z Z m A A B B A a a V L P 5.J.{ ' ' t.i.K p C _ k E ' ! < : &     % < ! g ; % G G , , G Q W G f f f - p t t i y c c v %.>.2.>.-.$.M v v v #.v n #.#.v # x v v v %.%.%.-.<.<.<.&.;.<.-.%.$.-.$.&.&.%.%.$.b $.&.*.*.-.;.;.2.<.<.;.;.;.;.-.-.-.-.-.-.:.%.%.:.-.;.-.:.#.n #.#.n @ o n ;.s.n.a.Z i ",
"@ n v v v n n n X n n n X X #.:.$.$.v v v $.&.M M &.&.M b b b x v n z z z y i i i i i y y y y i y   + i i p h C C C K L L L L ,.L S S S A A A =.,.<.<.<.<.=.=.=.-.-.-.<.<.<.<.,.,.,.,.4.4.4.4.4.,.4.8.,.M c N *.d.7.1.1.3.d.k.j.K.g.g.g.d.1.1.1.3.3.p.d.3.<.*.N *.*.&.M M $.<.p.k.p.<.N N f.Q.R.g.;X*XK.g.0.0.g.k.j.j.K.K.j.0.,.*.<.2.1.1.1.1.<.2.2.2.<.<.1.2.2.<.1.1.1.1.1.1.1.d.p.2.2.1.1.<.<.p.p.p.<.*.$.M $.*.M v c c x x M m A A B S L C K ] y.v.v.m.m.M.M.W.M.m.m.M.M.m.h.p.p.p.0.0.f.v.c.q.q.q.6.b.x.x.v.m.x.v.v.c.L.l.6.F.F.i.t.o.{ { 9.[ 5.q.y.6.6.t.i.i.r.C = d ] = * f k _ { { { ` _ H j f G J J W ` ' G.XX_ e.9.u.w.q.5.L L L ,.,.Z u i = p E Q q 4 Q > > G Y ! ' E  .k p u i i c v v n z . . . = t O = t t a a u y b M M M M c M M Z M c c M N N m i a u u V 4.6.q.L a = = p p p d E g ; E i._ = * = % > Q ( R ( ( }.oX|.' 1 ; , 3 ~ Q G 3 , , 1 ; , , , g d k p t u i z z z n #.#.v v v v $.$.$.#.%.%.#.v M $.M M b M M x z c M *.-.&.-.a.-.%.>.%.:.%.%.%.#.v #.$.%.%.-.-.-.-.-.-.;.;.;.-.-.-.-.*.%.$.$.#.#.$.%.%.:.%.#.n n n @ @ X n X . z z z y ",
"z z @ @ X . X X X X n n n n n @ z n n z z n b b &.&.&.&.&.*.&.$.n z X . z z +   i i i u a m m m Z i i i = p h H j k K ] L L A V S S S S S S S =.=.,.<.<.<.<.<.<.<.<.<.<.,.,.,.L L L L L ] ] ] ] [ ] L A m x N ,.1.1.3.1.1.d.d.d.g.d.d.d.3.1.*.*.<.1.d.p.1.,.*.*.=.*.*.&.M $.<.h.k.n.n.1.N A d.g.K.L.f.g.E.K.0.j.k.j.j.j.j.K.d.,.*.=.<.<.<.<.<.2.<.<.2.p.p.p.2.<.1.1.2.2.2.2.2.p.1.<.1.<.<.<.<.<.<.<.,.*.M M v N M c x m c y x B V V h p j K _ o.{ y.y.0.f.h.n.M.M.m.n.m.m.m.j.h.p.a.h.x.x.v.v.b.q.y.f.q.f.x.m.v.R.x.f.f.c.L.z.u.F.t.' '  .o.' K 6.6.y.9._ _ o.t.} } t.* k g > f ` } { ' ' E E g f f f W ' Q Q | O.Z.{.~ t.O...H L j j K j C C t     p { o.3 & q 9 < T ~ T T Q ' o.> O t B S =.&.$.v + + i t t * = = = = = = = i + + i i i i u u u u u i u u i + = i O   O = = * p K  ._ p = = = , < , , E ' g 2 % 2 Y +.+.( ( ( < +.].< % ; 3 3 , Y Q T : 1 : 4 2 1 ; g , g - p h a m c b v v #.v v v v $.#.#.n #.#.v $.M M c y c c x i + + + + x x + -.%.:.%.#.#.#.:.:.#.v #.#.-.-.;.2.2.<.;.-.-.-.-.-.-.*.&.%.$.$.#.v v v v v #.#.#.n @ @ @ @ X X X . z . . i ",
". . . $ n v b $.n z n b &.$.n $ n #.$.b n n v b b &.&.=.<.s.a.s.a.s.-.&.Z &.*.A u u h B C L ] ] 8.=.4.4.K _ k f g k K K K C V V C C V V V A S S A A *.=.<.<.<.-.<.<.,.,.L S C C K C k k k k E E _ E k h t t a P I 5.I P I 1.3.3.0.3.3.3.3.,.*.*.*.<.2.1.<.*.*.*.=.=.=.*.$.$.<.k.k.k.k.p.1.,.A A 1.g.0.P 3.3.A ,.1.j.T.k.1.1.3.1.<.-.*.*.*.*.-.-.*.*.-.<.2.<.<.-.<.<.*.%.%.$.&.*.<.<.<.<.<.=.*.N M N M c x x c c b c c M m u u B C h t - k g E t. .r.6.4.p.a.a.n.h.a.s.s.s.p.7.8.s.p.v.v.x.v.f.8.f.l.v.f.v.x.m.x.m.x.x.c.L.L.z.z.t.' E Q +.+.o.E { { { _ d d E } g l t.E g g g G W W E Y G g < , W H W | ~ T ^ ( }.{.Z.~ X.^ | O.[ K K H p - *   = = f W 3 2 & w 3 T ^ ( R ^ Q R , > k ] S B b b z z y i t * = % % % % = = = = = = = = = = * * * = = = = = = =   = - - - > * O   % O % G E , = % % 3 +.~ 2 , Q 3 3 T X.+.( / / 9 @.+.( R Y T 3 % 2 4 ^ ^ 4 4 5 5 2 & 2 3 1 , ; - = = t a m c b $.M M M M M #.v v v v M M m c i i t i i i t u u i   Z . z n :.#.#.#.#.#.#.#.n n #.@ n n v v v v v b b M M $.$.$.#.$.$.#.b #.b v v v v n n X X X X X X X z b z . $ ",
"Z c z b =.;.;.B.z $ z b &.&.b z &.;.>.:.$.b b b v b Z &.;.s.s.p.s.s.<.=.*.&.Z Z A V V D L ] ] ] 8.4.8.6.] { ` E k k k f j j V S K C C V V V S S A Z M *.-.<.-.*.,.,.S S S C k f k g g g , < g g < g g k f p s j H.H.w.I P P 1.3.1.1.,.1.1.1.*.*.%.*.-.<.*.&.N N *.*.*.*.$.$.-.2.k.p.2.k.j.p.,.,.P 3X3X3.N ,.1.,.*.1.2.1.1.1.3.<.2.-.%.$.$.$.$.%.$.M v M $.$.$.%.<.-.-.*.%.%.-.<.-.<.<.<.<.*.M M M m c c x x x x x c c c u u m h C d - g E g , Q E } ] S 8.p.;.;.s.p.8.;.-.*.&.&.=.=.,.8.s.f.f.s.7.0.p.k.k.k.h.h.a.f.x.+X.Xz.y.r.+.X.( R Q Q X.X.E g f > = > E W > > g t.g W E G Y Y < < < G G 3 W J J G 3 3 q R / q 2 & 4 & 4 3 I K j f * = * = = - , 1 2 & 5 5 & & : 8 R ) R 9 Y Y } ] h . + z z y i O     % 2 % % 1 < g , ; % * % % = ; ; 2 % % ; ; % % = = = % > , g E Q Y Y ; % O % < Q < O % % o.Z.1 2 ^ q 9 R ( / q 0 / 0 / 8 & : 3 : 4 q 4 4 q q q 8 & 2 & & & 4 & & 2 1 % = t t i i x c M M M M M M $.$.*.M M m u u a j t * = = t h h u i u . + @ . X #.#.#.#.#.@ X X X @ @ @ v v $.$.%.v v v b b b b b b b v v #.b b b n n @ @ @ X X X #.n X X c c B S ",
"Z u i B =.=.b c c . . c s.v.B.z :.>.>.&.$.$.n z n v b Z &.;.<.<.s.s.a.a.s.8.=.*.A A V D C C C C =.S 4.] _ { { o.E E H k j h h B j j j h h h B B B N N M *.*.*.&.A A V C K H k g g < < < < : < < 6 ! ' o. .[ ` [ F.I.G.[ K P 3.0.3.,.,.,.<.<.,.*.%.*.*.&.&.M N N M N N M M M *.<.2.h.h.p.h.k.1.d.,.V N A ,.,.*.,.2.2.2.1.d.j.k.1.2.-.$.$.$.$.M $.$.v @ x v v v v . + @ @ @ # v v v v M M M v c x N m m m c c c c x m c y i m V h j g , Y ' Q G Y Y } C D *.&.$.#.;.;.-.:.&.Z Z Z Z Z A *.=.4.8.p.f.7.8.p.a.p.7.p.8.7.v.L..Xz.i.t.X.( ( 0 : : Y Q g > * * > g Y G < g % O.' W G < 3 < , < Y Q T G G J G 3 4 q q q q q & 8 w q 4 & - p - ; > , , g ; < G 3 q / w 5 & 2 2 & 0 w 0 9 ( E g t = i c b Z m t = O = 1 : R 8 & 2 2 % % % % % % 2 & : 2 % % 2 1 2 % % % % % % % % % 2 % % 2 R ^ & 2 4 q : : % 1 ^ 9 4 q 4 0 0 w 0 4 : 8 q q 8 q 0 9 & : q & 5 5 7 q r r 7 & & 5 5 5 2 & 3 Y E ` j t u a c m m m c b b M M M c y y t t h k g < > = * d f d t     c z . z X X X X X X X . X X X X X @ v v v v v b b b M $.$.v v v v v v v v n n @ @ @ @ X X X X X z Z =.=.S ",
"c $ . c =.*.B y . y =.b.M.c.v.s.&.$.b b v b n $ $ n v b &.8.p.s.p.s.s.p.8.<.<.8.=.*.S S S S S S S S b.y.r.r. .{ { { { _ C h t t = = * t t t t u u c m b b b M M a h h k k H g g < < 6 9 8 8 8 6 8 q ( X.X.| '  ._ 9.e.] P 1.d.j.p.1.,.<.<.<.*.*.-.-.%.%.&.$.M N M M b M M M M *.<.h.p.<.p.k.1.<.A N N N A 1.1.A ,.1.p.2.1.1.,.,.*.M v c c x x b v v @ n n @ @ @ @ @ v M M M M M x x x m m m m m a a a y a a u u u m m i i B S V f G G ! X.+.@.! ~ X.} C B B c Z b Z Z M b b Z Z Z =.4.=.*.S =.4.4.V m *.=.Z M M N B A ] 6.{ { o.Y ( (.].'.) R R ! , > > d g < 2 , Y % W i., < < < < : 3 T Q T , , G 3 4 3 4 & 2 & r 8 8 5 2 2 % ; f , , Q Q Y Q 9 Y T ^ ^ w w q q 4 4 9 R 8 : R < g d = O u ;.8.S B a h _ ' Y & % % % % 2 2 2 % % % 2 6 / / q & & 8 / 0 : 2 % % % % % % % %     % % % 2 & 5 8 4 9 1 1 3 9 4 4 5 & & 7 r 8 : q R / ) ) 0 / ].].) w w e w r r r e e e '.) w 5 0 / R ( ' f = t u i x x c x x x c c c i i p f f g U 9 6 : 1 1 > < d j d 6.] S c.$Xo . . . X X X X @ @ @ @ @ # v v b v b b M M M M b $.#.M b v v v v n @ X @ n n n X . z $ $ b &.Z b ",
"c c i . . i c Z v.M.$X$X$X$X$X2XM.s.c . &.X v X z n v v &.<.p.p.p.s.p.<.p.p.*.=.:.&.*.*.*.M Z *.=.,.,.7.z.l.6.] y.6.6.y.y.q.q.q.6.6.h l h t h i i + . . + .   . = f f d G Y > 1 : 9 : : : : : 8 5 r e ) (.+.+.{.o.K a i @ @ @ @ -.<.<.*.*.*.*.$.-.-.<.-.%.M m c v v v b c x x c m y i u c x c N m B V V V V C L V L 1.,.1.7.1.A A A u u i O i @ v #.#.@ @ v v z $.v $.c m B a h h d d d d * p f f k d p O = = h B + u m y Z =.A j G Y 1 0 5 0 ) / +.R , g d * f h D u Z Z =.c A A ,.L D S S S S ] D V A Z &.*.M M S 4.] C d f k U Y / / e '.(.8 T g f d d - ; ; > ' ; Y +.1 1 1 9 2 1 Y Y G G W G f 3 T T 4 & 2 5 8 8 8 5 7 7 q 1 | {.+.4 : q q 8 q q w w 8 5 w 3 T T Q ` G , W f - p t y   M.p.L [ ] ] d O % % % % % % & 8 7 & & & q w 8 7 q 5 5 e 7 r 7 7 % & 4 R 4 9 q 4 : & % & % % 2 2 8 0 8 q : : 3 : : : & r ) 7 7 7 & +.) / / 0 0 ) ].w 0 0 w q 7 r S.S.S.e C.e w e C.C.e ) 4 1 - - t y c v x v b c c c A C _ g ; < R 8 q 8 5 & & & 1 , E > E ' ` t.XXXX      y *.+ @ @ v v # M @ x <.+ x Z =.*.*.-.-.*.%.-.%.-.%.$.v $.M v x M *.=.=.=.=.*.c . . c b c ",
"y c &.4.f.m.#X$X+X$X2X2X#X@X#X#XE.#Xj.b x n n X z n n v $.-.<.<.<.a.h.p.-.$.M ;.-.:.&.&.*.*.-.-.<.<.1.1.1.,.,.7.x.c.R.R.y.4.4.q.6.z.r.{ {  .r.C 4.8.=.Z B B V D d , , , < : < R 9 0 8 & : 8 q 0 '.'.'.'.].(.(.|.` h O . . n #.#.v v $.M M &.*.*.-.%.%.%.$.M m M M $.&.N m m a a h V h u u B Z B Z B B h a p p * p p p t i i y a m h = p t = u i + @ V.@ @ v b M x x M m B V j H g , g < < > > , G , ; E t.XXi.6.[ q.v.8.A 8.p.B k E +.) ].e / (.) / R R X.! : Y g k a B V A B S S B h C L D S b.] D 4.p.a.s.<.*.8.8.6.6.{ } _ k k g 9 q 7 r e q : , > * t d > > > f E O.Y 2 < 2 2 3 ~ ^ 1 2 G | ` G , ; 2 1 q / q 0 w r q q q q 9 T T 3 5 q w q q w w q q 8 5 9 3 Q | | [ p s j J s p t + + h.x.q.a O t = = G H Q T T q R / 0 8 : q 0 w w e 7 & 7 7 7 r & & & & q / 9 & q 8 q 8 q ) & % % & 0 / 5 8 9 : : : 4 0 7 e e e e 7 8 / 0 8 q q 0 ) ) q / 0 q 7 7 e '.'.C.C.C.) e ) C.) e & % % ; s t m x v M M c y m D [ _ E < & 6 0 q 7 7 7 7 5 & 2 2 O % Y +.+.+.X.Y , g * a m @ @ + v @ *.M M N @ N N ,.p.p.p.p.2.-.-.-.-.*.-.-.*.M + c ,.7.,.A 4.y.8.b.8.c . . . . ",
"f.x.+X#X,X,X,X#X#X$X$X$X$X#X=X$X,X>X,XM.p.-.. n @ n n v b $.*.*.*.M v M =.*.M &.c z + z v b M M M M M M v x N <.7.<.<.7.p.8.k.x.6.{ { _.{.t.t.i.6.6.] C h d d g 9 : 8 9 : & 0 (.) '.e 7 r e (.'.].].].OXOX].O.{.i.9.4.=.=.&.%.%.%.$.v M v N M $.$.#.v #.$.%.M N N Z A V V j k k f k k * t j C h B h h h h d d - - - f K j p j [ p f > f f d j a =.*.&.$.b x i u B m V a * - > g g < 3 3 < < < < 1 ! ! Q Y o.o.r.y.@X+XW.h.=.,.,.` Q ].].'.e ).(.'./ ( +.+.Y < ! , > f f j t t = = = * l C t = u c v $.-.;.-.=.4.] ] _ } { r.r.{ { } X./ 7 7 e / 9 Y g * ; * > 2 > > ' o.G 1 < 1 9 9 3 < : , , ; J | D.{.].~ 4 2 & 8 q q 8 8 8 8 0 3 4 4 & 4 0 ^ 0 ( ^ q 9 ^ T T T | | ` ` f t.G.XX|.I.u.s   + m 0.P.7X7Xu.u.:XoXo.O.Z.+.( / / / ( +./ 0 0 q & & q 7 8 w & & 5 & & 8 2 o %   % % % 8 q 8 8 7 8 5 & & 9 & 2 & & 7 r ).r '.e & 0 / / q 0 / ) ].'./ ) q 7 7 7 e S.e ].].].C.C.].].) C.& : 1 - s + y x x x c i i p j E E < & & & 5 q 7 q r w 0 q 9 9 {.Z.| Y < 3 T ^ R g - d i   + . <.x A M m <.<.p.<.p.p.p.p.s.s.2.-.-.*.$.$.*.M @ m ,.7.7.L V C 5.q.b.4.u   . b =.",
"$X$X,X$X#X#X$X+X$X$X$X$X=X$X$X#X2XW.#X,Xn.n.. v @ n v v x b M b v $.v c x . . z x z z c c m c M =.M M &.M c c c N x + x Z A Z B C f g { o.! Q o.t.} ' { E 2 2 : : & 6 5 & 7 ) '.).'.e r e '.'.'.].].].}.OXO.' o.{ 6.q.6.,.*.*.<.-.$.v N m x c N v v #.#.$.$.M c m h j k H _ E E , g g - - f j d * t p d d d d d f d f k k f - > ` O.+.].+.X.t.r.q.4.S ,.4.] ] C p t h d d g < ! 9 6 6 6 8 6 8 8 : 9 : 9 9 +.o.' { @Xv.+Xm.Z =.6.` Y R / 8 q ).(.(.0 ( +.X.! X.{.R 9 +.o.' > > % g G 1 2 ; > > h . #.#.v x c V ] f U E E g k ] 9.6.{ X.+.e 7 7 r 0 ^ ! > ; ; 2 % ; , f , G 3 2 T T 9 1 1 3 Q Q W f , < 3 3 : & 2 & 5 8 q q q q q 4 4 4 0 q q ^ ( ^ +.X.~ X.O.O.O.o.O. ...t...qXqXXXXXI.F.K y j.5X2X7XtXtX&X:XaX|.| Q T Y T R 0 q Z.].+.R 0 & & 7 0 q q 7 & 5 0 q q 8 2 % ) q 8 % & & & & & & 5 8 7 & 0 0 0 w & 7 e `.`.`.7 & 0 ) ].(.(.'.[.[.].].'.) w e ) ].[.].}.}.{.{.{.}.].( & : 3 = p i m A m u i a h h - * ; : & : 8 5 & q e w w w / R ^ ( R X.+.+.].].Z.].+.T , ` h i + i y 1.A A =.<.h.<.k.h.k.p.s.a.a.a.s.p.<.<.*.M m x ,.5.5.9.9.9.u.z.u.q.] S 4.v.+X,X",
"$X=X=X@X$X=X$X=X2X=X$X$X$X$X@X@X=X+X+Xv.<.W.z v n v b v v c c c x N @ x c + x c c x x x i + + x N x N ,.=.A N x y c N A Z c y i p _ ' E T X.Q 3 +.Q Q ( 9 & & 0 6 : : & % 8 ) ) (.(.r 7 e [.[.[.oX|.{.{.{.o.} r.{ [ ] ] L S S ,.N v x N m m N ,.A *.*.$.v $.$.M s p d f f g G G E E H H G f j f d g H k f d f g g f , , Y Q Y 1 Y +.].].( R X.o.E k C C _ E U E g f E Q Q R : & 4 8 8 8 q q q q 0 0 8 0 +.OXO.E { =Xl.v.v.=.,.S H 1 & 6 & 7 e ).w q q T T T ~ ( w w [.].+.9 9 & % & 6 6 9 6 2 % + $.v + u j > ; 9 / ( Q , > h h C C E ( ) r 7 7 q 0 9 : 1 1 & 2 2 ; - ; 1 : 1 9 1 : : T | Y ; ; ; , 3 3 : & 2 % & 5 q q q 0 q 8 8 & 4 / +.C.Z.+.+.A.O.D.F.F.G.G.t.D.G.|.oXF.XXXXt.XX;X:XI.y 3XxXIXbX8XSXSXsXsXqXoXD.O.O.{.}.Z.R {.{.].Z.( & & / / Z.R & 4 / ( ( ].( 0 w ].& 8 ) C.7 & 7 5 & & q 8 & / / e '.r r ).).[.`.e ) ) ].[.[.[.[.[.].].].].) ) C.].OXfXfXoXXXXXXXXXoX{.| O.dXXXf V y N N N m B K ` E < 1 & 8 q r w 7 7 e ) / w w 0 q R R {.{.+.^ Q R 0 R +.R T ' p V B Z m v.8.<.a.7.h.n.<.<.s.s.s.s.<.-.p.<.7.8.A u m L [  .t.r. .r.F..Xz.i.l.z.+X$X$X+X",
"=X=X=X*X@X=X#X@X=X=X=X$X=X$X=X=X=X@X$X+Xs.M.. b v $.$.#.b b c c x N + N 2.p.h.7.p.7.8.1.1.7.d.K.g.d.l.f.V u y O m u i y u a h h t k | Q T ~ 9 : R T R 8 & & r r / Q 9 2 & 0 (.) (./ 8 8 / '.'.].{.|.F.F.{.t.r.r.i.r.9.l.J.l.5.A 1.,.A V V j j V V A =.N M <.a.j.l.i.u.t.t.t.t.O. .' ` ` I k j k H E ' ` H k H E f G Y Q +.{.( 4 0 +.+.) / 0 ( Q Q o.t.o.' Q X.X.+.~ ~ Q R q & & 8 8 q q 0 0 0 q q / / / 0 ) ( X.F.&Xy.v.x.=.A S E g < R q r r r q 8 : & R +.( q r r '.'./ q 0 0 / e q r r 5 5 Q L 6.V p ' O.( 0 e ) (.( Q E k a B h > 9 ) e r r 7 5 : : & & 2 & , = J Q % 2 T 3 ^ T 1 2 1 % % G | O.O.^ : 1 9 ^ q 0 w w w w 0 8 0 q ^ Z.Z.Z.Z.Z.X.O.O.t.I.J.l.F.F.D.G.|.XXF.` t.G.XXXXXXw.i LXPXcXAXHXPXJXuXaXsXsXdXdXdXdXdXoXXXdX}.( ( ^ 4 9 ) ( }.+.: ^ +.+.+.( dXdXq & w [.) e 7 r '.'.w q e / 8 ) ) r e r r `.e `.r ) [.].].[.[.[.'.'.'.'.].].C.) ) ) ].OXoXqX:X:X:X:XqX:X{. .qX|.O a m *.N y j [ ..` Y 9 0 8 w e e e w e ) / / / / ^ T T Q Q Q ~ ^ R T 9 8 ) ].+.O.{ :X7XtX6.  Z p.;.a.s.-.n.n.n.m.m.m.n.h.<.<.7.4.A V ] u.t.t.t.t.F.F.F.t.|.|. X@X@X+X$X+X",
"%X&X=X&X=X=X=X=X@X@X#X=X$X=X=X=X=X@X2X9XW.j.. b v $.$.v x x x x # h.k.h.k.7.m.j.f.7.7.0.d.g.K.E.5.9.J.J.9.u.J.9._ j = = = * * = d * G ! T 3 1 R ( R ^ 8 & q './ Z.Z.X.q R ) '.'./ w q q / / / ( ' t.i.i.|.F.i.t. .{ r.|.&X Xz.9.q.0.5.I H H G f f V V A ,.f.T.T.l.u.w.u.u.u.e.e.u.w.e.5.I I 1.L H G Y G H G G H G G Y R ^ R : 2 r w 7 q w e / 8 & 9 R Y 9 Q ( ( ^ 9 q R R 0 8 0 q q q q 0 w w 0 w e q r w ].].}.XXJ.f.m.T.=.m 5.{ o.~ +./ w 7 7 7 8 & 8 ].OX[.'.e `.`.'.'.'.) '.r r r e e 5 & 5 : 9 2 2 q r 7 r r r r e ( o.{ k p d 2 & 8 7 7 7 7 & & : : & : 9 J G J O.1 1 +.3 O T +.Z.O.3 ; W ; 3 T 3 : : 9 ^ ^ / ) ) ) C.C.) ~ +.{.}.Z.+.Z.A.O.D.t.u.I. XL.H.F.D.t.F.I.I.J U.XX;X0XqXe.s SXAX5XGXAXxXtXuXaX:XXXqXaXdX:XoX&X:XdX{.Q T 9 9 R R ( Z.].Q o.+.{.+.( R / C.].C.'.e r & e C.) '.'.[.[.) '.[.e e e r `.).r 7 / ].].OX'.[.[.'.'.].].].OX{.{.{.{.}.oXoXwXtXtX7X7XaXaX:X:X&XwXV B N c x a j ` ` E 3 9 w w w e e e ) ) / @.Q Q X.X.Q Q | o.Q Q T < 9 Q ! 9 ( X.| ` 7X7XJXPXA c c . s.lXlXM.n.h.a.n.n.n.n.j.x.f.8.5.u..X.XG.t.t.D.XX:XoX.XXX&X&X=X#X=X2X9X",
"wXwXwX&X*X*X=X*X*X*X=X$X$X$X$X$X=X=X=X#Xm.M.b z n v b x @ @ @ + # j.k.j.m.j.Q.k.f.f.q.f.g.f.0.e.i.t.F.F.r.F.i.f E { t.o.} E ` ' ` ` O.| | +.+.}.D.~ X.( 4 0 '.) +.].+.) ].'./ '.'.'.'.[.[.) w ( ' t.t. .r.F.F.|.F.F.F.z.i.i.i.F.I I I J ! ~ Q G , H K ` 9.u.l.q.u.u.u.l.H.H.H.F.u.H.w.5.1.q.g.e.O.X.Q Q ' ' ` E ` G < 9 9 0 / '.'./ 7 r '.[.[.0 / ( @.9 R X.( 9 : : ( Z.Z.) q 0 q 0 0 0 0 / R q w / e ) e '.].{.F.z.l.v.x.f.1.6.5.t.| +./ w & r 7 r 7 5 e ) e `.`.`.`.[.[.[.S.'.r e e r r r 7 r r e ) '.'.7 7 ).r r r 7 8 T E k g E < & 7 7 & 7 7 & & : 3 3 T o.` .., J G 3 | T | +.T 3 O.| , ; , , : 1 : 4 4 : & 4 4 q R ) ) ( X.O.{.}.}.}.{.O.|.&XXXI. X-X@XF.F.F.t.I. X Xs 0XXXXXXXXXj I JXGX5XGXVXBXSX7XXX|.i.i.t.i.|.&X:X&X}.+.( ( ^ ( ( 9 ^ T Z.O.o.| {.+.+.].]./ & / [.r 7 7 ) e r C.'.].]./ e '.'.).).7 r `.r e '.0 ( ].) [.'.e '.[.].].{.{.}.oXoXqXqX:X:X9X7X=X$XtXBXaX&X_ aXe.V L x A P K H H G 3 q 0 w w / ) / ].].R X.| ' o. .` ` { F.{ ' W > , Q Y R R ! ' K y.6.9X$X8X*.x -.@ #.N.<X<X<X6X6X<X~.!.x.m.q.V L z..Xt.t.G.F.i.t.G.{.|..X.X+X@X$XW.m.m.",
"wXuXwXJ.%X X=X&X=X=X7X@X@X$X+X9X=X@X@X9X$X,X. :.z b M v @ . @ k.3.2.k.j.k.7.j.#X#X#X#Xg.g.0.w.5.e.| ..t.i.o. .t.i.t.r.t.t.i.i.i.i.i.t.O.{.oX:XoX|.I.XXdX|.o.{.( ( / / ) '.'.'.e '.[.[.'.'.'.'.].Z.O.' | W | XX|..Xt. .&X9.J.F.|.|. .G G ^ ^ R R 3 < Y | o.' '  .t.w.F.Y.e.Y.H.Y.Y.e.e.w.w.w.g. .Q T T +.' ` o.` ..E T T 9 / '.e '.) r r ) ) / ) ) / R q 9 R 9 % 1 9 Z.+.( ^ : R 8 / ( & ) q R T 4 q ) e e ) ) +..Xt A p.A A 4.q.q.[ H ! R 0 0 e C.'.S.r r r r r `.`.[.`.`.e e '.r '.`.r 7 7 7 r `.r '.[.e r 7 e r 7 7 7 8 0 q 3 < < : 7 7 7 7 & & & 5 4 3 ' D.G.G.I.O.G G G G | A.3 4 W G G E ; , T , % 1 ^ 1 ^ ~ +.C.C.^ ^ Z.Z.D.|.XXoXXXXX|.G.|.F.F.F.I. X&XXXG.XXD.t.XXI.e.XX0XXXoXXX- w.ZXSXvXjX8XrXtX7X&X XF.r.F.|.J.&X7X&Xi.+.X.( X.X.^ 9 T T Q {.Y W E | X.].].) w w '.7 & e e e ) 8 '.'.) ) ].) e '.`.r ).e [.'.].R X.].].'.'.e / '.].].OXoXoXoX:XqXqXqX7X8X9X7X2X7XtXBXuX[ u.u.w.E.L N K j J J W ^ 9 ) / ]./ ].].X.X.o. .6.{ 6.9.9.u..Xu.J.i.H k { { E Q | g { q.q.=X2X#XkX=.&.@ X X @ n @ @ . @ $.-.A p.A q.a   i. XJ.{.|.F.|.:X:X&XwX&XwX8X2X2XCXHXKX",
"wXuX:XP.%X%X%X%X@X#X7X@XE.@X+X2X=X:X7XL.+X#Xc   + v v x c M <.Q.T.T.1X8XbXDXHXHXCXVXSXxX7X*XE.L.H.e.9.t.i.i.F.|.i..X XJ..X&X&X.Xu.u.F.XXaXsXaXwXwXyXBXSXsX|.O.| R / ) ) ) ) '.[.).[.[.[.[.[.'.'.Z.+.T Q | W  .F.|.t.J.&XI.i.F.F.XXD.W 4 4 q q q q 4 : 3 T R ( Z.O.O.O.O.O.D.D.O...J I .. .t.Y.O.Z.( X.Z.O.| F.t.o.G Y R R / ) / ) e e ) ].C.q & 0 0 : 2 : 9 3 ! 3 T T 3 Q +.T 3 X.( X.( | +.}.oX( 9 q q e ) ( O.f   m *.u m V V q.] K W R 0 w ) '.'.'.`.`.`.`.`.`.`.r 7 r e e '.[.'.7 7 7 r & & '.r '.& 5 r ].q 7 7 r 7 7 5 5 4 8 8 8 q r r 7 5 & & 2 1 W G.;XqX0XXXD...O.O.~ ..' ' O.| , , W G , G 3 , G | T O.{.| 4 4 q ~ }.{.G.XX:XXX|.G.G.G.D.O.t.D.D.|.XX|.t.|.F.I.XXI.Y.qX0XoX:XJ J w.LXAXzX8X2X2XtXtX7X@X&X XJ.&X:XtXBXJ.| ^ R T R ( ( Q Q Q ! {.! ' E | X.( ( q w w '.& 7 e e ) ) 5 ) C.) ) +./ ).e r `.'.'.].) / q ( ].) '.].].].[.OXoXfXfXqXqX:X:XqXtX7X8X8X9X2X=X=X&X:X:X9.e.J.g.*Xi j K p s J Y O.].+.].X.{.{.i.o.t.l.L.@X=X=X=X@XR.*X=X@Xz.J.&X&X.X .F. .9.q.f.#XW.,XW.p.2.o @ V.X @ X @ . @ M =.M A L.L.u O   J.J.F..X&X:X:X&X&XtXtXcXvX8X4XhXjXhX",
"H. XP.P.P.P.L.@X*X*X=X@XE.*X@X@X@X=X8Xc.8XkX>Xz z b x + + x ,.j.bXAXGXGXGXHXGXvXVXGXAXAXrX=XE.E.L.H.l.g.l.L.@X@XE.2X9X$X$X7XtX8XBXtXtXBXSXZXcXcXrXVXzX5XcX@X[ F.| R R ( ) ) / / w '.'.) C.) / ^ }.}.~ ! o.|  .F.I.G.&X&X&Xe.e.t.G.D.Z.( w w q q ^ 4 4 4 q q q q / ^ ) ) ^ ^ ~ ^ ^ 9 9 T ^ X.Z.C.) ) ( ].+.| O.| i.Q ~ Z.+.) / w '.) w 0 R q 4 8 0 ( 8 : ~ Q E i.|.{.' ` o.G.D.| D.o.D.:Xo.|.XXXXO.: & 8 e ) ( O.= t ,.1.A L _ K 0.I _ ` ~ ( ) '.'.'.`.`.`.`.`.`.`.`.S.r e ) ) C.C.e 7 7 r e 7 7 2   fX~ 2 T T ~ q q q q 7 7 7 w w 0 w r r r 8 5 5 & 1 3 ..I.XX;XeXqX0X0X0XI.O.D.D...J G W G.D., 3 G G 3 W | {.}.| G : ~ Z.Z.Z.| ..G.|.F.t.O.D.G.D.D.D.G.D.F.|.G.t.F.XX:X0XI.Y.XX;X;XqXI [ I GXPXxX9X2X8XxXtX7X:X7XaX=X8X8XtXVXu.' ! T T X.+.Z.+.X.+.~ D.o.o.W o.+.+.( ) ].].[./ / '.C.].) & / ( ( +.) w e r 7 './ ].].].( R 9 R Z.[.OXOXOXOXoXoXdXdXqXqX:X:X7XtX7X9X8X8X9X2X#X@X%X X&X9.u.I 3.y I I j j [ O.| , |.{.o.t.i..X.X7X7X5X>XR.m.+X#X#Xv.c.+X=X2X7X+Xy.6.z.y.L.E.E.jX8XkX5XkXs.. . @ #.@ @ z z @ $.*.M M x m V O f e.9.6.l.7XZXBXtXxXCXVXCXjX6X~.<X6X4X",
"w.E.%X3X%X%XE.7X*X*X*X@XL.E.#X*X=X@X2XE.jX4X4Xz @ x x x c =.j.1XGXHXHXGXVXvXjX8X8X8X2X8X#X@XK.E.R.E.R.K.x.R.W.R.#XW.M.m.x.m.#X9X*X=X=X*X@X@X*X5X5XkX4XW.5X=Xq.&XJ.t.O.D.{.Z.) R ( +.( ^ ( +.~ Q O.}.O.Y J | t.[ u.u.&X X:Xw.w.t.F.D.Z.+.^ 0 0 ^ 0 3 3 8 q 8 & & r e S.e 7 7 r r e w q q q / '.].[.[.].OX}.Z.Z.~ ~ Q X.].].( 0 q ) ) ) R q : : R R / 9 < Q E _ r.F.i.t.XXXX .r.{ ` { |.aXi.XXXX|.G.~ R 0 r q 4 T = j ,.,.L ] E E [ L _ | ~ / w e '.S.e r S.`.S.S.r `.`.'.e q 5 5 5 7 7 e e e & & 4 , ; | ..J O.O.}.Z.w q 7 7 7 7 7 5 5 5 & & & 2 2 & 4 ..F.XX;XU.0X0XqXqX0X|.G.G.G.t.| J H G.F...O.o.o.O.D.O.qXoX| W W A.D.O.Z.o.|  ... . .O.O.O.D.D.{.{.D.D.G.D.|.F. XqXuX Xw.[ XXt.I I P z.GXHXBX7X8XBXtX2X2XxX2XVXAXGX8X#X@X5.' | | o.+.Z.+.o.o.D.o.D.i.t.` O.Z.Z.{.].].].].].].[.].].( 4 ^ ^ < T 0 : 8 / / ].].OX{.{.Q X.( ].}.OXfXfXoXoXoXoXqXqXuXwX:X7X8XtX9X8X8X8X8X9X2X=X-X.XJXe.e.w.s 5.I K e.- = H ..i.XX.X&X&X@X$Xq.x.W.4X4X>X>X,X,X>X5X,X>X,X2X5X2X2X#X@XE.9X5XM.>X8X8X2X1XvXo + @ @ @ X @ @ . @ x @ y A m L V K p 7X7X2X8XVXvXvXVXxXxX5X<X~.~.~.<X6X",
"E.@XL.@XR.E.K.E.K.K.*X-XL.l.@X-X=X@X#X=X9X>X4Xc z @ x c N 7.#XBXAXxXzXrX8X2X2XjX8X2X#X2X*X2X*X3XR.>X1XT.m.T.Q.Q.1X!.h.h.h.n.M.>XR.>X5X2X2X2X6X,X6X<XhX,X1X#Xq.l.P.J.J.|.|.D.O.+.+.O.| ' t.t. ...G.|.XX|. .i. Xe.[ w.H.P.;X XI.P.XX|.}.XX{.| G G G G 4 : 4 q e e e r e e 7 7 r r 7 7 7 7 7 r '.'.[.'.r q w q q 8 0 ( Z.].Z.) / / C.) w : 2 2 : ( X.( 9 < g { i.y.y.r.u.&XJ.[ u.u.6.z.&X&XJ..X XJ.t.| ( q 7 q 8 9 % d a j k g < < _ _ W Q R q r r e e e r r r S.S.S.`.`.S.7 & & & & & & ) [.[.8 2 1 f o I ZXpX;XLXXXZ.0 8 r 7 7 7 5 5 & & & & : : 1 3 ..G.XXXXXXU.qX0X0XXX;X0X;XI.G.G.F...I I  .O.O.O.D.G.G.t.:XF.G.t.O.G.A.| A.D.O.O.O...| O.X.~ | X.D.{.D.{.|.G.|.F.|.&X&X;XJ.I XX|.e.e.a E.PXDX7X7X7XtX8X7X9XvXDXjXCX2XE.L.l.L.|.|.|.{.{.{.i.o.| F.G.F.F.i. .i.{.}.OXOX].) w / ) ].].) 9 T o.Q | < 9 8 & / Z.) }.oXXX}.X.+.+.].}.oXfXfXoXoXoXoX:XqXuXtX9X7X8X8XtXtX8X8X8X5X1X@XcXJXZX[ J w.0.I I H ` = O p u.L. X$X7X2X$X,X8.a.s.W.5XhX4XhXlX<X6X>XW.W.W.W.>X2X8X2X2XkX5XM.T.>X1XcXxX3X5X+ @ # v n v @ . . + . N <.,.7.L j 7XSXDXkXCXDXbXvXjX>X>XW.~.>X>XW.M.m.",
"cX8XE.L.@X=X@XE.H.g.H.-X=X%X-X@XE.@X=X2X9X8XjX<.M x y z y 4.*XvXBX2XR.Q.#X+X+X>X2X#XE.#X1X2X6X2XR.#X#XT.j.x.W.#XQ.Q.!.m.m.W.W.M.W.>X>X#X>X5X#Xh.<X~.4X,XT.L.q.[ L.l.q.9.t.G.G.O.oXoXXXXX:X&XP.J.z. .u.J.P 5.-XP.w.l.w.P.I.%XP. XI.I. XXXXXG.I J J J G 3 q / '.'.S.r r r r r r r r r r r r r e S.`.`.r e e e w w ) ].].) / / R / r / C.].}.].~ R +.( ( ( | |.&Xz.L..X X Xy.l.@Xz.z.=X:XL. Xz.l.q.r.| R 8 7 e 0 R , k d k E < 9 0 W E T q q w e C.e S.S.S.S.S.S.`.`.`.`.e q 8 q q 8 5 & ) [.[.0 & ; O JX0XI.iXqX3 W 9 4 q w w w w 7 7 8 q 9 R ~ | ~ | A.G.G.Y.Y.Y.XX0XeXqX0XqX0X XI.G.Y.G.G. ._ H J J W H ` G.XXF.G.D.G.|.G.O.A.X.X.O.Z.O.| ~ | ~ O.O.D.{.{.|.|.G.t.|.XX&X&X&XI.[  X XqX7X5.6.PXDX7XtX7X:X7XBXvX8XbXR.+XR.=X8XL.=X:X&XXXXXXXXXXX|.t.|.XXXX.X|.J.|.oXOX}.}.].].0 w ) ].].( < ~ O.| XX< T X.9 R +.+.}.XXoXoX{.+.( X.oXqXqXqX:XqX:X:XqXuXtXxX8X8XjX8X8X8XtXxXnX5X1XE.0.;X%X[ j w.*X;Xt. .G p K L =X8.+X$X#X>X+X4X+X<Xm.~.<X>X~.<XhXlX~.>X4XjXkX5X4X5X>X4X5XhX4X5X5X2X#X7XrXrX^.  # # $.b b v @ @ @ . @ p.N i 1.7X-XSXxXvXFXDXkX5X<XW.~.W.W.~.~.!.M.M.",
"2X2XR.d.K.L.L.K.P.H.g.E.%XwXyXK.E.@X7X2X9X#XM.c x x x + m T.cXBX5XQ.R.W.,X2X2X2XW.W.W.m.W.W.>X#X#X%X@XR.K.K.R.E.v.T.T.v.v.m.x.j.M.!.M.!.Q.1X,XW.<X<XW.R.L.z.J.r.J.H.9. .t.D.D.| +.D.D.D.{.i. . . Xl.w.l.1.5.*X=XK.H.Y.H.e.Y.H.H.H.I.Y.e.e.Y.Y.e.K P I W ^ ) e r r r r `.`.S.S.e `.S.`.`.e e e r r `.`.'.[.S.S.'.) C.w q 0 9 8 0 q q 0 ( {.{.X.^ ( ( X.O.{..XL.x.y.l.7X7XL.+Xc.4.y.l.L.l.+XL.L.l.|.t.X.w r r 7 q 3 E f E ! 9 w q 9 Y 9 8 q e C.'.e S.C.C.S.e S.`.`.S.S.S.w 0 R q q 0 8 0 q q & 2 & | }.oXsXJ 3 T q 4 q w q 4 4 q q 8 q 9 R ~ ' | J J ......A.G.G...Y.qXiX0X;X;XXXI. X%XXXI.e.` ..` W J J H XX&X XF.G.t.D.t.O.G.A.X.Z.Z.Z.X.X.Z.Z.{.D.{.{.G.|.|.t.i..X:X:X-X@Xu.[ e.I 9.@X*Xx.KXVXtXaX7X:X7X8X5X>XM.m.2XxXAXAX@X@X&X X.XJ.|. XXXXX XXX:X&X&X&X:X&X|.{.Z.+.Z.]./ ) ].Z.].+.3 o.G.t.F.g Q {.].}.oXoXaXqXqXoX}.+.].}.qXqXuXqXqXqXqX:XuXaXaXxXxXjXjXjX8X8XzXxXvXnX5X#XE.E.LXI.j [ 3. Xt.t.|.- f z.VX9X#XkX4XhX<X<X+XM.<X<XlXhXhX4X4X4XhX4X<X<X4XhXjXkXhXjXkXhX4XjX5X*X3XyXSXK.cXs N *.x @ n v v v x @ v N 7.Z O cXg.@XDXFXjX>XM.M.M.>XW.W.!.M.M.M.W.W.",
"#X5X8XR.R.x.K.K.K.@XE.K.0.R.cXE.@XK.9X9XCXE.h.c + x x + m #XBX=XT.W.#XW.W.#X#X#X+X+X#Xx.R.R.2X2X3X=X=X=X=X@XR.L.E.T.T.E.T.j.v.W.m.M.W.>XW.m.M.W.R.>Xf.f.L.l.i...[ u.J.9.` ` Q Y T X.O.+.G.t.t.F.l.R.l.q.L P 5.L l.0.w.w.P [ H.w.0.*X3X%X*X3X%X5.K K J J T ~ w 7 5 7 `.'.`.r S.`.'.`.S.S.S.'.'.S.r '.'.'.'.r e `.) e r w ].X.( ].].].].{.oX|.D.{.+.{.o.o..XL.v.+X+Xv.2X$Xx.R.E.+X@Xl.y.z.y.l.J.z.t.| +.].C.) R +.Y ' ` ' R 0 e q 9 T q 8 8 8 r w e e e r 7 7 r S.`.S.`.'.e / C.( q ^ 8 q 8 0 8 q 4 fXfXZ.3 R ~ 4 q 5 5 q w 0 ^ ~ q w ^ ~ ~ | ~ ` J J J W ~ ....A.Y.Y.XXeXpX0XuXuX-XwXpX;X Xu.[  ...O.O.` ..:XF.....t.t.D.t.O.D.O.{.{.{.].Z.{.{.{.{.D.D.D.F.|.XXF.XXXX.XXX&X Xw.e.5.H.e.u.l.T.PXHXBX:X:X8X=Xv.j.R.5XxXxX9X#X@X&XaX7X:X&X&X&X&X&X&X&X X&X&X&X-XtX&XXXXX{.Z.Z.OXZ.OXZ.( +.Z.Y +.{.|.D.o.D.{.oXoXoX:XqX:XaXqX:X].].{.oXqXuXaXaXaXuXwXtXtXtXtXxXxXxXxXxXtXrXzXnX8X6XQ.K.R.LX5.s e.I.I. X .JXf K AX9X#X#XkX>X>XM.M.,X,X<X<X>X<X4X4X4X4X5X4X<X4XhXlX4X<XjX6XhXhXhX5X2X3X3X%XP.;X3X3X1.+ v x M =.,.1.1.A N N N + N 2XR.#Xx.W.W.W.6X>XM.m.n.M.!.M.M.M.m.j.",
"2Xx.xXv.#Xx.T.K.R.R.R.R.x.d.d.d.7.j.T.BX2X$X#XZ . v v . *.#X*X*XQ.>X#XQ.Q.#X>X#X#X#X+XE.@X@X#X*X2X1X#X#X#X#X#XQ.#X#XQ.R.R.R.T.T.R.M.x.m.W.#XW.x.m.T.x.l.g.l.u.e.[ { 9.i.F.t...W o.+.D.o.{.XXXXe.L.E.L.l.e.I j K q.l.H.l.H.L.E.E.#X2X*XE.*X7XP.[ [ J J ' X.W G q 5 e '.`.r `.`.`.[.e e r ) ) ].( ) e ) ].'.0 7 r r e e ) ].{.XX|.F.D.|.XXXX.X|.i.] y.z.6.c.f.v.v.W.4X4XW.f.f.c.+Xz.q.9.r.t.r.o.t.O.X.X.o.O.{..X.X X|.r.O.6 (.q 0 @.: & 6 8 5 8 8 7 7 r r 7 r r r S.r '.'.C.Z.A.A.T ^ ^ ^ w R 0 9 9 {.+.: 4 3 4 4 4 4 4 q ^ ^ ^ ^ T 0 3 G ~ ....J J J T T T ^ ^ | Y.Y.I.;XpX0X-XwXwXwX-X XP.&X-XP.w.[  .t.[ J.D.I  ._ O.G.|.| o.D.{.D.D.{.{.D.D.{.D.A.|.XX|.XX&XoXXX:X:X&X@XL.w.q.1.0.,.,.L.T.vX1XR.v.v.f.p.R.xXCXxX$X#X=X@X.X X X:X:X:X&X-X:X-X&X&X=X=X2X=X=X=X=X&X&XXX XXX|.XXoXoXX.< X.{.{.}.{.O.{.O.+.oXoXdXoXdX:XfXdX|.X.+.oX:XtXtXaXBXBXtXtX8XtXxXxXxXxXxXxXcXvXxXxX8X5X2X=XrX*XZXwXO w.e.H.e.G.ZXP l.2XE.+XW.>X4X,X<X,X6X6X~.<X<X<X<X<X4X<XhX6X6XhXlX4XlXkX<X4XlX5X5X5X5X5X8XtXE.R.tXK.0.N v v N 5.J t.Y.I P 3.N + <.!.g.Q.m.!.M.M.M.M.!.!.M.M.!.M.M.M.!.W.",
"2XK.jXk.T.T.#X#XE.R.R.R.T.T.W.#Xj.<.A 2XxXtX,Xc + v v . p.1X*X@XQ.>X>X>X>X1X1X#X#X#X@X@X@X@X#X#X#X>X#X#X1X#X>X#XQ.Q.Q.Q.W.W.W.R.m.T.x.x.T.R.T.x.x.K.x.l.l.l.u.u.` ` [ 9.u.i.t.t.J | {.XX{...t.P.K.E.L.u.9.[ ` [ l.H.l.K.R.#X#XE.#X1X#XE.@X%XP.9...H J , 1 ; ; 1 q ) ) ) r `.`.`.e e [.[.].+.Z.X./ 0 @.+.+.( w e ).'.(.(.{.|.&X@X X|. X XJ.z.z.l.4.q.W.W.,Xx.m.M.M.>X>XM.m.R.@X$Xl.r.r.t.t.o.| o.o.o.O.t.{ y.@X:X:XXX{.i.~ ].8 8 6 6 q q 6 6 8 : & & r e e '.e e r r C.C.C.Z.Z.G.A.A.C.^ ^ R q 9 3 ^ T : 4 4 4 q 5 5 4 4 9 R ^ T ~ ~ ~ | A.A.| W J J G G T ^ ^ | t.XXI.e.w.P.P.H.-X-XwX7X-X-X-XP.H.aX:X[ I |.F.F.F.t.F.O.| E O.{.{.G.D.D.D.D.D.{.XXG.|.XXI.XX:X:XqXqX:X&X X0.P P y A A p.f.,.,.x 7.p.x.R.R.5XVXVXxX=X=X@XJ..X&X&X&X&X&X&X&X-X&X*X=X2X7X7X7X7X7X2X9X7X:X:X:X&X:X:X&XF.Q Q O.{.}.{.{.{.O.X.oXoXfXoX:XoX:XdXoX|.oXdX7X8XtXxXxXxXtXtXtXxXxXvXxXxXxXxXxXxXvXbXvXxXrX8X3X-XcXSX+ u.e.H.e.H.aXK V L.R.2Xm.W.,X6X4X4X4X,X<X<X4X<X<X<X6X<X<XhX4X>X>X4XhX<X<X6X4X4X4X4X4X2X>X1X5X8XcXK.V A v v m P J A.G.G.I N N + ~.~.W.T.T.!.M.!.!.!.!.M.!.!.!.!.M.m.m.m.",
"2XR.1X1.,.7.d.f.R.T.m.R.R.R.!.#X>XW.j.c.@X7X8X<.z @ v @ n.1X*XE.R.W.#X#X>X1X#X#X#X#X#X#X#X#X#X#X#X#X#X#X#X#X1X1X#X>X>X>X#XR.T.x.x.c.m.x.j.v.K.T.l.l.x.H.l.w.q.w. .[ [ [ 9.t.i.F.| W | o.t.I e.@XE.#XL.u.u. .9.u.L.L.K.K.Q.*X#XT.Q.#X#XE.E.P.P.J.....J , ; - G G T ( ) ) r e e '.'.e e r w w Z.].+.) +.].].].) / ) '.(.].{.|.&X@X&X X&X Xz.z. X+Xq.0.R.+XE.v.+X>XW.W.W.M.W.+X@X.Xl.y.y.i.t.r.t.i.i.t.i.t.{ 9.z.|.|.|.t.o.{.(.q 9 9 ! R 9 : 8 q & & & r e '.'.'.'.e S.C./ C.G.U.U.A.~ 0 9 0 ^ ^ ( +.~ T T 9 4 4 4 4 3 0 ^ ^ ~ ~ ~ ~ O.O.A.Z.G.A...W J J J W ^ ~ ~ ..XXU.I I I.P.H.H.P.-XwXwXrXwX-XH. XpX&Xe.u.t.G.:XF.G.J J | oXXX{.{.D.D.G.{.|.{.|.D.F.F.F.XXqXuXqX&X X&X%X5.t i ,.m y N m u m 1.W.>X8XxXxXVXGXVXCXtX7X@XL. X&X X&X&X&X&X&X:X:X&X&X:X7X9X9X7X9X7X9X7X2X=X=X=X&X&X:X&X|. .i.XX{.{.oXoXi.o.oXoXqX:XqX:XdXdXqX:X:XwX7XtXtXxXxXtXxXxXtXxXvXvXvXvXvXvXxXxXxXzXzXrXrXrX7XcXyXLXP g.g.H.H.H.;XP + l.m.R.M.M.W.<X,X,X,X,X6X4X6X<X>X<X,X<X,X<X<X<X>X+X+X>X<XlX4X4X5X4X4X4X,XVX#X=XcXE.P N # @ + s - ..G.e.Y.N N + hX~.Q.T.W.!.M.M.!.!.!.M.!.!.W.W.!.!.W.!.",
"H.K.7X8X2X*XT.x.x.x.T.R.R.x.j.h.h.T.R.,.u u f.=.x + v @ !.Q.Q.E.R.W.Q.Q.#X#X#X#X*X*X=X=X*X*X#X#X#X#X#X#X#X#X1X1X2X2X2X2X#XT.j.d.l.x.x.x.f.j.x.T.x.l.K.K.l.e.9.q.t.t.9.9.5.9.9.t.t.| W G ..t.J.H.#X*XE.L.l.e.[ q.=X=X*X*X2X3X1XQ.Q.Q.Q.Q.E.P. X@X[ ` J f - f J J , 3 : 9 9 w w e ) r r e e ) '.'.].].{.{.{.].) / ) (.].{.|.|.@XR. X.X X Xc.+X=X=Xv.v.E.W.v.v.#X>X>X>XW.M.W.+XR.x.c.l.u.u.r.r.i.J.J.t.i.r.9.r.r.{ { o.o.' |.O.Q Q Q ! 9 9 8 q 9 & % 2 e '.[.[.) e C.C.C.w A.}.U.U.U.A.^ ^ ^ ^ ~ X.~ G 3 T 4 4 3 3 4 9 R ^ ^ ^ ~ X.X.A.A.A.Z.G.G.A.O...W ~ ~ ^ G J ` Y.Y...e.w.H.H.w.w.P.*X=X3XrXtX-Xw.P.yXJ.e.[ ..J I F.D.O.F.qXG.F.F.F.G.G.{.G.D.{.|.|.XXXXqXuXuX:XXX X@XJ.P i y A m x =.N 1.f.9XvXvXVXbXvXvXvXxXCXxX8X=X@X&X&X XXXoX&X&X&X&X&X&X&X:X7X7X7X7X9X9XxXjX8X9X9X7X7X7X:X:X:Xi.z.XXi.z.:X:X|.r.:X:XwXwXaXaXaXaXtXtX7X7X7XtXtXxXxXxXCXBXxXxXvXvXvXvXvXvXVXvXxX8X8XzXbXBXbXbX3XZX1.1.Y.K.K.K.%X0.+ v.j.p.>XW.!.W.#X#X>X,X,X,X<X<X<X,X6X4X4X<X<X4X4X>X+X,X6X<X4X4X5X4X5X5X4X8.W.#XR.xX0.*.v x y s - W O...w.I %.$.~.~.W.T.W.!.M.M.M.!.!.!.M.M.M.!.!.W.>X,X",
"^.H.K.K.g.K.E.3Xg.j.T.W.W.m.h.h.T.j.R.R.f.m <.p.c @ v @ m.T.Q.Q.#X#X#X#X#X#X#X#X*X=X=X=X*X*X#X#X#X#X#X#X#X#X#X#X#X#X#X1X#Xx.d.0.f.f.f.l.v.v.x.K.l.x.K.K.z.l.w.u.z.F.u.u.q.9.9.9.`  .D...e.H.P.g.R.Q.E.P.J.9.[ 9.@X*X1X1X1X1X1XQ.Q.Q.Q.Q.#XE.P. XP.e.J J J f s f ` G > | Z.OX].) w w ) '.e e e ) / (.].].+.( ) +.) ].{.|.XX.X@XE.c.c.c.L.L.@X$XW.f.R.2X#Xx.W.#XR.W.W.W.W.+X+XE.m.L.c.L.z.u.y.y.l.z.y.u.y.r.i.t.o.' O.i.O.oXt.o.X.Q T R @.@.R 9 & 8 & q w e ) / '.C.C.C.q A.oX}.}.G.A.~ ~ ~ ~ ~ | | W W G 4 3 T T T R ~ ~ ~ ~ ~ O.D.G.G.D.D.G.G.D.G.O.......W G 3 ..w.Y.Y.Y.w.w.Y.Y.w.H.P.I.P.;X-XwX-XP.P.J.F.J [ J.XXsXXX`  .:XXXXX|.I.F.F.|.|.G.F.F.|.|.&X0X:X:X:XwX-XJ.P i i N m N A 1.A j.#XDXvXvXxXjXxXvXvXvX8X2X=X=X=X&X&X:X&X&X&X:X:X:X&X&X:X:X7X7X7X7X7XtXVXvXkXjXjXjX8X9X2X=X7Xz.u. XJ.@X=X=XL.z.7X:XtXtXtXaXBXtX8XxXBXxX8X8XtXtXxXxXvXCXxXvXvXvXxXxXxXvXjX8X5X5X5XzXVXDXbX8XE.1Xg.y g.f.f.E.3XQ.+ 7.h.h.,X>XW.W.>X#X>X>X<X<X,X,X<X<X<X<X<XhXkX4X4XhX4X>X>X<X6X6X6X6X4X4X>X4XW.xXCX2Xp.<.v v N s J ` ..` I P ,.<.~.W.W.M.T.!.!.m.m.M.!.>X!.M.m.h.h.m.!.W.",
"pX%X;X3X*XP.K.K.T.T.T.R.W.M.m.x.m.d.x.T.x.4.=.*.v x M @ h.m.T.#X>X#XQ.Q.Q.Q.Q.#X#X#X#X*X#X#X@X#X*X>X#X#X#X#XE.R.K.x.R.#X#XK.f.f.f.0.q.f.j.v.v.x.v.x.x.K.L.L.L.J.u.u.H.J.l.u.w.u.[ ..t.t.H.w.K.j.x.T.R.E.L.q.5.e.K.R.Q.Q.Q.Q.Q.Q.Q.Q.Q.Q.E.R.L.L.wXH.I P I K J J s j K 9.t.{.{.].+.) w r 7 r e e e ) +.( q ! ( ].].{.i.{.|.L.+XW.+XW.+X+X+X#X+Xv.f.#X#XW.f.#X,XW.#X>X#X#X#X#X+XW.x.c.+X@X@X+XL.L.R.+X+Xz.r.r.i.t.o.i.{.{.:Xi.t.t.o.~ ~ @.! 9 R R ( : & & & 8 w '.C.C.^ T G.XXU.U.A.A.~ ~ | A.A.Z.A.A.X.G 3 G T T ~ X.O.X.| | A.A.G.D.D.D.G.I.U.U.F.A.......J J J G.I.I.Y.Y.Y.Y.H.Y.w.Y.H.H.H.P.P.K.P.%X-X%X&Xw.[ G. XuXXXt.F.qX&X&X XJ.F.F.F.|.XXG.F.F.|.:X0X&X-XwX:XJ.L m a a N N L Z m x 7.2XGXVXVXkX8XxXvXjXjX2X@Xc.L.&XL.L.&X XXX&X:X:X&X&X&X:X:X7X7X9X8XtXCXvXvXkXjXhXjX8X5X8X2X9XE.y.E.7X8X9X7X+XL.8X2X8X8X8XCXVXxXxXxXvXvX8X8X8XtXxXxXxXxXvXCXCXvXxXxXxXxX8X8X8X8X8XjXzXnXzX>XT.Q.Q.+ d.d.j.Q.Q.Q.+ p.m.M.W.>X<X<X,X,X,X>X<X<X<X<X>XM.M.M.>X6X4X4X4X4X6X>X<X<X6X6X6X6X4X4XW.hXjXM.4XkX=.M @ c m a K | ..[ e.P 1.v ~.h.,Xm.M.!.!.M.h.m.!.>XM.m.n.h.h.h.m.!.",
";X^.P.K.I.E.3X*X*XE.R.W.W.M.M.m.m.T.T.j.p.h.<.Z x v v @ 2.m.m.Q.Q.W.W.Q.Q.R.R.E.#X#X#X#X*X#X#X#X1X#X#X#X#X#XE.T.x.l.K.E.E.l.f.f.0.8.8.0.f.f.f.v.l.x.l.l.K.@X@XH.u.i.l.l.z.z.l.l.t.[ ..e.H.g.K.T.T.R.L.L.L.e.5.q.E.#X1X1X<X1X1X1XQ.~.Q.W.T.R.L.L.;XH.5.I I I K K V u.L. Xu.F.{.|.+.Z.) ) q ) e r ) ( ( R 9 9 ( {.{.i.t.J.@XE.#XW.>X>X,X>X#X>X#Xx.v.#XW.x.p.W.+X>X>X<X>X>X>X#XW.W.m.W.$X2X2X2X=X$X>X,X$X.Xu.i.i.O.X.+.t.oX:XJ..Xi.i.X.X.R 9 R X.X.: % : 9 8 8 4 8 ) A.A.~ G.U.A.G.U.U.G.A.A.A.G.G...O.J G ` ....A.O.X.| | | | ..O.A.G.D.G.I.XXXXXXXXG.....I J J ` Y.I.Y.Y.Y.H.Y.Y.Y.w.Y.H.Y.H.K.g.w.3.%XZX=X-XP.e.qX XJ.I K I e.[ u.w.w.u.e...e.F.F.I.|.:XaXwX%X&XP.u.V t B L V a i A Z Z A =.>XjXCXvX2X#X2X2XW.W.#X$Xc.L.@X Xz..Xu.u.u.J.J.z.J.L.@X=X7X9X9X9XtXvXvXMXMXvXnXkXjX6X8X9X8X2Xv.E.CXxXxX8XE.m.jX5X8X5XjXxXvXvXvXxXxXjX8X8X8XtXvXVXCXvXCXCXCXCXvXxXxXxXVXVXVXbXvXxXjXjX6XW.m.Q.1X@ 1.k.n.W.h.m.v k.m.n.W.<X4X<X>X6X6X>X<X>X>X>X>X!.M.W.6XW.W.6X6XW.W.6X4XhX4X4X4X4X4XhXkX4XjXkX#XCXIXh.b N A a [ `  .[ w.A m M ~.n.>Xm.m.M.!.M.m.m.M.M.n.m.M.M.M.M.!.!.",
"Y.Y.Y.e.Y.^.rXE.#XE.Q.#X>XW.W.!.R.x.f.x.j.x.=.*.x x x @ <.T.j.T.Q.Q.Q.#X#XQ.E.Q.1X*X*X=X*X*X*X*X1X#XQ.#X*X#XR.l.K.x.K.E.R.g.0.0.7.8.7.8.7.7.f.v.v.K.x.d.l.@XE.u.l.u.l.l.z.z.l.l.e.e.u.w.K.K.Q.Q.#X#XE.L.H.5.I e.E.Q.Q.Q.Q.Q.Q.W.W.~.Q.R.T.E.@X@XK.L.H.q.5.3.P P q.L.L.L.u.|.i. .| {.].) & w e ) / 0 0 R R R X.O.t.t.i.@X2X2X4X>X>X>X,X>XW.#X>XM.h.>XW.W.m.+Xx.W.>X>X#X>X>X>X#X#X>X#X#X#X#X>X#XW.>X>X#X+X.X.X{.X.X.o.t.:X:X X+Xy.| X.X.Q Q +.X.< Y 1 : 9 < 9 9 ^ R ~ ....I.U.A.U.G.U.A...~ A.G.U.XXXXG...U.I.G.U.G.G.G.A.A.A.D.G.G.U.U.XXXXoXXXXX0XI.e...I I ` ..XXU.Y.I.U.I.Y.I.Y.Y.Y.Y.w.H.H.0.f.g.0.1.1.w.P I I P 5.[ w.w.u.e.5.5.w.P.I.e.e.u.e.u.J.&XuXP.] ] j V B a a a y a a L V N A x W.4XxXxX#Xm.>X,X+X#XT.$XE.L.=X=XL.z.l.u.u.u.u.u.l.L.l.R.#X2X9X9X8XjX5XkXvXnXkXhX6X#X4X8XjX8Xf.T.VX,XjX2Xj.f.8X8XjX5X5X4XkXvXVXvXvXjX8X9X9XxXVXGXGXVXVXVXVXCXvXxXxXvXvXxXkXjX8X5X6X6X>XT.j.~.W.. %.h.s.~.n.M.v 2.n.n.W.4X4X>XW.<X6X>X6X<X<X6X6X6X4XjX6X4X4X>X<X4X4X6XhXlX4X4X6X6X4X4X<X4X,X,XkXW.,XkXc m m + j f K j s y + j.,XW.!.m.M.M.!.M.M.m.n.h.n.M.W.~.W.!.m.n.",
"Y.U.Y.Y.0.5.E.*XQ.#XQ.Q.>X>XW.m.m.R.x.j.m.a.=.=.+ z + c 3.m.T.W.R.Q.#X#X#X#XE.T.x.R.*X2X#X#X#X2X*X*X#X#X#X#X#X#XT.E.K.L.#Xl.,.L L S L 4.8.7.7.7.j.L.L.l.K.@XE.l.J.J.L.K.z.z.z.H.w.e.w.w.E.K.R.1X#X#X@X@XL.5.] g.*X1X1X<X~.~.Q.Q.Q.Q.Q.Q.Q.Q.#X*X@XK.g.w.7.f.q.V P &X.XL.L.q.z.t.i.i.+.+.+.) / 0 q / ) ( @.R +.{.o.J.=X=X,X>X>X>X<X>X<X>X<X4X>Xj.p.,X#Xj.W.,XW.W.#X>X>X>X>X>X>X>XW.>X2X2X2X>X>X>X~.<X,X+X+X.X|.t.t.o.o..XtX=Xl.l.t.Q ' O.o.! ' E ! ! Y < Q < g < 3 J ..Y.Y.Y.Y.U.U.U.U.U.U.G.U.I.I.XX0X0XXXXXI.G.A.U.G.G.G.O.G.G.U.XXXXXXXXXX;X-X;XXXY.e.e.....Y.U.U.U.U.I.Y.H.I.Y.Y.Y.Y.g.Y.K.w.K.g.0.0.e.3.I J P 5.e.5.e.w.w.H.g.w.g.g.0.e.5.I w.e.u.u.5.L V j B V V V V K V h a S u m x M !.W.jX#XR.#X,XW.R.T.x.c.L.L.L.z.l.z.u.l.l.l.q.q.l.l.f.f.v.v.j.v.j.h.j.T.,X5X5X>XW.R.!.W.m.T.f.v.xXxX8X5X<.=.#X#Xx.5X5X8XvXDXDXbXDXGXGXGXHXHXKXHXHXGXGXVXxXjXjXkX8X2X!.R.!.,X4X>XW.!.~.k.n.M.~.@ # s.n.M.~.v @ -.m.m.<X,X<XW.W.#X,X,X#X>X4X4XjX4X4X4X4X4X4X5X4X4X,X6X4X<X6X<X6X4X4XhX>XhX<X>Xn.W.4Xs.x y V s = p p s K y   #XW.!.W.m.!.M.M.M.M.M.M.!.!.M.M.m.m.m.m.m.",
"w.Y.w.Y.K.*X3X2XT.R.R.R.#X>X<XW.R.T.m.M.m.p.=.7.A Z i + A j.m.j.R.W.Q.Q.Q.#XQ.R.Q.#X#X*X#X#X#X#X#X#X*X*X#XR.x.g.x.l.l.L.L.q.1.,.,.S L 4.7.4.<.7.7.f.T.E.@X#X@XH.l.J.K.K.K.K.K.J.e.e.w.w.E.K.Q.Q.R.E.@X%X@Xl.5.0.#X#X~.~.~.Q.Q.Q.!.Q.Q.Q.Q.Q.*X*X*XK.H.f.7.d.f.P L &X X.XL.u.J.i.F.F.D.+.+.) / 0 / / ) +.( Q X.t.i. X#X>X>X>X>X>X>X>X<X>XW.>XW.j.a.>X#Xh.W.>XW.W.~.>X>X>X>X>X#X>X#X>X,X2X1X,X,X,X6XhX4X>X$X=X X|.t.i.|.&X:XL.l.L...E ' i.o.' | ` ' ' ' E ' H E E ....e.w.Y.U.Y.U.U./.U.U./.U.;X;XXXXXXXU.G.G.G.G.U.U.D.D.G.G.U.|.XXXXXXXXU.XX;X0X;X;XI.Y.Y.t.w.G.eX0X;XU.U.P.I.Y.P.Y.w.w.0.g.H.g.j.g.g.g.g.w.I P I e.e.5.e.w.w.g.H.g.Y.Y.w.w.e.5.5.P I I V B V B V K K V V j a i t B i m x M !.W.>XW.R.W.W.M.m.m.m.m.T.L.l.l.l.l.l.l.l.l.f.f.f.v.f.f.f.f.h.h.h.a.p.f.j.x.m.x.f.k.v.x.f.v.7.7.W.W.#X#X7.1.W.#Xm.2X>X#X,XjXvXbXGXKXPXPXKXHXGXVXxXjX#XR.x.m.#X,X!.k.j.k.h.j.m.h.h.h.m.2.a.s.M.v v 2.2.>.2.@ # %.n.m.,X4X4X6X,X6X,X,X,X,X,X,X,X,X,X>X,X4X4X4X4X2X4X4X6X6X<X,X<X6X6X4X>X6X6XhX6X6XkX>XN u V m t a a j i y + 8XW.M.M.M.M.M.M.M.!.!.M.M.!.!.M.m.m.m.m.m.",
"K.Y.H.Y.T.*XK.j.K.K.x.j.m.M.M.m.R.j.m.!.h.<.,.8.B ,.B O + A k.m.R.R.E.E.E.#X#XQ.Q.E.R.E.#X*X#X#X#X#X*X1X#XE.L.l.L.K.L.L.l.q.q.6.6.4.,.4.7.4.8.8.1.7.f.x.c.L.L.L.l.z.l.K.K.K.K.K.e.q.w.w.E.E.Q.Q.T.E.P.@X%XL.0.4.#XQ.Q.Q.Q.Q.Q.Q.T.!.!.Q.E.E.#X*X*XR.K.x.d.f.d.,.5.@X X Xz.y.J.r.F.{.{.+.X.( Q R q q 0 ) ( X.O.|.@X=X,X>X>X>X>X>X<X>X<XW.M.M.!.m.h.#X!.m.W.>XW.W.W.>X<X>X>XW.>X>X<X,X6X4X6X,X<X6X<XhX6X,X2X2X&XJ.J.z.&X:X&Xz.c. X .W O.D.o. .t.t. .r.i.{ 6.K K ] 9.[ 5.e.H.U.I.U.U.U.G.U.U./.0X0X0X;XU.G.G.G.G.G.U.G.G.G.G.G.XXU.|.U.U.G.I.I.;X0X-X-X%XI.H.w.w.Y.I.;X-X;XP.P.H.Y.H.e.3.0.0.g.K.K.g.g.H.H.H.w.e.5.[ w.e.e.w.g.g.g.Y.g.Y.g.0.0.f.w.l.0.7.5.L A A V V V V C K K j p = t i u x b M.M.R.E.#XW.R.M.M.R.m.m.c.l.l.q.q.y.w.l.l.y.f.q.f.f.f.f.h.j.h.h.h.j.j.f.q.q.f.f.f.f.f.f.f.v.7.1.f.f.f.x.7.<.v.m.x.T.#XR.M.!.W.!.#X,X8X8X2X>XW.m.x.j.j.m.M.R.W.W.R.m.h.h.h.h.h.h.h.n.h.2.2.-.a.%.%.-.%.#.#.v v v n.~.,X4X4X,X,X4X,X>X4X,X>X#XW.#X#X>X#X#X>X>X>X>X>X,X>X<X,X<X>X>X,X,X4X4X,XjX5X6XxXxXA u m m s a a j y i + Q.M.!.M.M.m.M.M.M.!.!.M.M.!.!.M.M.m.m.m.m.",
"0.0.K.j.H.E.j.T.E.Q.W.T.M.M.M.M.T.h.m.M.p.<.7.1.t S K t O i ,.x.T.E.E.E.E.#X#X#X#XE.R.R.#X#X#X#X1X*X#X#X#X*X=X=X*XL.E.L.q.9.w.q.6.6.4.6.8.8.7.7.7.7.7.f.f.q.g.L.l.l.l.K.K.K.x.l.q.u.H.w.%X*XQ.T.R.E.L.H.P.J.e.5.#X>X~.~.Q.Q.Q.Q.!.!.Q.Q.E.E.#X*XQ.E.E.K.j.f.p.,.7.z.J.L.y.y.J. .t.i.i.o.Q Q Q R / 0 / ( ( Q ' z.=X,X,X>X<X>X>X>X,X<X,X>XM.W.W.M.m.W.W.R.#XW.!.>XM.~.>X>X>XW.>X<X,X6X6X6X6X6X4X4X4X4X,X,X2X2X$Xc.+Xz.@X7X=X+X+XL.o.' O.O.` o.F.|.u.z.J.q.q.6.S L L K I 3.H.U.Y.U.U.U.U.U.U.U.0X0XU.U.I.Y.G.......G.G.I.XXG.G.U.G.F.G.G.G.G.G.XX-X%X%XP.H.Y.G.Y.U.-X-X;XH.w.H.P.P.e.P P g.Y.g.Y.g.H.g.g.g.w.w.w.w.I e.e.5.w.H.g.g.Y.g.g.g.0.0.f.f.g.q.d.q.,.N N m V j h j C K k j = t i u y x s.s.j.R.#XW.R.!.!.R.m.m.x.x.f.q.q.q.w.l.l.y.f.q.q.f.f.f.f.j.j.j.m.x.L.l.l.f.f.f.f.f.0.f.v.v.f.7.f.v.f.v.f.7.p.v.x.k.m.x.x.R.R.R.m.m.#X+XE.T.m.x.m.m.j.R.#XW.R.M.m.m.j.h.h.h.h.p.a.h.h.2.s.-.s.-.-.&.#.:.%.%.@ @ h.<X4X2X>XW.#X>X,X<X,X>XW.!.R.W.#X>X#X#X>XW.W.W.W.#X#X#X>X>X#X#X>X,X,X>X#X,X>X>X5XxX=.i a m y y y m m + m j.T.m.~.M.M.M.M.m.m.M.M.!.!.!.M.M.m.m.m.m.",
"j.j.Q.T.K.Q.T.>XT.T.W.W.!.!.!.W.R.T.!.m.p.h.h.,.V j h h a t m 0.K.E.E.E.E.#X#X#X2X2X1X*X#X#XQ.Q.2X1X#X#X@X#X*X=X=XL.L.z.9.9.w.q.6.6.6.8.0.8.8.8.4.8.f.x.l.7.7.q.f.g.l.x.K.K.x.l.l.J.J.u.%X@XQ.K.L.E.J.l.J.H.e.0.Q.~.~.~.~.Q.Q.Q.E.Q.Q.Q.Q.E.#X*X#X#XR.j.h.p.<.,.1.q.f.l.y.u.J.o.o.t.O.X.Q Q ~ ( R R / ( @.! o..X=X>X>X>X<X>X#X+X,X>X>X>X#X>X>X!.W.#XW.W.>XW.W.>XM.~.>X>X>X>X<X<X6X,X,X,X,X4X4X4X5X5X4X4X4X4X,XW.#Xm.$X9X=X Xz.r.| W O.| H t.J..X XL.R.v.v.j.=.*.A V L P 5.w.e.Y.G./././.U.U.0X0X0X0X0X0XXXI.G.A.A.A.G.XXI.G.U.G.G.G.G.G.G.G.XX0XwX-XP.H.I.H.Y.I.P.I.w.w.I.;X%XH.0.P 5.K.K.g.g.w.H.H.g.g.w.w.e.e.I e.e.[ e.g.g.g.H.j.j.k.3.3.f.f.0.7.d.p.=.N *.=.K j p p p d d d * t i m x x -.-.7.f.m.m.m.R.R.m.m.m.x.x.v.f.y.l.y.y.y.q.q.q.q.q.f.f.p.f.a.k.f.f.f.y.y.q.q.6.q.q.7.0.f.v.f.k.f.x.m.x.k.7.7.x.m.h.h.j.x.m.!.!.M.m.m.x.h.h.k.k.h.m.W.W.!.!.!.!.m.a.h.m.m.m.n.h.h.h.a.2.s.s.s.-.-.-.#.:.%.$.+ v h.Q.4X2X>XW.W.<X<X<X>X#XW.!.R.W.#X#X>X>X>X#XW.W.W.W.W.W.#X#X+X+XW.#X#X>X#XW.T.m.x.x.L y a m y y y m i + x.K.#Xh.~.!.!.M.m.m.m.m.M.!.!.!.M.M.m.m.m.m.",
"1X>X1XW.T.Q.T.T.m.m.M.!.!.m.M.T.T.Q.W.h.s.h.k.,.] C k _ k = i 1.g.K.R.E.E.#X#X#X#X*X2X1X#XQ.Q.#X#X#X#X#X#X#X@X@X*XL.l.q.q.q.w.q.6.6.6.8.8.8.8.7.8.7.7.q.7.4.4.q.q.q.d.v.T.R.R.K.J.L.P.H.%XE.R.K.L.P.P.L.P.H.e.q.Q.Q.~.~.~.Q.Q.E.Q.^.^.^.E.E.*X*X*X#Xj.7.7.1.<.<.7.f.f.f.y.u.r.' O.O.O.X.Q @.( @.9 0 / ( ( X.{.=X$X>X<X6X<X>X$X$X,X#X>X,X>X,X>XW.>X>X>X>X>X#X>X>X~.~.>X>X>X>X,X,X,X<X>X,X4X4X6X4X9X5X4X4X4X4X6X<X<X<X5X9X@Xu.6.{ E G t.| _ F.J.L.L.c.m.h.n.M.&.M B V A m P 3.I Y.A.U././.U.U.;XU.0X;X;X0XU.Y.G.A.G.....G.I.G.I.G.G.G.G.G.G.G.P.-XwX;XI.H.I.I.H.Y.Y.H.I.%X-X%Xw.I 0.3.0.g.g.g.g.g.g.Y.H.K.H.w.e.[ I w.w.e.w.H.K.Y.K.g.g.d.1.3.0.0.g.d.d.7.*.M <.<.C f p - - > d f d t a B c x $.*.,.7.j.x.m.R.M.x.m.m.m.x.v.v.y.l.y.y.9.9.q.q.q.q.y.y.b.8.0.0.0.0.5.6.q.q.q.6.q.q.q.q.f.f.v.f.p.m.m.x.p.1.p.x.m.j.m.h.h.h.j.h.h.k.m.m.m.x.h.x.M.!.W.>X~.W.!.!.M.m.!.W.W.W.~.W.M.n.a.<.s.a.s.-.;.;.:.%.#.@ @ h.m.M.W.#X>X#X>X<X<X<X>X>X#XW.W.W.W.W.W.W.W.W.W.!.W.W.R.W.W.+X+XW.W.!.W.W.W.f.h.m.d.j.,.y N N y m y m a + L.d.Q.j.~.!.!.T.m.n.n.m.M.!.!.M.M.M.m.m.m.m.",
"m.W.T.T.W.!.Q.!.>X~.~.>XW.!.!.!.T.Q.!.p.2.<.,.S k k _ ' _ t i L 7.f.K.R.E.#X#X#XR.E.#X#XQ.Q.#X1XQ.#X#X*X*X*X*X#X*X@Xl.e.q.q.q.l.6.8.8.8.4.4.7.p.f.8.4.,.,.4.7.q.0.0.f.v.R.E.E.E.L.J.P.H.%XK.K.K.L.L.J..X XH.9.q.#XQ.~.~.Q.Q.Q.Q.E.^.^.*X^.*X*X*XE.R.d.1.1.<.*.<.<.h.j.q.y.y.} ' +.O.+.X.( @.@.@.( ) (.) ( X._..X#X>X<X<X<X#X+X+X>X#X>X,X#X>X>X#X>X#X<X<X>X>X,X>X>X<X>X<X<X<X,X>X<X>X>X,X4X5X5X2X2X2X2X4X4XhXhXhXhXhX5X2X@Xy.{ o.' W G.| K J.J.L.l.v.m.h.n.M.v z y u B m P 0...Y.Y.U.U.U.U.U./.U.0X0XXX0X0XU.I.I.G.G...G.U.G.G.G.G.D.G.G.G.G.U.;XI.I.Y.P.-X-X;XpXwXpX-X%XH.e.3.5.3.3.0.g.f.g.K.K.g.j.H.K.I.H.e.[ I H.I.w.w.H.K.K.H.k.g.k.0.0.d.0.j.7.<.,.v v M N a p f g g g g E k d B B c v $.*.=.7.f.x.m.M.M.R.m.T.T.c.x.v.y.l.y.9.9.9.r.r.y.y.l.l.y.y.y.q.8.8.q.q.q.y.y.f.f.y.f.f.v.f.x.v.7.m.x.x.p.<.k.x.h.j.h.h.h.h.m.M.M.!.h.j.x.h.j.x.M.!.m.!.~.!.m.n.m.M.M.W.W.W.W.W.M.h.s.;.p.s.;.;.;.;.;.#.%.@ x W.m.h.j.R.W.W.W.W.>X>X>X>X#X#XW.W.!.!.M.R.W.W.!.R.M.M.W.M.W.W.+X+XT.m.d.f.j.f.T.*XT.Q.L V P N y m m m P i g.7.T.!.~.M.!.M.m.m.m.m.m.m.M.M.m.m.m.m.m.m.",
"p.M.m.R.M.h.W.m.~.!.!.W.!.m.m.T.K.#XT.p.<.*.m L h d f `  ._ p p L 0.x.T.E.#X#X#X#X#X#X#X#X#X#X*X#X#X#X#X#X#X#X#X#X@Xz.q.q.q.5.l.q.0.8.0.4.,.7.p.p.p.0.7.7.0.0.7.q.q.d.x.R.E.E.E.L.J.L.J.%Xl.K.L.P.J.u.J. Xl.9.w.*X#X#XQ.Q.Q.#X*XE.E.^.Q.^.*X*X=Xx.K.0.1.p.<.N &.M p.h.7.y.y.[ t.o.O.+.X.( ( @.@.@.X.+.X.X._.|..X+XW.W.W.W.m.c.R.>X>X2X2X#XW.>X>X#X#X<X>XW.<X4X<X4X<X>X<X<X,X>XW.>X>X>X,X4X6X6X4X,X2X4X4XhXhXlXkXkXjX,X$X=XJ.y.i.o.Q G._ j l.l.l.c.x.M.n.n.M.n . + i B N 1.0.I e.U./.U./.U./.0XU.U.U.U.0X0XXXU.G.G.U.G.U.XXI.Y.G.F.G.F.I.I.I.P.;X0XpXpXwXuX-XXX%XI.w.5.e.0.5.5.w.0.w.K.K.g.Y.K.g.K.g.g.Y.H.H.w.[ I H.I.w.e.g.H.K.K.g.K.K.j.j.j.h.h.<.<.<.%.M v y i - f J J g g H { j V B x v #.*.*.,.k.m.m.x.m.R.m.T.T.L.l.y.y.y.r.9. . .r.r.y.y.y.y.y.y.y.y.f.f.z.l.f.f.f.y.f.f.f.q.f.k.x.v.8.x.v.m.f.k.m.m.h.m.n.m.m.m.m.m.n.n.m.M.T.m.m.m.M.!.!.R.M.M.!.W.!.m.!.W.W.~.~.>XM.n.a.p.p.s.=.8.p.-.;.v ;.z z W.p.a.h.M.W.W.M.W.>X<X>X>X#XW.W.W.W.W.!.W.#X#X#XW.!.R.#XW.W.W.+XE.x.j.x.T.6X6XrX^.P P P K P V y m a m y y E.T.j.~.m.!.!.M.M.M.m.m.m.n.m.m.m.m.m.m.m.m.",
"x.l.x.m.m.m.M.W.M.~.>X#XR.c.J.L.J.*Xg.4.,.m A S C t h _ k E E = B 8.x.R.m.R.#X>X1X*X#XE.E.E.E.#X*X#X#X#X=X*X@XL.2X=X@Xq.7.g.q.6.7.6.8.6.4.4.6.f.,.S 4.7.0.f.f.8.5.5.q.g.f.l.L.*X@X@XL.L.P.L.L.L.J.J.L. XJ.q.u.@X8X*Xx.R.>XQ.~.T.#X*X*X#XE.@X#X#XK.f.d.d.1.,.=.*.*.<.p.j.v.T.+XL.y.i.i.t.o.X.X.X.| { o.{.i.|.|.J.z. XL.c.L.y.y.@X4X6X,X>XW.W.~.>X~.>X>X~.<X6X1X~.>X>X4X>X5X<X>XW.>X,X,X6XjX5X,X,X>X,X4X4X4XjXvXDX4X4X5X2XE.y.l..XJ ' F.E K r.@Xl.$X#Xh.n.n.<X. z + B m N 3.3.3.Y.U.U.U.U.U./.0X0XU.Y.Y.U.0X0X0XXXU.U.U.;X;X;X0XqXU.XXXXG.t.H.%X-X-XyX0X%XH.I I P e.0.0.w.w.H.g.w.g.w.f.g.Y.K.Y.g.w.g.H.H.Y.w.e...I F.P.w.e.K.E.K.H.H.H.H.K.T.m.m.<.<.2.-.$.v x x p - , f f f H _ ` ] S m z x $.&.&.<.p.p.h.M.M.f.x.x.c.z.l.y.y.9.r. . . .9.r.y.y.y.q.q.6.6.0.q.q.v.f.f.f.f.q.l.L.l.l.x.l.l.q.q.l.l.l.f.7.R.W.M.m.M.m.m.m.m.M.M.m.m.m.m.m.m.m.M.!.!.!.!.M.M.!.!.W.W.W.W.W.W.M.M.M.s.p.<.p.p.<.;.;.&.:.$.b 2.N.M.M.M.,X<X#X4X,X#X>X<X<X<X>X>X>X>XW.W.W.W.W.Q.Q.W.W.~.~.W.x.l.K.R.E.5XNX1XQ.rX3XL.w.K I J s I s + m y y m.m.W.Q.m.m.m.m.M.!.M.j.h.m.m.m.m.m.m.M.M.M.",
"q.f.x.R.!.M.M.M.~.W.W.#X@XL.J. Xu.q.B L 7.,.L A V i h K f g E k i Z p.W.>XW.M.m.T.R.E.T.R.^.*X*X#X#X#X#X#X#XE.E.2X2X#Xd.1.0.7.8.4.8.6.6.,.,.8.q.7.8.7.4.7.8.7.0.9.9.q.w.z.L.@X*X*X*XE.L.L.L.H.L. X.XJ.q.q.u.9.V B P L l.#X#X<XQ.T.R.E.E.@X*X=X=XL.g.q.7.,.=.*.$.$.$.<.p.a.m.W.c.L.J.J.i.i.i.O.o.i.i.z..Xi._.z.z.i.|.|.|..Xu.y.@XW.W.~.<X4X4X>X!.>X>X>XW.W.W.<X6X4X4X4XW.2X#X<X<X5XjX5X<X4X4X<X4XkX4XW.>X8XvXkX9XjX8X#Xx.c.#X#XJ.o.' G.` _ z.+Xl.+XW.h.n.n.<X. z i B m N 3.d.3.Y.U.U./././.U.U.I.U.I.Y.Y.I.I.I.U.;X0X0X0X0XpXpXpXuX|.` J  .I.P.H.w.P.w.w.w.3.e.0.5.0.0.w.w.w.g.g.H.w.H.^.^.Y.0.Y.K.H.w.w.u.H.u.e.I w.l.w.q.K.L.g.J.J.H.l.l.f.k.p.-.<.<.-.$.v v m p > f G G G H ` [ L V m c c M &.&.<.s.s.p.j.M.m.v.x.l.l.y.y.r.r.t.r.9.9.9.9.9.6.[ ] 5.5.6.q.f.f.v.v.l.f.f.v.x.l.l.l.l.l.y.q.q.l.u.z.g.4.T.x.x.m.M.m.m.m.m.m.m.m.M.M.M.m.m.m.m.m.M.M.!.!.!.!.!.W.W.M.M.M.M.M.M.M.h.s.<.p.p.p.<.-.&.:.#.b 2.N.M.M.M.<X,X,X4X4X>X>X<X<X<X<X<X<X<X<X#X#X#XQ.Q.Q.W.W.!.!.W.Q.L.w.0.0.j.Q.6X6X2XK.L. Xf J J f I s s V m c M.s.M.T.T.j.m.m.M.!.T.m.n.m.m.m.m.m.m.m.m.m.",
"T.x.m.m.m.m.M.!.~.W.W.E.E.L.L.L.L.z.4.7.7.V m m V u h C * * k _ u $ z =.j.!.M.m.j.T.R.K.T.#X*X#X*X*X#X#X#X#X#X#X*X*X#X0.A ,.1.7.f.x.c.T.c.c.R.+Xc.c.q.4.7.6.4.q.L K L 9.u.l.f.q.E.@XL.z.L.L.J.L.L.J.@X@Xq.L ] ] 1.0.0.x.R.T.Q.Q.#X#X#X#X*X*X*X@X@Xl.q.7.=.A A M M M &.<.p.m.W.m.+Xz.z.i._._.t.| t.z.|..Xr.t.t.t.t.z.F.J.z.y.y. X2X4X>XM.h.h.m.W.4X>XQ.Q.W.T.Q.1X>X>X>X!.,X#X4XjXjXjX5X4X5X4X4XkX<X,X,X5XxXvXjX5X9XW.l.l.#X7X8X7Xi.| F. .K  XL.+X#XW.j.M.M.>X. + y m y m 1.3.3.Y.U.U.U.U.U.U.U.U.;XU.U.I.Y.e.Y.Y.I.0XeXeXpX0XU.Y.` H J ` .. .I s I e.[ I e.e.Y.w.w.w.Y.K.K.g.g.K.Y.g.H.E.E.w.0.H.g.g.g.H.w.5.K s K P L P 1.g.R.R.z.H.L.R.K.f.<.=.<.<.=.&.M c M m f f J _ _ _ ` [ K j u u c c v b Z ;.p.p.p.s.M.>Xm.x.x.l.y.y.r.r.r.r.r.r.9.9.{ [ 6.q.q.q.q.q.f.v.v.l.l.f.v.l.c.l.l.q.q.q.q.6.6.q.q.l.l.5.K.j.h.m.m.m.m.m.m.m.m.m.M.M.m.m.m.m.m.m.M.M.!.!.!.!.!.M.!.M.n.h.n.n.m.M.m.a.<.p.p.p.;.:.&.&.v v 2.M.M.n.M.!.,X4X6X,X2X>X<X<X6X6X6X6X6X6X,X,X,X>X>XW.W.!.~.T.T.#XK.5.1.f.k.k.T.6X5X*X3X&X..G H J K s s a O u >X8.k.p.T.T.m.M.!.!.!.m.m.m.m.m.m.m.m.m.m.n.",
"#XW.M.m.n.n.m.W.M.~.#Xm.T.@XL.f.q.q.7.0.4.A A 4.A s h D t = h ] =.c . + M <.a.R.m.Q.>XR.R.*X*XE.1X1X1X*X#X#X=X2Xv.L.=XE.l.g.5.8.f.v.c.T.m.x.l.l.c.L.q.4.v.q.4.q.9.[ ] 6.q.q.q.0.x.L.L.l.L.L.L.L.&Xu.L.&XJ.9.5.L I 5.5.7.7.p.R.#X2X*X*X#X@X@XE.L.@Xl.0.4.,.A A N M M M =.<.h.W.R.c.z.i.i.i.i.t.{ r.z.{.|.{ r.r.t.r.i.F.F.i.9.r.L.m.W.W.m.h.h.#XjX,XT.m.Q.1XQ.W.W.W.W.Q.W.5X,X5X8X4X5X4X5XjX5X5XjXjX5X5XvXDXvX>Xv.f.7.8.v.L.L.@X=X..` F. .C &X@X=X#XW.n.M.M.~.@ x m B m m ,.1.I 3.U.U.U.U.U.U.U.U.Y.I.I.Y.Y.e.e.w.e.Y.I.Y.I I ....J H ` ` J J J J [ Y.e.w.Y.Y.Y.Y.K.H.K.E.P.g.f.H.g.Y.g.0.0.g.K.K.*XE.K.f.1.P P P 3.P L P L ,.0.d.g.g.g.g.g.f.7.<.1.,.*.M x x m m j J I [ [ I K _ C a t a m x x b Z &.;.8.<.2.n.>X#XW.c.c.l.y.9. .r. . . . .9. .9.u.z.l.u.q.6.q.f.l.l.x.f.l.E.L.l.y.9.5.6.6.[ [ 6.9.u.q.5.K.g.j.m.j.m.M.M.M.M.M.M.m.m.n.m.m.M.M.M.!.!.M.M.m.m.m.n.M.n.h.h.h.n.n.m.m.h.s.s.p.<.*.&.&.&.v v 2.M.M.n.j.h.#X4X>X<X4X>X<X<X,X,X6X6X6X6X4X4X6X<X<X>X~.W.>XR.R.@XL.e.0.K.K.k.k.~.^.6XrX@XF.G J J J s s i O m #Xv.k.<.f.j.T.!.!.!.M.m.m.M.m.m.m.m.m.m.h.h.",
"M.m.M.!.!.M.M.!.!.!.W.W.E.R.f.7.1.L ,.L L 4.4.4.V a B V a u B S 4.=.Z b z . M h.m.W.<XQ.Q.#X#XQ.#X>X>X#X#X#X#X*XE.R.#XE.L.@XL.@X8X9X2X,X,X$X@XE.l.l.4.L l.y.8.y.J.9.[ L L 5.q.f.l.E.E.E.@XE.l.z.q.J.&XL.K V 5.P j L L 1.1.1.h.j.R.K.x.K.K.L.L.L.L.q.7.4.L A A m M c M &.&.4.v.M.v.c.z.z.i.i.i.i.z.|.{.|.{ t.t.t.i.i.{.i. .{ t.J.y.x.R.2X8X9X>XR.x.k.k.T.#XW.T.m.Q.T.R.R.8X6X5X5X5X5X6X5XjX8X5XjXDXGXGXvX1Xj.7.7.1.j.x.f.7.q.q.5.H H 9.` V =X=X2X+XR.n.M.M.~.$.:.Z V m Z ,.1.3.Y.Y.I.U.U.I.Y.e.I I ..e.w.w.e.w.e.e.e.w.w.e.e.Y.I.D.| H J J J J J J G.G.I.U.I.U.I.I.Y.K.^.E.H.0.f.g.Y.g.0.w.g.K.g.g.0.1.,.P V P P L 1.0.q.0.1.1.7.g.q.1.,.,.1.7.q.,.L m a u u m m V K L ] P V f j j a a V B x c Z Z Z *.<.<.2.a.M.~.!.m.c.l.r. . . . . .{ {  .9.r.y.u.y.q.6.5.9.q.y.l.l.f.l.L.L.y.q.9.6.{ { [ { { 9.9.5.] L.l.v.v.j.m.M.!.!.!.W.W.M.m.m.m.m.M.M.M.M.M.m.n.h.h.h.h.n.h.h.j.n.n.n.j.n.h.h.a.p.;.*.&.&.&.b b p.n.m.n.h.a.!.4X<X>X6X<X<X<X,X<X,X,X,X,X4X4X4X4X<X<X<X<XW.W.#X#XP.g.w.f.g.j.T.j.1.d.*XL.F., J J J s K s     B 8.q.f.d.f.!.!.!.M.m.m.m.M.n.n.m.m.m.n.h.h.",
"W.M.m.M.M.M.M.R.W.x.x.W.!.p.<.7.1.,.7.L a V S K C B a a u y y y =.Z b b c z n M s.n.!.Q.Q.>X1X#X#X#X#X#X#X#X#X#X#XL.K.l.z.@X&X7X9X2X+XT.W.+X$X@X@XL.6.5.y.q.6.y.9.[ [ L L K L 1.5.g.l.l.E.E.z.f.L.5.L L K ] [ V 9.l.g.f.7.1.7.1.x.g.g.l.K.L.L.L.L.q.5.L A V V m c c Z &.Z =.a.v.v.x.c.z.u.z.z.i.|.|.z._.{ i.i.t.i.t.i.t.' '  .t. XR.+X+X@XR.f.7.d.d.f.j.j.d.k.j.m.f.k.h.2X2X5X5XjX8X5X9XzXrXzXVXGXDXvX#Xk.1.7.j.j.x.l.l.f.f.q.q.[ K ` K ] :XtX2X,X#XM.W.M.M.&.:.Z B m Z A 1.g.^.I.I.I.I.Y.e.I J ..e.3...e.e.e.e.I j j [ w.e.I I ` G J ` ' J J J f Y.I.U.U.I.I.Y.K.Y.K.E.^.K.g.f.g.0.g.K.K.0.3.5.3.,.,.d.K.g.1.P m V 1.0.q.0.0.g.q.7.1.,.L L L L L V m y u m N N ,.1.1.5.L j p p h a h B m c c Z A Z Z ;.<.<.2.s.M.h.v.x.l.y. .r.r.o. .' { { 9.r.r.y.r.9.6.6.6.q.y.l.v.q.l.c.l.y.9.9.9. .{ { { { [ [ [ K l.q.f.l.x.M.W.W.W.W.W.~.!.!.m.m.m.m.m.n.m.n.h.h.h.h.m.m.h.h.j.n.m.m.n.h.n.h.h.h.p.;.*.*.&.&.M b 8.h.n.n.h.a.M.<X,X<X,X6X<X,X,X,X,X,X,X,X6X6X6X4X4X4X4X6X>X>X#XL.l.g.w.0.1.d.k.3.x L R.H.t.G I J f s I P y i i 8.1.7.1.f.M.M.!.M.m.m.m.m.n.n.n.n.m.h.h.h.",
"<XW.M.m.m.m.R.W.#Xm.j.x.j.<.<.7.,.m 4.L h C K [ k V u i i x z z =.b z z b $.v @ -.2.n.W.Q.Q.Q.>X#X#X#X#X1X*X#X@Xq.q.L.@X@X@XJ.L.$X@XE.T.R.+X$X=X=X@Xz.l.u.q.9.y.r.9.9.9.9.5.L L A ,.,.,.f.l.v.q.q.L V ] ] C ] u.6.z.l.y.7.4.f.f.R.T.R.E.E.L.L.P.L.q.5.L C V V B M c Z =.*.;.s.v.f.v.c.v.b.z.z.i.z.F.i.i.} i.i.t.i.O.i.O.` ' o...u.y.q.5.4.4.d.x.g.x.x.j.d.7.7.d.d.<.1.d.#X#X1X2X5X8X9X9X5X*X2XxXnXW.p.1.x.R.m.f.v.7.1.f.x.d.d.l.9.[ K K 5.z.8X2X2X>XM.~.M.a.$.M Z c Z *.N ,.d.K.P.I.I.Y.w.w.e.e.Y.Y.Y.w.w.w.w.e.Y.e.I I [ e.w.e...W _ | | J J [ J Y.U.U.I.Y.Y.Y.K.K.K.R.R.K.K.Y.g.w.f.g.0.L A L 3.P N P 1.1.A V L L L L P P L ,.,.,.4.] ] K V h C h s y m Z =.,.1.1.4.5.L s p p p p a a a a m m B B Z *.<.2.2.2.s.p.p.l.l.y. .r.o.o. .{ ' {  .r.i.i.i.r.9.9.6.6.l.y.y.q.q.y.y.9.{ 9.9. .{ ' ' { [ [ ` K u.9.q.x.m.R.W.W.W.!.W.~.!.M.m.n.n.n.h.h.h.h.h.h.h.m.m.m.n.n.n.m.M.M.n.n.n.h.a.s.p.-.*.*.Z &.Z b ;.a.h.j.n.n.n.>X4X<X>X4X,X,X,X,X,X>X<X<X<X<X<X<X6X4X<X4X5X2XE.l.f.g.Y.g.0.0.1.1.P 5.L.9.[ J I J I J [ P R.K.x.m.7.=.1.7.h.m.M.M.M.M.M.n.m.m.n.n.n.n.h.h.",
"!.M.M.W.#X#X+X+X#X$XE.p.<.k.h.7.f.t a C k ` g d d h t i c *.-.;.b &.;.:.$.v v z *.<.h.W.Q.T.T.W.Q.W.W.#X#X#XE.L.L.l.L.J.J.J.l.L.E.$X=X=X@XE.E.+XL.l.L. Xz.y.y.u..Xi. .[ [ ] ] 5.L ,.A V 4.f.q.8.L 7.6.4.5.q.9.9.] z.L.L.l.0.v.f.R.E.#X=X*X@XL.@X@Xu.5.L C C S V Z c Z =.=.;.p.s.v.c.c.v.v.v.z.z.r.i.t.t.} i.{.{.{.t.D.D.| o.t. .{ ] ] 5.q.y.f.q.v.x.x.x.K.K.j.d.d.7.f.x.2XE.R.E.#X3X9X2XE.q.7.x.d.j.x.x.f.f.j.x.v.x.x.f.g.K.x.q.e.[ K L K a #X2X#XW.M.W.m.a.&.&.c c =.7.=.*.3.g.K.H.Y.Y.H.Y.Y.w.0.g.Y.Y.g.Y.H.Y.e.H.H.w.w.Y.H.u.t.` `  . .K j J I I.P.U.I.I.I.Y.Y.K.K.K.Y.g.g.g.H.L.l.1.V A ,.,.L P 3.0.5.K m V j j j V K K K V K V h p d f f j f p t u V ,.<.1.1.1.,.L j p = = d h d a h V B m m B Z &.;.2.2.2.2.<.p.l.z.y. .r. . .o. . . .r.r.r.r.r.t.t.r.9.{ l.y.q.q.q.6.6.9.[ {  . .' ` ` } { ..[ K 9.[ q.c.R.W.#XW.W.M.!.W.M.m.h.h.h.n.h.h.n.n.m.m.m.m.m.n.n.n.n.n.m.m.n.n.n.a.2.<.<.-.&.&.M &.Z M ;.s.h.h.M.n.h.!.4X<X~.5X,X,X,X>X>X>X>X>X<X<X<X<X6X6X6X6X>XW.W.W.E.E.K.g.K.g.0.e.5.] 9._ K t p s I 3.e.N K.g.f.p.d.<.d.<.p.h.M.M.!.!.M.n.M.m.n.n.n.j.h.j.",
"2.M.M.h.m.>X$Xc.@Xl.4.,.1.4.1.,.C K k } k o.' E E _ D u B <.<.&.:.:.:.:.=.:.$.v x b *.m.m.#XR.T.T.Q.#XE.@X#X@XL.z. X X X X|..XJ.L.L.L.L.c.z.z.J..X.X.XJ.u.u.y.9.r.t.z.u.6.5.q.5.7.L A L 4.8.7.q.4.4.6.6.q.q.6.] 5.y.z.L.c.l.x.$X#XQ.@X=X=XL.l.L.&Xl.4.C C C S S m Z Z Z A 8.f.8.8.f.v.b.8.6.6.r.r.r.r.o.' W ' X.| o.{.D.' E ` | { K K 5.q.q.g.z.K.K.K.K.K.x.l.g.0.1.1.1.d.x.K.K.g.d.5.P A 1.d.g.j.j.g.x.K.K.x.j.x.g.g.g.j.g.g.l.u.j V 5.P L g.L.#X9X#Xj.h.<.v b Z Z &.<.<.=.<.g.l.g.Y.H.Y.w.H.K.K.g.g.H.P.P.P.P.H.H.H.J.J.H.u.e.e.[ [ 9.w.P P 5.e.Y.H.H.K.K.Y.Y.K.K.K.K.g.g.w.5.1.L m s a B V L P P I P K j j K f V f K K j ] _ j k j d - - d H k p t s A <.<.<.,.A V B p * * = = f p h C V B B V B c b *.<.2.;.p.7.8.6.6.6.9. .o. .{  . .{  .r. .t.t.t.r.r.r.9.z.y.6.6.9.9.6.[ [ [ ' } ' ` ` ' `  .[ K [ 5.q.l.l.v.x.W.W.M.M.W.h.h.h.h.h.h.j.j.n.m.m.m.m.m.m.m.m.M.n.n.n.m.M.n.h.s.<.<.p.-.$.*.&.Z M Z <.a.h.h.j.x.m.m.!.>X<X>X>X>X,X>X>X#X>X,X>X>X,X,X4X4X4X4X,X<X~.~.~.Q.T.f.w.5.[ [ [ K G j a O s I I 3.3.3.K.T.d.x.j.<.p.d.k.p.k.m.!.W.m.h.m.n.m.m.h.j.m.j.",
"~.W.!.T.m.l.L.E.5.] L L L V B j d f E E E E | ' g _ ] D m &.-.-.-.;.-.:.:.&.M b b @ <.W.#Xd.d.l.T.E.@XE.E.@XL.l..X.XJ.J.|.|.|.J.J.L.L.L.J.z.z.J.z.J.J.J.|..X.XJ.i.t.r.9.u.z.u.q.5.L A L ,.4.4.4.f.q.q.l.l.l.q.6.q.z.L.E.E.c.c.E.K.#X#XE.#X#XL.z.z.q.] L ] L S V m A =.,.=.8.p.8.8.b.v.v.y.6.6.6._ }  .t.O.o.o.O.+.O.+.| Y E | | H k C K 5.e.l.L.L.L.K.L.L.L.K.l.x.g.0.0.0.7.5.1.1.1.1.1.0.l.K.K.x.x.x.x.K.T.K.x.K.f.d.j.K.x.x.K.H.I L [ K P e.q.l.#XW.x.h.=.v M *.*.;.p.p.<.p.j.x.w.w.u.H.H.K.P.R.K.K.K.H.w.5.5.H.H.H.H.H.H.w.e.w.9.5.q.u.5.[ H.g.K.K.K.H.K.K.K.K.R.K.g.0.5.P j a a s a a j V j j J J G j f f f H H - d - = d d k k f > g E G - - p h V A A N m m a j a - * ; > = * = d j h C V B A B c Z <.<.;.7.8.,.,.] [ [ {  .{ o.o. .{  .o.o.t.t.o. . .r.r.z.l.y.9.9.9.[ ` [ { ' } ` ` } ' K [ ` K [ q.y.z.f.f.m.#X>XM.n.m.n.h.h.h.j.n.n.m.h.j.m.m.m.m.m.m.M.M.n.n.m.M.M.M.h.a.<.2.p.*.M M M c m Z =.p.a.h.a.h.h.h.M.W.>XW.#X>X>X>X>X>X>X>X>X>X,X2X4X5X4X4X4X4X6X6X~.Q.E.K.w.[ ` _ G d * = p i V 3.3.3.3.3.K.Q.T.j.h.d.p.<.1.7.p.h.m.!.!.!.n.n.W.W.T.m.R.m.",
"W.T.R.W.L.y.y.z.y.q.9.6._ j j k E E X.! ! g | Q U _ ] S Z &.;.p.;.;.B.B.;.&.M c c y p.R.E.L 0.l.L.@X@XL.L. XL.J..X|.|.J.J.|.|.J.J.L.L.J.J.J.J.J.|.|.J.F.J.|.F.r.{ r.[ ] y.y.5.] q.5.L L 4.5.6.6.l.l.l.l.l.y.q.6.6.c.+XR.+X+XW.R.E.Q.x.v.#X2X+Xy.l.5.L L L S A B i u A S A S 8.8.q.f.y.y.6.6.6.6.r.o.t.i.D.i.O.O.O.O.o.W G ' O.| K ` [ 5.9.l.L.E.K.K.K.K.K.H.H.l.g.g.g.g.H.K.K.K.0.0.0.w.H.L.R.K.K.K.K.K.K.K.R.R.K.E.E.K.j.K.R.P.e.P I P P 5.w.0.,.8.p.8.*.z + x c b M &.*.-.<.1.K.g.w.u.H.H.H.g.5.0.K.K.H.0.0.w.H.H.H.H.H.H.w.w.e.5.[ 9.q.5.5.K.K.K.K.H.j.K.T.T.P.K.w.L V m m a s a j j j j j f f f g H H W H G f f * * = % * - ; = = > g g - % * * = = i y m A s j j d ; % % 2 1 2 % d d h K V B Z A c m =.<.=.8.4.,.L L ] ] ] ` {  .o. .{ {  . .t.i.t.o.o.t.t.u.u.u.y.r.9.{ { [ ` ` ` ` ` } { ` [ _ K 9.q.q.y.y.l.m.#XW.m.n.h.n.h.h.n.n.n.m.m.m.m.M.M.M.m.m.m.m.M.n.M.M.M.m.n.s.2.;.;.2.&.v v x x c M =.7.p.h.p.k.h.h.m.W.Q.W.Q.#X#X#X#X#X#X#XR.Q.#X#X>X>X#X#X>X6X4X6X~.Q.Q.E.e.[ H G f - = = i a 1.d.3.3.3.3.1.0.j.f.d.d.2.p.1.7.p.k.k.h.M.W.<X~.~.!.j.p.7.7.",
"l.L.L.c.l.l.l.y.] _ _ H H H ` o.X.! ! < < < E E { } D S 4.p.s.a.s.8.;.;.-.&.M c x A l.g.q.e.J.J.J.L. XL.L. X.XL.F.|. X|.J.|.F.|.J.J.J.F.i.i.i.i.i.F.F.F.F.F.i.o.` z.i.9.u.6.L 6.q.6.L S L 6.y.l.l.u.l.l.y.y.q.6.L l.E.R.+X#X+XW.#XR.x.L.$XE.l.c.c.q.L A A B B B B h V S A S 8.q.6.4.] ] _ ] {  .r.' ' ' | ' ' Q o.o.o.W J  .t.` [ i.J.J.z.L.L.K.K.K.K.K.H.H.H.u.w.w.w.w.w.w.u.l.L.K.K.l.H.H.K.K.R.T.K.K.T.R.R.E.R.2X*XK.K.*X*Xg.I K P [ ] e.l.w.q.4.8.7.Z z x M c c b b $.<.<.7.g.g.g.H.P.L.g.w.0.f.H.K.g.0.e.w.g.H.K.H.H.H.g.w.w.e.e.u.l.0.0.l.l.g.f.d.f.g.j.g.0.7.P a t a j j j j j j s f j H | Q G G G J f - = - * - - * - * * = > E g * * d f f j f - O O     = * ; ; % % 1 9 3 ; , H d h V A Z Z m m B S 4.8.4.] L L L L K _ _ ` {  . .{ { ' t.F.F.t.t.o.o.r.r.u.y.9.9.9.r.{ { ` ` _ _ ` { 9.9.[ L q.l.l.l.l.x.x.M.m.h.n.m.m.m.m.m.n.n.n.n.m.m.m.m.m.m.h.h.M.n.n.M.M.n.s.;.-.-.*.-.<.&.v x z x M *.=.<.p.h.p.k.h.k.h.M.!.W.Q.Q.Q.W.R.Q.Q.E.K.L.E.E.+XE.L.L.l.W.>X~.Q.Q.*X%Xe.I G f > * * t t V 3.3.3.Y.Y.3.g.1.T.E.x.p.*.7.7.7.7.7.<.1.p.h.s.p.M.>X>X#Xc.q.",
"L.L.z.z.z.z.l.y.K k f , < < R ( X.! 6 Q ! ' ' } ] S S 4.a.N.N.N.n.s.&.M M Z Z Z m 7.l.w.[ J. XI.F.J.|.|.J.|.|.|.J.F. XF.F.|.F.|.|.F.F.t.t.t.t.t.F.{.|.F.t.o.| } ` z.r.[ 9.5.L q.4.L S C L 6.9.y.y.y.u.u.l.y.y.q.] c.@XR.+X#X#X#XT.+X+XE.c.f.y.+Xl.6.S B m u m m V h V L V S ] 5.] ] K _ _ ` { { ` E E ' | | | | o.O.O.| W  .t.` { J. XJ.l.L.L.l.R.L.K.K.L.J.J.H.u.u.w.e.e.e.e.w.K.K.K.K.g.g.K.R.K.K.P.R.R.R.E.E.Q.E.T.R.3XrXE.P I P 5.w.e.5.e.l.l.q.7.7.=.m m Z M c v v $.<.s.p.g.l.H.J.P.P.K.K.g.g.g.g.w.0.0.0.g.Y.H.Y.Y.K.H.w.0.e.q.l.l.5.P 5.0.4.,.1.7.7.,.A a B B h j a a p p p s p p f K I | T G G W ` W f - d f d d d * = * f _ H d = d H H H H H G , ; % % % ; 1 : 2 % 2 : R 1 1 ` d = V =.Z Z A B a h ] ] ] L L L L L K K H K ` 9.r. .` { r.F.i.t.o.o.{ { 9.9.9.{ { 9.r. .{ { [ ` ` { { 5.9.5.9.J.@XL.z.l.v.v.j.h.h.m.M.m.m.m.n.n.h.h.h.h.h.h.h.h.h.h.h.M.n.h.a.a.2.-.$.-.;.-.;.2.-.b v x c M *.=.=.<.7.p.p.p.7.p.x.R.R.T.T.K.j.j.j.x.x.K.K.L.L.L.K.l.l.q.l.L.E.Q.Q.E.P.5.K f - * = = i m I 3.3.Y.Y.Y.3.e.V g.*X*XE.3.1.0.7.8.7.<.<.<.<.h.,.A A 4.L.7X7X",
"y.9.y. X Xy.5.{ { } E ! ! 9 q q ( ! < X.| O.} _ D =.8.h.M.N.N.N.h.s.8.<.<.<.=.Z N L [ w.I t.t.t.J.|.|..X|.|.J.|.XXJ..Xi.F.oX{.|.|.{.D.D.G.D.D.D.F.{.{.t.' J g f H _ h t C ] L 5.V C L L ] 5.[ ] 9.9.q.y.y.y.y.y.q.R.$X+X#X#XW.W.m.#XT.f.l.L.l.q.4.S B m m c m m s a V L L ] 6.6.q.r.r.i.i.i.t.o.' ` ' o.i.i.i.i.| o.o.` W  .i.t.{ u.J.l.l.K.E.E.E.R.K.H.H.J.F.F.u.Y.u.u.Y.H.J.P.w.H.K.K.H.g.K.T.K.K.R.R.E.E.E.^.*X*X1XtXrXR.0.3.5.5.w.u.e.[ 9.l.q.9.5.4.,.Z y y c x x x v -.<.p.R.E.P.H.g.Y.K.K.g.w.w.w.Y.H.K.P.g.g.Y.g.Y.K.g.0.5. .9.u.u.[ K K 5.4.L 4.6.,.B u s a a a a a p p p p p p f f j f Y 3 1 , G | .._ k G _ f f H d * = k C * = p j d H g f < T ^ ( ( < < T R 9 8 & % % R : 1 E > = C =.Z Z A B a h _ _ _ ] ] [ 4.L L ] K K ` 9.t.r.} { r.t.o. . .' ' { { { { [ [ { 9.9.9.9.{ { { 9.9.q.g.q.l.@X@Xz.q.q.f.v.m.m.n.n.m.m.m.m.m.n.h.h.h.h.a.a.h.n.n.n.h.n.h.s.s.2.;.-.-.;.<.-.-.<.-.v v M b M *.*.M N *.7.7.7.8.7.f.T.R.K.j.k.d.0.0.0.0.g.g.g.l.w.q.q.9.[ 9.w.l.x.x.g.5.K f p * t i u m L 3.I I Y.Y.Y.e.I s I L.=XrX@X5.0.5.4.4.7.7.p.1.p.=.A =.1.7.6.S ",
"_ _ 9.z.y.L j k f f G R @.0 e e 9 1 : ! U g d h S p.M.M.N.N.N.N.a.h.j.m.j.p.1.S V j P ..J J J ' G.F.|.|.F.F.i.F.|.F.|.F.F.|.t.i.i.O.i.i.D.D.D.i.' | ' W E E W ` k h t t V ] ] C V S ] ] 5.6.5.] ] { 6.6.6.6.9.9.q.x.c.R.#X#XW.W.E.+Xf.7.l.E.f.S S Z B m m m M A B K 5.9.9.u. X.XJ.J.J.|.|.{.D.i.| ' | o.O.O.O.O.| ' ' ` _  .t.t.9.u.J.l.l.K.E.#XE.R.K.H.H.F.F.G.F.G.G.Y.u.w.w.w.H.H.K.P.K.H.H.K.K.P.R.R.E.E.*X*X3X3XtXrXE.0.1.w.I w.u.w.e.e.9.u.9.q.5.L 6.S m m N v v %.-.-.2.p.K.K.H.0.5.0.d.g.H.g.w.H.H.H.K.K.Y.K.Y.Y.K.K.g.5.e.e. .t.F.9.[ 5.q.6.5.6.6.S B h V h a t t t a h s p s f f f f > T 3 ; % ; > - O d d H d d _ j d h D j i i h C j G J Q X.+.) w q : : / ) 0 / e 2 2 0 R T , ; f j Z &.Z B h h k k ` _ _ _ ] L ,.L L _ _ _ [  . .[ {  . .{ ' ' ' ` ` ` ` ` ` ` [ [ { { 9.9.9.9.9.y.L.L.f.q.z.z.q.6.8.f.v.m.m.m.n.h.n.n.n.n.n.j.h.h.h.h.a.h.n.n.h.h.s.s.s.2.<.;.;.<.-.;.*.*.-.*.b v M v M $.M M m M ,.<.<.1.1.0.f.j.g.k.d.d.0.0.0.1.0.5.5.[ [ [ [ [ W ` ..[ 0.5.P K s p p a a m Z A K P I I Y.Y.....Y.I P e.q.l.P.q.q.5.8.8.7.p.p.p.k.<.,.,.L ,.4.C ",
"{ t.r.K t t d d d g ! @./ / e ) 9 1 3 g g = h C v.M.M.M.N.N.N.N.N.n.m.h.p.8.8.6.V f ` G J G ' ` '  .o.t.o.| |  .`  .XXF. .9.H { E W ' | o.O.| |  .| W G g H _ ` p t p h j D V i V C S S L 4.6.5.] ] 5.6.6.6.q.q.6.8.8.v.#X>XW.#XR.E.l.f.q.5.L 4.,.=.A N M c N A S ] 5.L V 5.J.J.|.J.F.F.F.{.D.G.D.i.O.O.O.O.t.D.t...| [ ` ` ` I 9.u.J.L.K.K.K.R.*X@XL.H.H.H.J.J.F.Y.F.H.H.H.H.Y.P.K.K.K.P.K.E.^.K.P.R.R.R.E.*X3X3X5X*Xg.0.f.g.0.5.H.J.e.e.w.9.[ 5.y.4.V ,.S m Z M v v -.-.%.-.<.,.4.4.1.1.5.0.0.3.3.0.g.Y.g.Y.K.K.P.K.K.K.P.g.I I H H K 9.[ _ [ 9.6.6.6.L V B B h a a a p p p p p p - - p f f , Y 3 1 ; > g > = O = h = - H - = j t i a a i p _ [ ' ~ ( ) C.'.'.: : ) +.q e e % 5 w C.( 2 2 E p c *.A u t k E g G g g j V V A V C _ ] K K _ [ ` ` ' {  .o.o.' E _ _ ` ` [ [ [ [ [ [ 6.6.9.q.q.y.L.J.5.K ] 6.5.6.7.f.v.x.n.m.n.h.h.h.h.n.n.j.j.h.h.a.a.a.a.a.p.p.;.2.s.s.p.;.=.*.=.;.*.*.;.=.M M v n v $.$.M M *.*.=.,.A A L ,.1.d.d.d.d.d.d.0.5.I P I P K I ` ` W W ` [ L P K B t p p h B m m m a K J I Y.Y...e.e.s O t     5.z.q.q.6.7.8.8.7.7.S A S L K L _ k ",
"{ { { l t t * t ` ` ' X.@.@.0 6 < , g d - t S b.b.M.M.M.M.N.N.M.M.n.a.<.=.S L ] ` k f E ` E k G E W J | O.~ Y ~ ~ | g  .r.[ V K - H E ' o.Q ! o.t.E d k _ K k j = t j C D B h u V D S S S S 4.5.L S S L 6.8.6.8.8.4.=.;.h.W.>X#XW.#X&Xz.[ k _ 6.=.*.%.M x u V V L ] ] K L [ 9.F.J.|.|.{.{.{.F.i.D.O.O.O.t.t.D.G.t.G.|.G.t.G...`  .F.H.H.E.E.K.K.E.P.P.J.H.H.H.J.L.H.H.H.H.H.H.H.K.P.L.K.K.E.E.E.E.E.E.T.E.^.1X2XQ.T.d.7.0.f.g.K.K.K.H.H.u.9.9.9.5.4.B S S B A m $.# %.$.#.:.:.:.&.Z Z S 7.7.7.1.<.<.<.<.<.1.,.L 0.0.9.9.5.5.L K k k C K L L K _ { [ ] 4.7.8.A a t h = * h t h t p t d k E E G g Y ~ Y ; ; = % * O O = j ' < 2 T Y - * p t i j [ _ g 3 ( +.) ) ) 8 & 8 ) ) 7 & & 7 '.) 0 8 < G d i Z V t = > g Y < , , d a a m m h j K ] L j j k H E Y ' ' G E _ K k k C C C C L C L L L ,.6.q.q.` E H ` { [ [ 6.6.7.p.m.M.h.h.h.h.h.a.s.p.p.p.p.h.7.=.=.<.7.7.<.<.;.-.,.<.7.8.1.1.,.,.,.1.,.A M v #.#.%.:.$.M M N Z A ,.,.=.,.1.1.1.3.0.3.0.0.L I [ [ [ ` _ I _ } E _ H h t u B a a t t B B a j s s s P g.H.0.1.m i i u i   O i L 4.6.6.6.8.6.6.L C k k U W ' W ",
"W g k - = t t h _ { o.X.! q q 9 Y g d k C C S 5.c.+XM.M.M.m.n.M.M.h.p.8.,.C C _ { k > > f k k ` ` Q W Y T T Y 9 ! 1 f k _ ] L V p d H ' | ! E o.E f p f C f p t p h D D h h F h B V S S A S S 4.S S S S =.4.,.,.,.*.&.Z ;.p.a.p.p.y.u. .E g k C A M %.$.c a h h K ] I K K K ` t.F.{.|.{.F.F.F.t.D.D.D.O.t.t.t.t.J.J.I.t.t.F.t.t. .J.P.E.Q.Q.E.E.P.P.I.J.H.H.K.L.L.L.K.K.K.H.H.K.K.L.L.K.K.P.R.T.^.^.^.E.Q.*X2X3X3Xg.d.0.,.0.E.l.*X@XP.J.H.u.u.u.q.6.B ,.,.A A m %.#.%.#.#.&.&.&.&.Z Z A A L ,.,.<.<.<.,.,.,.S V j j j j j j f d d d h V V V k k H _ ] 4.7.p.f.q.6.r.l d F * d d d f k k > % % % % < 9 Y Q Y ; = = h C ] o.X.q & 1 % ; f p p f k , < T ) ].'.'.) 8 9 9 : & % & 7 e ) q q 9 1 , f s V ] _ E g : 2 2 1 > f h B m B a p h V C V a d d g , E E > g k f d d h h h h V V S S A S L ,.C H < , f k j C L 8.8.a.h.h.p.<.p.s.s.s.p.7.7.7.8.8.8.<.p.p.7.<.<.s.s.s.p.p.p.8.,.S A A S L S V m n @ n #.#.b M Z Z M N A =.=.=.,.L P P 1.,.1.1.P P K _ _ _ ` [ [ k k f f d t u a s a a h C j p p s s t j 5.5.V y m m a u u i t t t h C D h h k C k k E E ! ! Q @.",
"< < U U k k f C { _ E g < 3 ! ! W d * d k _ 6.z.q.b.b.v.m.+X#X2X2Xl.S C K H f d H g k H K j h f f H J f < Q ~ 3 T % g d j [ ] h V f H { ' Q ' o.g d d j C j f j h B S A V m u B B B V V V V S S =.=.=.=.S S *.=.*.Z Z Z &.=.;.=.,.] _ g < < g k V N M M m m h a V I L K K K ` 9.r.F.{.F.i.t.t.O.G.D.G.D.t.t.t.t.J.F.G... .F.F.F...i.@X*XR.R.Q.E.P.P.J.J.J.J.L.P.P.P.P.L.L.L.L.L.L.L.L.L.L.L.R.E.*XT.K.R.2XrXrX3Xl.1.m 4.#X@Xl.E.2X#XL.l.e.9.9.9.6.4.Z ,.=.m m m %.# v #.b &.&.&.&.Z Z B m V K L P A A A V V j a d d d h h h j j g g V V V V k g * k 4.7.=.m i = = f k _ { k k d f g g > % % % 1 : 8 & % & 1 < ` _ K K K ` +.) 0 % % 1 < > ; ; % 1 4 q w e e r 7 2 9 ^ 8 & : 0 / ) C.R q 3 ; j [ K K _ ` ' ! < 1 < < G k j j V C V h h V L L C f d f > H k - d d d d d d d d d h a a h h B V V a j d d p p a m V Z A <.8.8.=.=.7.2.p.p.<.<.<.<.<.<.7.p.h.a.p.<.2.2.2.2.2.<.=.A Z B m m V A A m m z z x x c x m Z Z m c M *.*.*.*.A m V A A L L j j j j j j H K ] h d t F h p a h a a p p j f = = = - p s V a y y i u s t t h h d * t d d d d d d g U W ! 3 & 2 2 ",
"9 9 @.Q ' ' ` _ _ k f d , Y Q Y ' H f f d * _ i..Xz.J.J.z.l.z.u.K h f _ ..H > * G f d d a a B K f G ` W W o.+.Y Y , g f j ] C t a t d H g W ' E d - * * t t p h a B S S A m c u c c B B B B V A S =.4.4.S S =.=.=.*.*.Z Z *.*.=.L C g > : < G k j m m N m m V h L 5.5.] [ [ [  ...O.i.t.t.t.t.O.O.O.O.O.t.i.i.i.i.t.t.` ..F.t.t.[ 9..X@XK.K.@XE.P.J.J.F.J.J.L.L.J.L.L.J.L.P.P.P.@XL.L.L.L.L.R.E.K.K.*XtXbXrX@Xl.5.a a c.rXE.q.E.R.l.q.5.[ [ L L S ,.1.,.N y m N N @ v M $.&.&.&.&.Z Z B B B B V h h h h f f d p d d d d p d d d d d a a u a p > k k C A m y i t d g f , g g g G Y , 1 2 & & & 8 & 8 : & 2 & 3 o...j H r.o.Q 0 8 % & R ( ( +.+.R / / e e e e r 7 e ) 0 & 2 5 w w 0 Z./ 4 : f _ ` _ k g E Q ! T T ~ Q Q g d h V C j h p h V C V f d f > H H d p = d d d d d p p p p p a p a h h a h j V B B a m m m m A ,.,.S =.<.=.;.<.;.=.=.=.,.,.<.p.a.s.<.<.2.2.2.<.*.&.M M Z m m m m B B m u m m m c y y c m M c x v v #.$.$.Z m m B B C K h p d p p s a j h h F t t F h a p h h t = p p - - = = = = p p t s t p a p p d f d d > > k ` ` g > < ! ~ @.R q 9 8 ",
"8 0 ( 9 3 Q E E d f H _ E ! ! g d f G H f > k { t.t.i.F.o.t.F.F.g G ' o.| G G ' H K ` ] 5.7.d.g.u.e.u.t. .O.O.! G D.* d p f p p t i p d f ' ' > f - = * * - - p B Z Z Z m c u u y y u u c a m m A S S S S A A =.=.=.A Z M c m m D k g < : : 6 < d t a m u B V V ] q.q.[ [ [ [  . . .o.o.O.i.i.O.O...` ..t.i.i.t.i.t.i... .F.t.t. .9.J. XL.E.*X@XL.J.u.i.u.l.l.l.u.u.H.u.H.L.P.L.@XE.E.L.L.K.L.E.2X5XrX8X#Xl.q.q.q.h @XaXq.L c.l.0.7.5.5.] [ ] ] S 7.p.,.m m m m A c A A &.-.&.&.&.Z Z A S C j p d d d d f f > > > d d d - - p d d d a a a a d d - * i m m u i * E , %   % % % 1 Y 9 9 q 8 & & & 2 : 5 8 0 0 T X.o.g W +.( 8 7 7 & q ) ) / '.'.e [.'.`.`.`.`.`.`.[.[.`.e e C.'.'.e ) 7 5 q ^ T , < , 3 Q Q T < 9 Q Q W g > p d d d d h a m B j j d d * f H j h = * * - * - - - * d h d p p d j V V K K A V B m N A A A A *.A Z Z M M $.M N N N N A Z Z *.*.*.*.-.-.-.$.M c c m m m m m m B m m a B h a u i i u c c x x v v @ #.$.Z a a a a j k d d d d a a a a i u u i i t F t * j h * = p f f k f ; O   = t = = K k k k f > > > g > , E X.' Y 1 9 ( X./ / (.) q ",
"5 q ( R T E > ; f H ` _ f , W W j j j k G H _ ' i.o.O.O.Y Y ~ Q Y 3 3 Y T W W W  .u.J.@X@XE.R.K.%XL.J.i.t. .| ' E XXO > - d p K K L K g g Q Y 2 , > > g _ ' ` E S A m c c u y i i i i i y y y y u m m B m m m B m c c c c x x u u h g < : : 1 1 > * p a i a D D V ] ] L [  . .t. .o.o.o.O.i.i.O.t.O. . .t.F.F.t.F.F.F.....F.F.i.o.t.F.J.J.@X@X XL.J.J.u.l.l.l.l.w.u.H.l.H.P.@XE.E.E.E.E.#X*X*X*XzX#Xx.f.7.5.5.6.L 6.7XtXq.f.+Xf.7.7.7.5.[ ] L L 4.7.7.A m A m m 1.L 1.=.Z ;.*.$.&.Z M A L K f - > > > > > > > ; > > > > - * - d * t t u a h f g d d C 8.0.4.h > % % % % 2 1 2 1 3 q R / 0 8 8 q 8 8 & & ^ / T R Q T T R q q e e ) '.'.) e '.'.'.[.`.`.`.`.`.`.'.e `.`.'.'.`.`.`.S.S.r e C.0 q 9 9 9 R R R 9 : < Y E E g g g f - - d h p t s a h d d = f K K C p * * * * * > d - t p p p d k _ K K K V h a m V V m m c c c c x z z z x y y i i u x y z z y y c M v v v x x x y y B B B B B B m a p p p t t u u u y x x z @ @ @ v m a a p * d k d - d h p a m c z u i i i t F F * d d * * f j f k , < > * = = * f ` H H E G , , Y g g E X.X.Q 9 9 ! ( / 0 w (.e 7 ",
"q 8 / ( X.Q ; 2 _ ` ` J , G X.D.|.I. .H j G G > < 1 Y Q Y Q X.^ 3 T Q +.{.oX|.O.G.F.w.w.g.j.K.T.E.L.u.e.t.t.| | ' {.% , > k H { ] [ H f , 1 2 2 1 > , g W ' Q E C A B B V V B u a a m m c c x y y i u u c c y i i i y m N c x y i t d < , < 1 1 ; * d h t t l C t V V j K [  .t.' o.o.X.o.o.o.o.i.i.F.F.F.F.F.F.F.F.F...{ F.F.F.r.i.z.z..X XL.L..XJ.J.z.z.z.l.y.u.J.J.l.J.@X@XE.L.#X2X*X1X5X2X#Xk.<.,.8.f.4.V u u y.l.f.R.+Xh.p.8.0.q.6.] K K L 7.1.7.*.N N m 4.5.I 5.V c =.;.&.&.b u a V C f - > > ; ; ; > > > ; ; ; * % % % = O O O + i t * - > * t m m B K | T Y T : 3 9 : q q 0 w / / e C.].0 T 3 T +.^ : & : / ) ) ) `.e e r w e r 7 e '.'.'.`.`.`.`.`.'.[.[.[.[.'.`.S.S.S.e `.`.'.`.r e C.) / R R R q T Y G T ! Y G E G , * - - = O = = = f f * > g k K f - d - * - - d - = = * d H ` _ k f f d - p a a s i i i y @ @ @ z + + + i + + i i i i i i i i x M M M m m m m m a m m m m m m a a p p p a h B a i y @ + @ @ X @ x m t p - = > g g d d p i i c c z i y i i t F d t = * * - f g f f > Y W E g > f ` ` ` W E E ! Q Q ! Y ! ( X.@.@./ q 0 0 e (.'.'.(.",
"(.8 8 R ( T , G Q W Q | | Z.{.D.|.XXI. ._ ` W , < 1 Q +.Q T W 1 ^ | ~ 3 , J  .G...e.e.w.H.K.K.l.l.L.l.u.F.G.| | | Q ; g g E E ` K _ H G Y & & R R R ! Y ! ! R ! k h k _ { ] D a C S A A Z Z M c c u i u c y i + i i y Z Z c + . i i t * > g < < > > g k t t k k a C V p f K _ } ` | o.X.' ' ' '  .t.|.|.F.F.i.F.F.F.|.t.o.{.{.|.r.|.|.|. X.XJ.L.z.l.l.z.z.l.y.q.q.l.z.u.l.L.R.T.W.2X8X1X>X>XR.p.<.p.p.p.Z i i V D S A Z =.=.*.<.,.7.6.6.] L ] 6.7.,.d.1.N x A #XL P 5.a i =.<.*.Z c i i p d f f f d > > d f g g g G G g > 2 2 ; = = t u p p > > f j V V a p g | X.( X.9 4 4 2 3 / ^ 0 ) C.'.C.) ^ X.^ ^ ~ 0 4 q ) ].'.e C.`.S.`.].].]./ q w '.'.e `.`.r e `.[.[.`.`.'.'.'.'.e 7 r `.e e S.S.'.C.) ) / / ( ( ^ T ! Q ! G G Y 3 1 G G H f d f j f f , 2 % ; ; g f d f d * * * * * - * * d _ ` f = * ; ; - - p t = i u a u i i y y y y t i i i t t t a V V m u m ,.A N y i i u s s a a a a a a a a a a f j V S m i y + + + z @ @ z u t p - = > G E k k a + + x c x + $ $ i i t * = * > * - g G f g ! ! Y E | ' g d o.t.O.Q ! X.X.^ Q 9 : ! ( X.+.+./ 0 0 ) (.e e e ",
"( ( 2 < ~ G G G , < O.Z.Z.Z.+.}.{.XX|.O.|.G % , G G W | | G 3 G W Q J > - J  .t.Y.[ e.e.P.H.P.w.9.u.u.u.F.t.o.o.Q G > > G Q ' W E E Y 9 R @./ / / (.+.+.+.( q 2 % ; g ' t.t.{ _ h D L ,.1.<.<.<.1.L A m m m m m A A Z m y + + + b @ + i _ k g 2 2 g ; U E * > E p K K d p k ` ' E o.' G ' ' g E H H { t.t.i.{.F.F.XX|. .r..XXX|. .J..XJ.9.{ { [ 6.6.6.6.4.4.] 4.4.L ,.,.4.7.<.<.M.h.p.p.h.x.p.=.a.<.&.c x x M *.Z *.,.=.&.*.;.<.7.4.6.6.K K ] L 7.7.7.h.A A A q.f K K a y m m i y u t = = f , * d p = t k H d * * * ; g E Y 1 % f = t h p - > % = H V i t - , ( +.].R 1 3 3 9 4 ) C.Z.]./ '.'.].) ( ( ^ 8 4 9 / C.) '.'.'.C.e '.].].].R & & & 7 7 `.).7 7 ) [.].C.'.].C.) / / w q e 7 7 e C.) ) / & 0 ) ( ( X.X.! ! Q ~ ~ ^ ^ ( ~ | ' E g k _ ' Q Q 1 3 1 % G W ` ` H d - * * - - = - { r.H - - = f - = f f f H j K h t h C h a p t a f p p p = p f L L V a m a V i y O i V p h V p L [ L i V h t I 5.B s V ,.,.A m y y x c c y m h = > % ; o.> _ p u   x . c + . . i   S F O d d = p ` ` H G f G Q Q Q O.o.E E ' o.| W Y ~ +.+.( X.+.+.X.( ( ) 6 8 ) ) e ) ) ).",
"X.( 3 Y 3 , G , Q O.}.Z.O.Z.+.Z.|.t.D.' D.F.= W ` W ' | ' G , , O...` G s s J I I ..t.t...t.t.t.e.t.i.F.t. .! G Y 3 < 9 Q X.X.O.X.+.( R / (.'.[.) ].(.+.( / ( / Y < g Q o.O.o.t.r.r.6.6.8.8.p.p.1.4.6.7.0.6.8.8.4.4.8.8.Z Z Z M $.X . . u O = > = g , : G Y G = * j _ _ k f f g E | E G ' ' g E k g ` o.{ } } ` o.t.r.` _ { { _ { 9.r.9.{ { 6.6.5.4.4.4.6.8.6.6.L L ,.,.,.,.=.=.<.<.p.p.p.7.,.A M c x z z z b &.*.=.*.&.:.;.<.<.=.V S C h f C C L ,.1.7.N A 1.l.u.` k V a O O u B V h d f g > = = h h a h p * - * = 2 ; > < < , - - h t O * > % O d B t p d < q 9 ( 9 3 ^ ( +.( +.C.C.].C.].) w ) ) ) C.) ) ) ].C.C.].C.C.) ^ ^ {.Z.X.< % & 9 0 +.'.'.].'.w 0 0 C.) ^ ^ ^ ( ( ^ ) 0 w ) C.) / / / & : ( X.X.G , | E Y Q ~ ^ ( +.( Q Y G H W ` | Q X.9 ^ q & R X.W E > = = * > f > > g ` k * * f p K K _ { K f H ' o.' G E E g f p = p H G G f - f f K K j j j p O O K C j j = = p j K h h K 7XJXHXcXxXGXcXg.A 1.8.0.f.f.4.Z B A S C f ' | ' O.; k t i m 2X#Xm.x.x.>Xc B u i t d d k H H H k G ` Y X.' E ' | E E E o. .G G o.+.Q (.X.Q +.{.{.X.T q 9 @.0 0 ) e w ",
"T < < ! Y Q +.Y % G D.{.{.}.].Z.|.G.XXXXXXoX= - f f G J ' O.G.|.D. ...t.t._ p = _ t.i.D.Q O.~ Y G G | o.~ Q T : 3 9 9 9 R Q ( X.Q +.) 0 0 ) ) (.0 ( ( ].OXOX].( {.+.~ Q X.X.X.o.E _ ] 5.8.8.7.8.4.6.0.q.q.q.0.8.v.y.x.E.A ,.,.,.$.%.hXjXVX@Xy.9.t.g , Q Q Y : G E k k d = = f ' E E g g E k * > g > g ' E d > > E H k _ k j j C ] S C C _ C C C C D B V S S L S 4.4.,.S A A ,.<.=.<.7.7.,.=.A Z i z z c c x b M :.-.-.&.&.&.*.Z 1.A L ] K j V V L L ,.,.i m A 6.u.K C 9.5.p = h a p d f k f ; % = a a t t = = p p - * * = ; , G ; f k p = ; 1 % % f L L K ` ^ 0 / ].+.+.Z.Z.+.( Z.Z.) C.) ].C.) e e C.'.].].].].].].{.{.{.XXF.u.O.Q E ; % J D.Z.{.+.+.].].) +.}.}.}.].Z.Z.{.}.{.OX) '.[.'.'.].].4 2 R +.| T 3 ! , ; 1 Q +.+.+.Z.( R Y Y Q ` W Y Y ~ 0 / 9 2 9 R Q | G > g W | | E W | | J f G { P P K f s = % ; ~ X.( R R / R R ' f f _ _ H G f G f j H f s = O K p a - j  .` 9.[ 9.9.l.aXJXHXrXrXxXzX8XvXKXPXHXxX9X2X2X#Xc.l.c.z..X|.oXOX|.:X|.aX7XxXDXVX8X$Xl.y.c.$X+Xc.+Xt h h 6.] p j k f ` g X.| W ' E - - * - H o.i.O.o.o.{.i.{.{.|.{.i.+.X.R Q R / ) / ) ",
"Q 3 G Q Q ~ Q , G ! D.XX{.+.T Q XX&XXX:X|.t.' H , G W ` O.G.XXXXXXG.| ' ..' { { % % % 1 1 R T 4 T 3 ^ +.~ +.].) +.+.+.+.) ) +.+.( +.) q r e e e '.0 %   % 2 R R Q Y < ! Q Q E Y > g _ { 6.6.6.6.0.6.7.6.6.6.6.6.6.6.y.+Xa L 4.,.<.s.kXj.x.q.5.9.o.U Q 3 1 ! 9 Y g k g * % = g ' ' E , g } E > > k > > E g > > g H k k K k k K 6.S B h h l d F h B B u u u m h F B h m u u m A <.<.=.N m m a u i i i u c M M b b v &.<.<.-.*.*.,.Z a V ] K f p t L L A m + + y u C j C 6.9.{ _ K j d d E ' W G g d h t t h p t p p d d - * * ; > 1 ; - f > % % % O = V L 9.{.].) 9 ) ( ( X.( X.^ 3 ~ Z.].].].C.C.'.'.[.[.[.[.].].{.{.}.|.&XtX3X@Xi.+. .H - E F.o.Z.{.{.].].].].{.Z.].].Z.+.+.Z.].].'.C.) / ].].( +.Q | o.D.D.| ' | Q Q ~ X.X.~ R ^ R ^ |  .| W G T ( R / 8 2 8 ^ 3 R T 3 Q +.X.X.! Q | ~ Q Y g , s t = = ; = , ~ ~ X.( / ( ) ) +.| G f H H G G G g G  .I.&X:XuXuX&Xi.i.9.r.F.[ [ j  X7X:X-X@X@XE.Q.Q.#X>X#XW.#X2XxX9X$X=X=XL.J..Xz.z.i.{.+.+.XX&X&XHXCX4X9X2Xy.z.5.L.L.y.@XE.9X7XxXBX7XJ.y.[ k f E | | ' } f = - j j [ F..Xi.i.{.{..XXX|.F.i..X:X{.O.X.X.( R R +.",
"9 < : 6 ! < ; Y < , g W ' ! | G.XXXXI.G. .f E , , E | o.D.{.D.O.{.{.O.W E ' D.{.! ; 2 & q / '.C.q 4 0 / 0 / ].) ) ) / / / / ( ( ) ) 0 7 r ).'.'.].OXOXOX].( +.{.o.o.o.i.{.O.' E W E ` E k j L 6.6.6.6.5.6.q.y.l.z.L.@X7XL ] L V ,.k.bXE.#XL.z.z.r.E | ! 9 ( ( Q E } E > % ; g Q g > ; f ` ` k k g > < E U < g E U E k k k D C S B u i F d d h C B B B c u u u F h h h a u u B A S m i i i t t * * * = i c M $.b $.%.%.$.c @ + + y i a K H j f p V a a i i i u O a a h j _  . .` E g , Y ! Y Y E H k f k _ K p p * p d d d - - - G 1 ; , Y < & & < f K ] 9.{.].) ) ].+.+.) +.].( 9 R 9 : 0 ) ].OX'.'.'.].}.OXOX}.{.{.{.{.@X7X1XE.|.{.i...k _ F.r.+.{.{.+.X.+.{.{.{.}.}.{.].].].].].[.].(.].{.o.W H t.XXt.H J H ..A.O.Q 3 : 9 T 9 R ^ | o. .` ` | Z.Z.( 0 & 2 & & : R / R / ( R R R ^ ^ Q Q Y 1 % = = - j G G W +.X.( T 9 0 R 0 R , - G O.F.|.oX:X&X:XuXsXaXtXyXaXaXuXJXsXaXqXJ.|.&XtX=X=X7X2X2X2XE.v.M.5X>Xp.p.R.m.W.#X=XL.q.9.l.@X|.i.{.{.{.|..XtX8X5XjX#XaX:XF.u.:XBXcXGXVXPXHX3X#X=X=Xq.[ [ f G G , f f = = ] L.:X:XJ.u..X.XJ.&X.XJ.J.J.|.&X:X:X|.t.t.O.Y 2 Y ",
"2 & : : 9 < < oXdXdX|. .G - f - p O s = p f f f > G T Q X.{.{.{.Z.+.( ~ +.{.{.X.X.9 R R / 8 e e ) ) '.].].].[.].'.) ) ) (.].].].+.+.e r ).'.[.].(.{.{.{.].+.{.|..X.X.X|.i.' E g Q E E H d * * j C C S L ] ] 5.5.y.z.&X7Xq.6.L V a a l.z.R.K.H.&XwXt.' X.X.( ( +.O.{._.E > g Q ' g > > g _ _ _ k g > g ' E g g g g k H k C C V u c c i i t t l C u c c c u u t t d h D D B a u u u u t t * * d g l > * = u c b v $.v @ x x i i + 1.L P [ K K ` K V y u u B B B = t i t j _ ` W W ! G < < , ; ; > < G E ' } f * t p p p p p p t * G 3 1 2 < q 8 : ~ ' ] 5.9.O.) e '.'.) / 0 q R : : 9 4 & ) ].].].].].].].{.}.}.}.{.].{.D.|.@XR.L.F.XXO.` K K u.z.i.i.+.X.( +.{.OX{.{.O.O.{.{.{.].].].( X.{.o.k [ q.P.&XJ.F.I.O...Q Q 3 1 1 9 ^ R ^ ^ ` W G f G ` < 3 4 4 8 0 / ) / '.'.) ) / 0 0 0 / / / ^ ^ T 9 < , G | Q Q Q Q Z.+.Q Y E Q ' o.F.I.&X:X&XXXXX XXXXXwXaX7X&X=X:X X|.wXqXqXuX&X:X@X7X7XrX1XQ.Q.,X5X2X,XW.W.>X,X#X#X#X*X*X@XL.H.J.J.J.F.D.{.{.|. X8XzXm.R.=X&X' O.F. XaXyX3XAX1XnXnX>XvXxX7.p j * - > - f H t j z.=X8XtX$Xz.J. X.X=X@XL.L.@X&X=X:XtX Xz.J.XXo.* - ",
"q q / / 9 9 Q oX|.:XXX&X&XXX:X&XaX;XH.K j K G E E Y 3 9 0 ( C.C.].) 9 q ) ].].X.: 6 / (.) e e e e e C.'.'.'.'.'.e / ) ) ) (.].].].].].].[.[.[.[.OXOX+.i.{.i.{.t. X@X&X&X X|.i.i.W E E Q E , - - p a a h a a a p = a ] y.5.6.6.[ _ H [  X@XP.z. X:X&XD.Q ~ ( ( 3 X.{.oX|.O.' E E O.o.o.o. .t.r.{ E Y Q X.Q Y U g E E k C L ] S B Z Z F u h l C D u c c c c u t * * * t t t t t t i i * * * ; > , Y G l t t c b v v v %.<.k.l.L.@XK.H.H.9.` `  .[ [ h A S 4.S D t i t a K ` ` Y 3 T T Y 3 < > > , 2 : < Y g * = * f f j j h a a p > 3 1 2 : 4 & 4 T ' 5.9.r.| w '.'.) w e 0 / +.0 / / 4 % / ].}.OXoXoX:XoX&X:XoXoX{.].{.{.{.|.l.J.{.oXQ J K d [ r.i.D.Z.{.].+.( Q i.t.t.t.{.|.|.{.oX{.i.i.z.v.x.W.L H.;XP.H.e.| G.D.O.| X.+.( ~ ~ ~ W G G f s f H o.+.+./ / ) / / '.'.'.).'.e w / w w / / / ) ) ) 0 q / Z.+.Z.].+.G G - = = p C e.J. X:XqX:X:X:X&X&X%XwXyXrX3X3X3X&X XtXaXaXBX&X@X=X7X1X8XW.W.~.<X#XR.W.#X,X,X>X#X5X1XQ.R.E.#X@XL.H..X|.G.D.{.|.&XT.j.h.W.H.F.G.{.t.XXI.wX*X*X5X!.<XW.5X9X7.a C k - W ..t.t.] 5.@XE.+X=X9X$Xc..X=X7X=X#X$X+X+X=X9X7X:X@XL.&X|.H k ",
") 0 '.(.R ( +.{.XXXX.X:X:XJ. X X:XtXu.u.K f H g < : : 9 0 q q 9 8 9 @.+.+.X.X.+.Y R R ( q e e e e ) ) ) '.'.(.'.'.].[.].].(.].].].].+.'.].(.(.{.].{.O.{.{.{.{.i..X@X$X=X@X.XF.{.' E g Y Y , ; - p p p p t p d d K _ ` ` ` E ` ' W ! ,  .t..X.XI.J.XX{.oXoX~ T 9 X.+.{.{.X.R R X.+.O.i.o.o.O.i.o.X.~ X.X.R ! ! < X.Q H k K K V B B S S C } { _ l l B B V D D h t f d * * d k _ _ _ f ; > , < < : 1 6 G l a a N &.*.p.R.#XL.z.|.:X%X&X&XI.t.F.F.r.9.k L ] q.C K j j C C d f E Y < 2 1 3 < < , , < 1 2 2 ; > * = > - d j k K k H G Y R Q ( X.q 8 X.oXqX:X&X|.W 3 ) ) 0 q 0 0 / +.q R X.^ 1 X.Z.}.oXXX:X:X:X:X:X:XoXOX{.}.{.{.t.{ r.o.{.f f [ V 5.l.J.F.t.' | +.o.E [ 9.l.l.i.z.J.|.r.9.z.l.8.M.<XW.Q.*X2X-X7X%Xu. X|...Q O.D.Z.+.D.Y f f H ` ` _ ` G Q X.( ) ].].'.'.'.'.'.[.'.'.'.'.(.) ) ].].].) w w ) ].Z.Z.+.Y G H f t i a 7.E.tXyXBXuX-X7XwX&X%XP.=XwX7X=X*XE.@X XuX:X&X&XL.*X2X2XR.6XW.hXhX~.#X#X,X,X,X2X2X2XW.1X2X#XQ.#XE.L.L..X|.t.F.|.u.0.x.T.j.d.l.i.O.D.|.t.I.w.P.Q.1XQ.4X1X,XE.7.j d k , ..O...[ K ] z.$X$X+XR.c.M.$X9X8X2X#XE.R.E.@X=X&XtX7XJ.J.J.` [ ",
"/ / ) / 0 / +.OXoXoXaX X X.X.X9.:X:X[ i.f g ! 3 3 : < < < < < ; ; ; * k [ [ 9.9.r.{.+.! / ) ) ) ].+.) ].].) ) '.].[.}.].].+.].[.OXOX].].+.X.i.|.:Xi.o.t.i.|.|.{..X$X=Xc.2X.X.X.Xi.o.Q Y g > > g > * d k k > > , Y ! Q Q / / / / ( ].+.{.+.O.:XoXoXoX{.D.{.XX}.Z.}.) / / q & 8 / ) / q q @.( ( 0 q w / 0 q 8 0 / / ( Q R G g f g E U U E ! ! ! ! ~ Y d g _ _ C h d g = > g o.X.X.X.% : 6 2 : : 9 8 & T Y k t V m l.L.&X|.F.D.D.XXXXwXuXJ. .i.F. .H ` ' ' E g g G H g f g G G > % ; ; ; 2 ; , , 1 1 < G , - ; - , G 1 Y +.O.| | +.+.Z.}.X.~ {.D.F.XX.X7X@X&X XE W Y T 3 Q T Q ! O.! , , O.o.D.XX:X:X:X:X:X:X:X&X.XoX|.i.i.r.{ { r.r.6.h ] 4.,.=.4.m.f.l.x.6.q.l.6.f.f.v.v.v.f.f.p.f.f.h.h.h.N.n.h.m.T.E.#X#X#X3XtX-X&X|.t.t.{.}.{.|.t...` ` _ ` | W O.+.( ) +./ R ) +.].[.'.'.'.`.'.'.'.'.'.'.(.'.) C.+.+.+.| W ` * K V j L.SXHXSXGXBXrX7X7X7X7X7X*XL E.tX@XL.K.K.J.J.L.L.L.@X=X7X#X#X1X1X>X<X<X<X>X>X>X>X>X1X1X1X#X#X#X#X>X#X#X@XP.L.P. XJ.l.H.K.R.#X2X3X&XJ.9.` _ | ..t.J.J.K.L.W.R.#XE.l.C K f ; W ' J ..p K J.*XtX9X+X#X,X,X5X6X2X3XR.g.*X-X&XP.;X|.t. .` W t.",
"/ / w w w / (.}.:X:XaX@X X.X|.i.@X7XK  .E Y < 9 9 9 9 < < , g g _ { 6.u.l.y.z.y.y.r.' Q ) (.(.'.}.{.Z.].Z.) C.].}.OXOX}.{.].].}.OXOXOXOX{.O.r.z.z.i.|.|.o.X.D.{.z.z.=X=X2X+X@Xz.XXt.g > E ' E > d d d g U G G Y T R @./ ) '.'.'.) ].) ].].].oX{.X.{.}.}.{.{.}.}.]./ 0 e r 7 7 7 (.e 8 & 5 q e e 7 r r 7 & & 7 e e r 8 : : 9 Y ! ! ! R @.R 0 0 / ) ( +.+.E * = f d g > g ~ ].].(.( % & 7 5 0 q 8 0 0 ^ Q o.j j L u.F.XX|.{.{.{.oXqX|.9. .[ { ` G E g ; > g Y Y G , g J E J G G G G g , , , - ; ; , , , f G G G , 2 : R ( ( Z.{.+.X.Z.}.{.D.|.J.J.@XL.&X@X&X:Xu.z.W g O G > ' > f G -  .r. .:X X:X:X:X&X&X&X:X&X.X.Xi.y.y.y.6.6.y.b.5.V 4.4.Z c x p.j.m.h.h.x.m.x.x.n.h.h.h.h.h.h.a.a.a.a.N.n.n.h.f.f.j.x.T.m.h.d.T.E.%X&XXXXX|.|. XJ.J.J.I.F.i.t.t.O.Q T ( ) ( ^ T T R / e ).).`.).'.(.).(.'.'.'./ ^ R Q Y - d 9.z.7XAXGXGXAXtX7X7X8X8X8X8X7X2X=X7XL.#XL.7.x.K.g.l.l.z.z.z.L.E.#X#X#X>X>X>X1X1X<X>X>X1X6X1X>X#X#XW.W.Q.#X#X#XQ.E.L.H.L.@XL.L.E.E.E.E.E.P.J.u.9.` t.t.t. .F.J.J.R.Q.Q.#X@Xl.j H f ; ~ ' ' ..; K J.=XrX2XE.2X8X5X5X2XR.*X3X;XwX0XXXG.I.F.D.O.| Q o.",
"0 0 q 0 / +.{.|.:X:XtX$X Xz.z.z.&XtXL _ o.' < Q R Q Q Q ' E E { _ i.z.J.z.y.l.9.z.` ` +.].].].].{.{.Z.+.( ) +.].{.}.}.}.}.}.}.OX{.{.{.{.i.O.i..X|.F.|..XF.i.{.{..Xz.9X8X2X$X&Xy.i.i.' Y Y ' W g g g k E ' +.O.+.+.(.(.) ) ) (.) / ) 0 ) +.) }.].Q Q R R T R ( +.) ) / e r r r 7 7 r 7 5 5 7 r r r r r 7 5 7 r e r q 7 8 0 0 9 : 9 9 q 9 & & & 8 0 q q Q Q E k g E ! ! T +.].+.( / % 8 0 0 '.) 0 5 w / X.|.[ a L 0.5. .j - - * - { j f K j f H ` { _ ` o.D.D.| G E E J g f f H W ' E g , - - > , > ; - f j G G f 1 T X.~ | D.{.o.~ o.{.{.|. XJ.z.@XE.#XE.@X=XJ..X..J G |.F.|.` - - f t.t.i.aX:X:X:X:X=X@X X X.X.X.Xz.y.y.q.4.4.4.y.8.4.S Z Z p.*.=.!.W.h.m.m.j.m.m.n.h.h.a.h.h.h.a.a.a.a.a.a.N.h.m.j.h.j.m.m.h.h.j.j.R.*X Xt.i. X X XL.J.L.J.u.[ 9.F.{.D.+.~ T T Y T 0 0 r r r r r e e e e ) ) (.+.Z.{.oX:X&X:XSXHXcXxXxX5X*X2X3X=X7XxXxX8X2X*X#X=X#X=XK.f.E.E.l.@X X@X@X@X@X#X#X#X#X>X>X>X>X1X<X>X1X1X1X#XQ.Q.#X#XQ.#X#X1X>XQ.L.L.l.L.E.E.E.*X*X2X2X*X@XP.L.J.F.F.J.t. .u.l.K.R.Q.>X1X#Xl.V K k = ` ` ..I O [ P.*X*XL.l.#X9X2X1X#X*XE.%XwXP.I Y.G.I.G.A.o.Q 3 G ",
"9 8 8 0 ( ].|.oX:X:X8X$X+Xz.y.z.:XtX[ ] r. .Y X.( +.+.{.{.o. .i.r. XXX&X&X&X&X.X|.{ ' O.+.+.].].i.i.O.X.~ X.+.O.+.{.{.|.oX|.}.OX{.{.{.O.O.t..X:XXX|.i.F..X|.{.i.+X+X9X8X9X+XL.6._ o.i.X.Y g g g ' o.o.o.O._.O.X.(.].].].].'.].'.[.[.[.[.].].oXdX( ^ ( +.+.( 0 q ) ) '.'.e r r 7 7 r r 7 7 r r r 7 7 7 7 7 7 r r 7 7 7 r e e 0 5 0 0 q 5 & 2 & 7 q ) ].( R | O.O.{.+.X.! +.( ( 0 : & / ) w ) (./ e ].].{.XXF.5.q.z.g.q.V j [ [ 9.y.L.&X Xu.u..X.Xt.9. . .t.F.F.{.i.r.{ ` { ..{ ` _ H G f - f k H G G _ _ H J _ | W ! | O.| | O. .` ' r.i.J.J.z.l.E.R.#XT.@X#XL.@X[ p `  .i. .9.f p 9.9.J.J.:X:Xz.=X=X@Xc.v.b.b.b.8.8.f.b.f.p.f.x.c.b.8.B 8.#XCXM.-.m.!.M.M.m.h.x.h.h.n.n.h.h.h.a.h.h.n.h.a.a.N.a.h.h.h.h.h.n.n.M.h.k.f.x.q.P ] l.7X2X#XR.L.L.l.5.u.F.i. .` g , W , G ^ ) ) e e q w w 0 / / R / ].}.qXdXaXJXLXJXAXHX1XT.>X1X>X2X2X2X3X8X8X2X*X*X*XQ.R.Q.*X2X#XE.*X@X@XE.@X#X#X#XQ.#X#X>X>X>X>X1X1X1X1X>XQ.T.T.Q.1X2X1X#X1X1X1XQ.L.L.l.H.P.L.E.#X#X#X#X#X#X@X@XP.L.J.J.i.e.w.H.K.R.Q.~.<X>XW.L L L t 9.[ I s O e.P.%XL.g.q.L.=X=X#X*XK.*XwX%XP.Y.U.I.G.D.O.| ~ ! Q ",
"9 q R @.X.{.XX:X:X7X8X9X2X+Xf.L.=X@X9.9.{ { ' X.o.+.+.{.{.D.i.{.F. X.X|.|..XXX|.i.' | X.Q ( +.X.r.r.t.o.X.+.O.O.i.|..XXXXX.X{.{.{.|.|.|.{.D.{.|..X.X.X.X.XJ.J. X.X=X2X9X8X+X8.6.[ } ' ' ' G > ; E | O.O.{.|.{.X.{.{.}.OX}.[.].'.'.'.'.'.w w [.fXOX].Z.) / / ].OX(./ ) '.`.).e r e e e 7 7 r ).).r r r e ).e r r r r 7 7 r e e e 8 5 & 2 % % & 5 (.'.].(.+.+.{.{.OX}.].( ].( R 9 6 0 '.'./ (.'.'.].[.].+.` 9.q.5.7.4.1.N P g.K.R.E.*X7X&X@X:X:XL.u.F.J.J.F.t...` ` [ [ 9.r.9.[ K H [  .K K [ [ H J E _ H J H ` ..` G W | | ' t.F.[ 9.q.l.L.K.x.j.T.W.Q.W.Q.Q.R.*XV p 9.u.L.q.q.s V L.l.@Xz.z.L.q.m.c.v.f.p.8.a.f.p.f.j.j.h.h.M.#X,Xf.4.s.4XGXKXW.<.-.h.~.W.M.M.m.h.h.m.M.M.n.h.h.n.n.n.n.N.a.a.a.s.a.n.M.M.n.a.n.h.a.h.h.j.8.,.,.4X4X,XW.W.#XE.l.z.q.] [ u.9.I G G | Z.].+.) 0 0 / 0 ! ( ( ! X.oXqXaXaXtXBXAXcXzX5X~.6XjX6X<X1X>X#X#X#X#X#X#X1X1X1XQ.T.#X1XT.T.2XE.E.E.@X#X#XQ.R.#X#X>X>X>X>X>X1X1X1X>XQ.T.R.#X2X1X#XQ.#X#X#XQ.E.L.l.L.E.E.E.#XQ.Q.Q.#X#X*X@XE.L.J.I.J.J.L.L.L.Q.~.<X~.~.,X7.L L j l.5.V t s H.@X*XL.w.w.H.%X=X=XE.3X*XE.pX%XY.0X0XXXD.O.o.X.| ~ ",
"! Q ( ( +.{..X&X:XtXjXjX8X2Xx.+XE.l.l.J.r.r.t.o.i.o.O.O.O.D.|.|.&X:X.X|.|..XXX{.` ' ' ' ' o.D.i.z.z.i.i.t.t.t.t.t.z.|. X X|.i.t.{.{.|.XX|.{.i.t.i.|..X.X XL.J.&X+X2X,XjXjX$X4.6.9.` E E E g > > < ! X.i.{.|.|.{.{.}.OX}.{.].Z.) ].'.'.'./ ) ].].].) / ) ) ) / / (.0 0 (.'.'.'.e r r r 7 7 r ).`.`.`.`.`.`.`.).e r e ).e ).`.'.'./ e w w e e ).(.'.w 0 ].OX{.{.{.{.{.{.].{.+.Q Y R Q ) ) ) '.'.) '.].Z.+.` u.l.7.zX8X8X1X1X8X6X5X8X=X2X7X7XtXtX=X7X&Xl.9.9.u.J.J. X&X&X&X&X&X&X:XJ. XL.q.5.q.l.i.H f f f j P K K H H W W K  .F.l.5.l.l.E.E.T.T.h.m.W.W.T.T.m.x.T.q.V i V a 0.1.V L L.2X#Xl.T.j.#Xx.j.h.h.h.h.h.n.M.M.M.M.h.h.M.>X>Xs.8.>XjX,X4XW.h.-.s.~.W.M.W.m.n.h.h.h.n.n.n.m.m.m.M.n.n.N.a.a.n.s.s.a.M.N.N.a.n.h.a.h.n.j.a.<.h.n.M.M.!.W.#X#Xj.g.q.l.P.J.[ J J | D.Z.+.( ( R ! 3 g Q W g o.qX:XaXBXVXBX8X5XvX4X6X<XW.m.m.~.>XQ.Q.Q.Q.#X#X#XQ.#X2XQ.Q.#XR.Q.#X#X#X>X1X1X#X>XQ.#X#X#X>X>X>X>X>X>X>X1X>X#X#X>X1X#XQ.Q.Q.#X#X#X#XL.H.L.@X@X#X*X#X1X1X1X1X*X#X#X#XJ.I.J..X@XL.K.Q.<X6X~.~.4X7.Z B y L m y i 5.P.=X%XH.l.u.H.P.-X-X3XR.*X%XP.%XP.Y.;XI.G.D.O.Z.O.~ ",
"! Q Q ~ X.i.|. X=XxX8X8XjXjXW.,X#Xc.@X Xz.z.F.i.{.o.i.O.E t.oX|..X|.r.t.t.o.t.o.' o.o.o.i.|..XXX@Xz.i.i.i.t.o.t.{ i.z.L. XJ.z.J.J.J.F.{.{.{.{.i.t.r.9.y. X XL.+X$X,X$X9X,X+X6.6.[ ` E g > > g g E X.O.i.{.{.{.i.O.i.+.+.+.+.].(.(.) '.(.) (.'.) [.) 0 0 / ) ) ( +.( ) ].].[.'.e 7 7 r e r r r ).).).).e e e e e ).`.`.`.'.[.`.).) ) (.].'.'.(.) (.) ].OX{.+.+.{.+.].].{.{.i.' ' Q Q T R / ) ) / 0 ^ !  .[ 0.1.7.jX5XjX5X6X5X6X4XxX2X2X5X#XE.E.E.q.q.q.l.L.@X&X&X=X7X7X=X@X@X=X7X7X=X@XL.g.q.L.&X ...[ 5.9.u.u.u.[  . ._ K 9.J.w.4.l.L.E.W.M.!.k.!.W.M.x.x.h.f.k.1.,.u 7.S f.m y 7.W.>XW.M.>XW.4Xm.h.h.h.n.j.j.n.h.n.n.M.M.M.>X4Xh.a.a.,XW.p.h.~.W.h.a.M.W.M.M.n.m.m.h.h.h.h.n.m.M.M.n.n.n.N.a.a.n.s.;.2.s.N.N.N.N.N.a.s.h.h.h.h.s.s.n.M.M.W.>X1X#X#Xx.0.g.l.w.e.= f W ' o.+.+.X.g g k k j h  .:X7XBXBXzX2XT.m.W.<X<XW.!.Q.~.Q.W.1X>X>X>X1X>X#XW.W.2X>X1X1X>X2XR.Q.Q.>X~.Q.W.W.W.Q.Q.>X>X>X>X>X>X>X>X1X1X>X>X>X>X#X#X#X#X#X#X#X*X XJ.L.*X#X*X1X#X>X>X>X#XQ.Q.Q.@XJ.F.F..X Xl.l.Q.<X6X~.~.4X,.x u i O O i s l.L.*XE.u.w.H.H.P.-X;X^.E.E.P.;X-XP.;XY...O.D.A.D.{.+.",
"g E E ! ' i..X.X2XxX4X5XjXCX>X8X7X@X@XL.J.J.F.{.t. .i.t.g o.XXi..X.Xz.|.|.i.{.D.i.{.i.i..X.XJ.@X&Xz.9.r.r.o.r.r.r.z.L.L. XL.J..X X.X.X.X.X.X{.i.F.J.y.u.=X2X2XxX9X+XM.,Xh.v.0.6._ _ U > ; g H g , Y ' o.O.{.|.XX{.F.t.| Q Q ( ( / / ].) / (.].(./ ( ) ) +.+.+.+.+.{.OXOX].].(./ 0 / (.'.e 7 r ).`.'.'.`.).).`.`.).`.`.).`.'.[.'.(.].OXOXOX(./ q q / ( @.X.{.D.X.+.{.{.}.D.F...t.t.t.o.+.Z.].[.[.].{.E [ 0.7.,.T.jX6X8X5X6X5X4XjX#XR.R.W.R.R.T.g.l.L.E.@XE.E.@X@Xl.L.E.#X*X#XE.K.E.K.R.#XR.0.q.L.i.F.J.L.H.z.L.L.9.9.t.9.[ q.l.l.7.W.R.E.R.M.W.h.!.W.h.h.m.x.v.j.,.,.A ,.<.7.M x h.jXh.m.!.~.6Xn.h.s.p.a.n.n.h.n.n.M.n.n.M.M.~.>Xs.m.a.>XW.!.M.M.~.W.a.a.W.W.n.!.m.m.h.h.h.h.n.n.n.n.n.n.n.n.n.h.h.a.h.n.n.a.N.n.N.N.n.n.n.a.a.n.s.a.N.N.n.n.M.>XjX5XQ.R.3XrX%XH.s J I _ ` ' G - k ] ] h a h q.=XBXGXxXQ.T.~.>XW.W.<X<X~.6X1XQ.>X#X>X>X>X>X>X>X1X>X1XQ.1X>XW.2XW.~.<X1X<XQ.W.W.W.Q.Q.Q.>X>X>X>X>X1X>XQ.Q.Q.Q.#X#X#X>X1X1X#XQ.Q.#X@XL.@X*X*X#X>XQ.>X>X1X1X1X1X>X#XL.i.t.I. Xu.l.*XQ.6X~.~.,XA i y h   O a V L.w.L.E.w.g.P.P.%X-X;X3XK.%X%XH.H.P. XXXG.G.D.O.O.X.Y ",
"< > ; g o.i.z.@X9X2X,X5XjXjX8X8X2X$X@X@X@XL.J.|.r.i.o.} ` t..Xi.i.J.z..X|.t.{.|.{.F.i.z.L.L.L.L. Xl.i.|.i. .{ t.i..X@X+X+X@X@X@X XL.J..X X X|.i.F.z.l.L.2XxXjX,XM.v.m.+XM.v.f.6.i._ g > ; > H g < < < Y `  .F.XXXX|.F.o.' o.X.X.+.( ( ( ( ( ( +.+.+.X.( +.{.{.{.|..X{.{.{.].].{.Q +.].].) ) e e '.'.'.`.'.`.`.`.r ).`.`.`.'.'.'.(.OXoX{.].X.( ( ~ {.Q ' G i.' o.o.{.oX|.F.J.J.u. X|.t.{.XXfXoXZ.i.9.q.4.,.1X5XhX<X5XjX8X5X2X~.W.W.T.m.j.m.R.R.x.R.E.Q.E.E.R.L.L.E.E.R.R.R.R.T.L.E.E.E.R.T.K.K.L.u.u.J. X#X@XL.L.l.y.] ] 5.q.L.f.7.E.E.m.x.h.j.p.x.m.x.x.x.x.v.f.=.=.<.M x c + + <X6X!.W.!.~.M.M.a.j.m.j.h.h.h.h.h.n.m.m.n.~.<Xm.s.M.>X>XW.W.W.W.M.>XW.s.n.<X~.h.m.m.h.h.h.m.n.h.h.h.n.n.n.n.n.h.a.v.h.h.a.a.a.a.a.a.a.a.a.a.a.a.a.a.a.a.n.n.n.n.W.Q.zX2X*XtX3X3Xe.= [ G [ t.k t t B a B i S q.2XGXxX1XQ.#XQ.Q.Q.W.Q.>X1X1X>X>X>X1X1X1X1X1X>X>X>X>X>X>X>X>X>X>X>X~.<X<X~.Q.Q.W.!.Q.>X>X1X1X1X1X>X1X1X1X1X1X>X>X>X#X>X#XQ.Q.Q.Q.E.L.L.L.L.@X=X2X1X1X1X6X6X6X6X6X2XJ.|.F.t.t.9.u.#X#X>X4X>XW.A y t = t = = j q.L.H.H.H.H.K.K.E.^.3X-X%X^.-XP.%XP.U.XXXXO.X.O.Z.+.9 ",
"g E g > } .X:X7X9X8XhXhXhX5X4X9X2X$X@X@X@X@X X XJ.|.t. .` o.{.i..XXX.X.X{.t.{.|.|.|..X&X*X=X=X=X+Xz.i.|..X.X.X&X.X.Xc.l.l.c.L.z.l.y.q.y.z.z.y.6.9.l.L.c.v.h.h.j.M.h.h.h.a.v.c.y.9.H f > > g g , < 3 Y W ` {  .9.|.|.F.o.' o.O.o.X.X.X.+.+.X.X.+.+.O.O.O.{.}.}.{.|.&X&XXX{.D.o.Q Q o.D.{.(.].].'.'.'.'.'.'.[.[.[.[.'.'.[.[.'.).) (.oXoX{.D.{.|.:XdX|.i.|..X_ f  .{.|.XX|. X&X@XJ.tX:X&X|.aXdXi.|.t.5.f.7.h.<XhXkX4X5X1XQ.R.E.Q.W.T.!.W.W.W.W.T.j.x.x.T.R.Q.E.Q.Q.E.R.R.R.R.R.R.T.T.T.R.R.R.T.R.R.u.u.z.L.@XE.K.l.L.l.5.5.q.l.T.q.1.x.v.f.p.p.k.p.f.f.v.x.L.E.R.x.<.<.<.v x x + + hXhX~.W.M.~.!.~.h.m.m.j.h.n.n.h.n.n.M.M.M.W.M.h.M.W.<X<XW.W.W.W.M.>XW.a.a.M.~.M.m.m.n.h.h.h.h.h.h.h.n.n.n.n.n.h.a.v.h.v.a.a.a.a.a.a.a.a.a.a.a.a.h.a.a.a.N.n.M.M.h.x.>X#XR.*X=X-X3Xw.e.K t.[ p ] B B m y c ,.@XBX8X2XQ.W.Q.Q.Q.Q.Q.Q.>X1X>X#X#X#X>X>X>X>X>X>X>X>X>X1X>X>X>X>X>X>X>X<X<XQ.Q.>X1X1X>X>X>X>X1X1X1X1X1X1X1X1X1X1X1X1X>X1X1X#X#X#X#XE.L.L.P.@X=X2X1X1X1X1X1X1X6X<X<X#XJ.|.F.t.F.t.u.@X*XQ.>XW.T.A a V = * = t K J.L.H.g.Y.K.K.E.E.^.3X-XP.P.P.%X-XP.K w.I.O...X.+.+.: ",
"k g g > H F.:X7X$X5XjXhX4X4X5X9X8X9X9X8X8X8X7X7X.X|.i.i.t.t.|.{.|.XX|.|.i.i.XXXX|. X&X=X2X9X9X9XtX:X X.X.X|.z.i.z.z.x.x.c.c.y.6.q.8.4.6.6.6.] K ] 6.f.f.k.p.p.<.m.M.M.h.p.a.f.] ] k f , > g g , ; < E E `  .9.[ u.l.z.r.{ o.t.t.t.t.t.t.t.o.o.o.o.o.o.t.i.{.|..X&X:X&X.X|..X|.t.t.z.|.{.{.{.{.}.'.'.'.'.'.'.[.[.'.).'.[.[.) ) ].dXqXXXF.XX:X:X:X:XBXaX@X&X&XJ.K s H [ u. X%XK.5.q.@X=X&XJXIX- ` 5.L 1.N W.6X6X4X5X6XR.v.g.x.T.T.j.m.W.W.Q.W.m.f.x.x.x.T.W.Q.Q.W.R.R.R.R.W.R.R.T.T.T.R.R.R.R.W.R.L.c.L.+X#XE.L.c.+XL.q.q.q.y.x.7.1.v.f.0.f.p.f.p.8.p.v.x.T.+X+XR.p.<.-.v x v @ v W.>XW.W.M.M.n.n.j.j.j.j.v.j.j.h.n.M.M.M.W.M.h.a.>X>X<X>XW.W.W.W.W.~.W.n.p.h.M.>XM.m.m.m.h.a.a.h.h.h.n.n.N.N.N.a.h.h.v.h.h.h.a.a.a.a.a.a.a.a.a.a.a.s.s.s.a.n.n.n.h.m.R.Q.T.R.2X3XrX;X%X X:Xu.] L S Z Z z =.p.9XBX#XE.R.R.Q.Q.W.W.W.Q.#X#X#X#X#X#X#X>X>X>X>X>X>X>X1X1X1X1X>X>X#XQ.~.>X>X~.~.1X1X1X>X>X>X>X>X1X1X2X1X1X1X1X1X1X1X1X>X1X1X1X1X1X#XR.l.L.E.@X#X#X>X>X>X,X,X,X<X<X<X#XJ.F.t.t.t.t.u.P.#XR.W.m.x.V a K p - = - [ J.J.w.w.g.K.T.E.E.^.*X3XP.;X-XwXP.H.e...I.....+.Z.{.: ",
"k * > E k } z..Xx.W.6XhXjX5X5X8X9X9X9X9X8X8X8X7X+X.Xz..X|.{.|.{.t.|.F.F.|..X:X&X X&X=X2X2X2X8X9X9X=X@X.XJ.z.y.6.q.y.l.c.T.L.f.7.y.q.7.4.6.5.L L 4.4.7.k.j.h.k.p.7.s.h.h.s.a.f.4.] k g g , g g , ; G J H [ u.J.u.q.u.y.r.9.r.t.i.i.r.r.r.t.r.t.t.i.t.t.t.i.{..X&X Xz.y.{  .z..X.X.X.X|.|.{.{.{.{.].].].'.'.'.].].].OXOX].^ T +.}.aXZXaX:X@X X&X7XtXGXVXSXtXJXtX=Xl.u.9.5.e.l.f.1.l.L.E.3XHXBXIXj ,.d.1.,.<XjXhX5X6X#XK.g.l.x.v.g.h.j.j.m.W.W.T.j.j.h.f.j.x.R.T.T.R.R.R.R.W.R.T.m.T.T.W.W.R.R.R.R.E.L.E.#X#XW.R.R.E.L.q.q.6.q.l.1.,.v.f.f.x.v.v.7.0.f.v.v.x.m.c.x.p.2.%.@ v M v ;.m.~.>X~.W.M.n.n.j.h.h.h.h.h.h.h.n.M.M.M.W.m.h.M.<X<X>XM.M.M.W.W.W.W.W.!.h.s.n.>XW.M.m.M.m.h.h.m.h.h.n.n.N.N.N.a.h.h.h.h.h.h.a.a.a.a.a.a.a.a.a.a.a.s.B.B.s.a.N.a.n.M.m.>X#XQ.xXxXwX;XwX:X X@X7Xm Z M M b 7.x.2X9XR.R.E.Q.Q.E.E.E.E.Q.#X#X#X#XQ.#X#X>X>X>X1X>X>X>X>X1X1X1X>X>XQ.Q.W.>X1X1X<X>X>XQ.>X>X>X>X1X1X1X1X1X1X1X<X>X>X>X>X>X>X>X#X1X1X#XE.c.L.+X+XE.R.+X#X>X>X,X,X6X6X4X2Xl.t...`  .t.J. XE.R.W.m.m.,.B a j - = - K u.u.e.w.w.Y.I.K.K.E.^.-X XwXyXwXH.H.XXY.XXJ | Z.Z.}.9 ",
"k * > E k H 6.q.f.f.W.jXvXjX5X9X5X5X5X9X9X9X9X7X7X@Xz..X.X{.|.i.F..X{.|. X=X:X@XE.$X9X9X2X9X8X9X5X=X@Xl.u.u.u.q.l.f.j.x.x.x.l.l.L.l.f.q.0.q.q.f.7.k.x.x.h.p.a.h.p.<.p.s.2.;.4.4.K f d > > > f - f W ..` 9.l.K.l.f.q.q.q.y.i.t.t.y.6.[ { r.z.F.i.t.{ { r.t.i.|..X.Xi.r.i.z.z.|.XX|.J.z.J.|.{.{.{.].].[.[.].].].].{.OX{.G > ' .XXX7X:X@X@X2X7X=X#XGXCXxXVXxXcXcXGXrX7X=XL.K.H.z.g.L.L.E.VXLXSXLXK.A g.1.h.<X6XW.5X1XE.K.l.K.T.x.j.x.j.j.x.W.>XQ.x.d.7.1.7.f.x.x.x.T.T.T.T.T.T.x.x.T.T.R.R.R.R.R.R.E.E.W.W.W.R.R.R.E.z.q.5.5.7.f.,.1.v.f.f.x.f.f.8.f.v.v.v.v.x.m.m.h.s.$.@ M M M a.~.,X>XM.m.n.m.M.h.h.h.h.h.h.h.h.n.M.m.n.M.a.n.<X>X~.M.M.M.M.W.W.W.M.!.#XM.p.a.m.>X!.m.M.m.h.h.n.h.h.n.n.N.N.N.h.h.h.h.h.h.h.h.a.h.a.a.a.a.a.a.a.N.s.B.s.a.N.N.N.n.n.a.W.>X2XVXcX*X-XwX-X X@X2X  y c z &.s.>X$X+XR.Q.Q.Q.Q.Q.Q.Q.Q.Q.#X#X#XQ.Q.#X#X#X1X1X1X1X1X1X#X#X>X>X#X#XQ.Q.Q.>X>X>X>X>XQ.W.#X>X>X1X1X1X1X1X>X>X>X>X1X1X1X1X>X1X#X#X#X1X*X#X@X@X@XE.c.c.E.#X>X,X>X,X1X4X4X2XL.u. .[  .u. X@XR.Q.#Xm.E.f.L t j p = p I e.e.5.e.e.w.Y.H.H.I.P.P.&X;X-X-X-XP.Y.Y.I.` O.+.~ ( 4 ",
"> > > > > H [ ] 0.p.m.4XkXjX4X9XjXjXjXjXjXjX8X9X8X@Xu.z.z.F.|.{.{..XF.|. X&X*Xc.E.2XjXkXjXjX8X2X8X2XT.q.q.9.q.q.v.m.W.W.W.T.T.R.L.l.l.f.f.v.m.R.M.m.m.m.m.m.h.h.n.s.s.a.2.Z m u C d > > ; > > ; f _ t.u.u.l.g.d.l.g.f.y.u.u.r.9.y.9.6.6.y.i.i. .{ { { r.z.|.z.i.z.{ ` o.t.' o.|..X|.|..X.X{.{.{.+.'.].[.].].].].~ | H - [ :XtX@XL.*X2X@XT.x.E.5X6XjXDX>X2X2XcX*Xl.P.%X*X@X@XL.z.w.=XtX5.@XK.IXa A L y j.jXhXW.5X>XR.l.l.K.T.m.m.m.x.x.m.Q.#XT.f.f.k.d.d.f.j.j.g.x.x.x.x.m.m.x.x.x.T.R.W.Q.Q.Q.E.@XE.W.#XW.R.R.R.L.z.6.5.4.5.f.1.8.v.p.p.v.f.v.f.j.x.x.v.j.m.W.W.m.h.*.@ M M M m.W.>X<Xx.m.p.h.h.h.h.h.n.n.n.n.M.M.M.M.h.s.s.n.~.~.M.M.M.M.M.M.W.M.m.M.W.M.h.p.a.W.!.M.M.m.h.h.h.h.h.h.n.a.a.a.h.h.h.h.h.h.h.h.a.h.h.a.N.N.N.N.N.a.s.s.s.s.a.N.N.n.n.a.m.W.<XkX5X%XwX-X-XtXL.6.+ z c z =.a.9X9X$XR.W.Q.W.W.Q.Q.#XQ.Q.#X>X#X#X>X#X#X>X1X1X1X1X1X>XQ.#X#X#X#X#XQ.Q.#X1X#X#X#X>X1X>X#X>X1X1X1X1X1X>X>X>X>X1X1X1X2X2X>X1X1X#X#X#X#X#XL.L.L.l.x.T.$X2X>X>X>X>X>X>X,X2X*XL.w.9.9.l.@X@XE.#X#Xm.#Xx.7.V a t s K 5.w.e.e.e.e.e.e.e.e.Y.Y.I.%XP.-X-X0XH.Y.Y.G.G.D.~ 4 & & ",
"= > > ; d k C C 8.f.j.M.,X8X8X9X5X8X8X8X8X8X8X2X7X*Xz.z.i.i.XX{.{..Xi.J.L.+X$X#X>X4XjX5X4X2X>XW.!.j.7.7.d.l.K.L.x.T.~.6X<X!.T.T.c.l.x.v.v.m.R.W.~.M.n.M.>X>X!.m.a.s.a.n.a.7.*.u j d > > > > > - - J e.H.H.l.g.g.j.j.l.y.y.q.9.y.q.y.y.y.y.y.9.{ r.r.i.|.XX:X&X|.{.O.o.O.O.O.D.XX X.XXXXXXX{.{.].) +.].].].+.X.Q | ..9.l.=XxX5XR.#X#XE.T.Q.W.T.!.<X!.kX6XnX#X5XQ.E.E.L.L.L.L.L.J.H.l.@X=XBX#XA L 5.L i 1.5XnXjXjX#XR.x.x.m.m.m.m.j.x.x.x.T.T.j.d.x.x.x.x.j.g.f.d.j.j.j.x.m.T.T.T.m.T.R.Q.Q.Q.Q.Q.#X#X#X#XW.M.m.m.z.l.6.5.5.6.v.4.p.x.h.f.x.h.m.x.j.x.m.x.x.M.W.W.m.h.*.@ M M N !.W.>X,Xm.M.k.h.h.h.h.n.n.n.n.M.M.M.M.M.n.s.a.M.M.M.M.M.M.M.m.m.M.m.m.m.m.M.M.h.s.h.M.~.!.n.h.h.a.h.h.n.n.a.N.a.h.n.h.h.h.n.n.h.h.n.h.h.n.N.N.N.N.a.s.s.s.s.a.a.N.M.N.M.n.m.<X<X#XrXwX;XP.-Xq.L S x c b *.v.8X8X=XR.Q.Q.W.W.Q.Q.Q.Q.#X>X>X>X>X>X1X>X*X#X#X*X#X#X#XQ.#X#X#X#X#X#X#X*X1X#X#X#X1X1X1X>X>X>X1X1X1X1X1X>X>X>X>X>X>X>X>X#X1X1X#XQ.W.E.E.v.x.l.L.L.E.#X,X#X#X#X#X#X>X>X>X*XR.L.z.w.L.@XL.Q.W.~.!.,Xx.f.7.a t a P e.w.e.e.e... . .....O.G.I.P.P.-XpXP.Y.P.Y.G.I.O.T 3 2 2 ",
"* * * g ` k d L 4.f.f.p.m.4XxX9X5X8X8X8X8XjX9X2X9X7X&X Xz.z..Xi. X&XJ.L.L.E.2X5X4XjX5XW.T.!.R.x.j.p.1.f.K.K.K.x.T.T.!.!.!.m.m.T.K.x.K.x.x.x.m.!.!.!.~.>XQ.!.!.W.#XM.n.a.p.p.1.a h p d g > > > * - K e.J.H.f.d.g.f.l.l.l.q.6.9.y.5.q.y.y.9.r.r.r.{ r.r.y..X:X&XJ.i.t.t.i.i.t.i.{.|.|..XXX|.{.i.+.Z.].].{.Z.o.E f _ [ w.#X#XR.W.1XK.E.@X#X#XQ.W.>XW.j.m.W.m.R.#XE.T.K.L.L.@X@XJ.q.P.L.z.*XtX8X#XN V q.=.y 7.j.5X1XR.K.x.x.m.j.n.n.j.x.m.j.j.j.j.j.f.f.x.x.x.j.f.d.j.j.j.x.m.R.R.R.R.R.Q.Q.Q.Q.W.W.Q.W.W.W.M.j.j.v.y.y.6.6.6.6.l.4.1.h.j.x.m.j.x.j.x.m.M.m.j.m.m.m.h.k.A @ M M M #X!.R.M.<.p.<.h.m.a.a.h.n.n.a.N.M.M.n.M.n.a.n.W.M.M.M.M.M.m.h.h.m.M.M.m.m.M.W.M.p.<.m.<XW.m.m.n.h.h.h.h.n.a.a.a.n.n.h.a.h.n.n.h.a.n.n.n.h.N.N.N.N.N.N.a.a.a.a.N.N.N.a.M.N.n.<X>X>X8X*XrX7X@X6.S i c b Z Z M.9X8XW.W.>X>XQ.W.Q.Q.W.Q.Q.>X>X>X>X1X1X>X#X>X>X#X#X#X#XQ.#X#X#X#X#X1X*X#X1X1X#X#X1X#X#X1X1X>X>X>X<X1X1X1X1X>X>XQ.W.W.R.R.#X1X#XR.m.m.x.E.@X#X@X#XE.R.T.#X#X#X#X#X>X,X2X#XE.@X@XL.E.#XT.W.m.~.>X4Xh.7.f.A a y K 0.w.e.e.......O.....O.D.Y.P.P.w.;X%XXXI.I.t.G.W G ^ & 2 ",
"- - * - j j V ] 6.v.f.7.h.4XjX4XjX5X5XjX8X2X2X8X9X8X7X@X X XL. X=X8X2X+X#X2X2X#X#X#XW.M.m.M.M.m.Q.n.k.h.x.x.j.h.!.!.W.W.W.!.T.W.R.T.T.T.T.W.T.T.T.T.T.W.Q.W.T.x.x.R.#XM.p.<.7.4.h h j k f f > = = 5.u.u.l.g.l.q.l.l.l.g.q.q.9.9.q.9.u.l.u.q.9.9.{ 9.9.9.9.9.6.] 9.9.y.z.z.F..X&XXXi.r. .{.|.o.{.{.E i.|.t.} C 6.q.l.@X*X>XQ.W.T.Q.Q.Q.Q.Q.E.E.E.#XE.#X8XrX3XQ.R.#Xm.E.L.E.P.e.w.@XH.l.E.cXHXu 7.;.2.<.*.c <.>X>XT.x.x.m.T.m.x.x.T.m.x.x.x.x.x.x.j.j.x.j.j.f.f.h.j.h.h.x.m.R.R.R.Q.R.R.E.Q.E.E.#XQ.Q.W.T.x.T.m.k.p.l.4.4.q.q.q.,.7.f.j.k.j.f.d.k.j.W.W.j.j.!.T.m.h.!.*.+ M c =.W.M.x.h.p.p.p.k.h.a.a.h.n.n.n.M.M.M.M.n.a.M.~.~.M.M.m.n.n.h.h.h.h.j.h.j.m.M.m.j.h.a.h.m.!.!.m.n.m.s.h.n.a.s.s.a.n.n.n.h.n.h.a.h.h.h.h.h.h.h.h.h.a.a.a.a.s.s.a.a.n.n.a.n.n.a.a.W.hXkXjX,Xv.,.V B Z c c M v p.>XbXW.W.W.Q.Q.Q.Q.Q.Q.W.Q.>X1X>XQ.>X1X>X>X>X>X>X>X1X1XW.W.Q.#X>X#X>X>X>X#X>X>X>X>X>X>XQ.#X>X1X1X1X1X>X1X1X>X#XQ.Q.Q.Q.Q.W.Q.>X>XQ.#X2X2X2X1X=X#X#XR.T.E.#X2X2X>XQ.#X1X#XQ.E.E.E.R.R.W.W.!.!.M.h.p.p.j.A + i P 5.9.9...I ..O.........F.P.%Xu.[ XX0XXXI.F. XI.t.J 3 : & ",
"- - - d K K K ] S ,.f.x.x.h.T.5X5X8X8X9X7X8X2X@XtXtX2X@X@X@X@X$X9XjX8X>X#Xm.v.x.m.M.m.m.m.M.M.m.m.j.h.m.T.T.m.m.n.n.T.W.W.T.m.T.T.T.T.T.T.T.T.m.j.j.j.j.T.T.T.T.7.f.T.R.j.d.7.L V B j h p d > * j u.u.q.q.q.l.q.q.f.f.f.q.q.q.q.q.9.9.e.q.e.9.u.u.u.q.6.5.6.6.5.5.] 5.6.q.z. X:XaXJ..X|. .i.{.F.t._ { _ 6.&X=X=X8X9X2X#XQ.Q.Q.^.W.W.W.Q.Q.R.R.R.E.R.E.=X3X*XE.E.R.m.E.l.l.l.5.u.H.%X@XE.BXm Z *.&.:.;.s.2.s.Q.W.R.x.x.m.T.x.x.m.m.x.j.j.j.j.j.j.x.x.m.x.j.j.j.j.k.k.h.x.m.m.R.Q.R.R.R.E.E.R.R.Q.#XQ.Q.T.h.j.x.j.j.x.7.4.6.6.q.5.f.x.x.j.j.f.p.d.h.T.T.j.j.T.m.x.M.W.;.x M M <.!.M.h.k.p.p.p.k.h.a.a.a.a.a.n.m.M.M.s.s.M.~.M.M.M.m.m.n.n.h.h.h.h.h.h.j.n.j.j.m.W.a.s.a.M.W.!.M.M.m.h.s.a.n.n.a.a.h.h.h.a.a.a.h.h.h.h.h.h.h.h.h.a.n.a.a.a.a.a.h.n.n.a.n.n.a.s.s.n.s.s.s.a.f.8.A c c x v @ <.6XvXQ.Q.Q.Q.Q.Q.Q.Q.W.Q.Q.1X1X>XQ.>X1X>X<X>X>X>X>X1X1XQ.Q.#X>X>X>X>X>X>X>X>X1X>X>X>X>XQ.Q.#X>X>X>X>X#X>X#X#XQ.Q.Q.Q.Q.Q.W.Q.>X>XQ.Q.1X1X#X#XE.R.R.R.R.#X*X2X1X#XQ.Q.>X#XQ.Q.Q.Q.W.W.W.W.!.W.#X!.h.h.j.7.a i V 5.9.9...I ............t.5.J.J.t.t.D.F.XXI.I.H. .H , 2 2 ",
"- - p j [ [ L L L A 7.v.p.=.p.4X2X8X8X5XjXvX9Xc.=X@Xz.l.L..X.X&X2X2X5X2X#Xk.8.x.x.m.m.m.M.!.!.M.x.x.m.T.T.m.x.x.m.m.m.!.W.T.T.T.T.T.T.T.m.x.m.m.j.j.j.j.j.j.j.x.f.d.j.j.d.7.1.A A V V h * * > * a 0.0.5.q.l.L.z.q.q.f.f.q.q.q.q.w.q.e.e.9.9.9.u.9.q.9.5.7.q.q.q.q.5.5.5.6.q.z..Xy.u.:X:XJ. X X9._ j r.&X:X$X=X9X2X,XQ.W.Q.Q.T.T.W.W.W.R.R.R.R.R.E.R.R.@X#XE.R.E.W.W.#XR.E.P.H.P.P.H.L.L.8X+ Z =.v z n &.*.<.Q.1XT.x.x.x.x.x.m.m.x.j.j.f.j.j.j.j.x.m.T.m.x.j.j.j.k.h.j.m.m.m.R.Q.R.R.E.Q.E.R.R.Q.E.T.R.x.d.7.f.x.g.x.8.6.q.5.5.5.7.g.j.k.f.f.d.f.k.x.m.j.j.h.h.h.M.M.;.c b M p.!.m.h.p.p.p.k.h.k.n.h.a.a.a.n.m.M.n.s.a.~.~.n.a.M.n.n.h.h.h.h.h.h.h.j.n.h.a.h.M.>Xm.h.s.h.M.W.W.M.m.h.a.n.n.a.a.n.h.h.h.a.a.a.a.h.a.a.h.a.h.h.h.h.n.n.h.h.h.h.n.n.n.a.a.n.n.a.s.s.N.a.h.m.f.=.Z m c x x + *.hX5XQ.Q.Q.Q.Q.Q.W.W.W.Q.Q.1X1X1XQ.>X1X>X>X>X>X>X>X1X1X>X>X>X1X1X1X>X>X1X1X1X1X1X>X>X>XQ.Q.#X>X>X>X#X#XQ.Q.Q.#X#X#X#XQ.1XQ.W.W.R.R.Q.2X2X2X#XE.R.E.#X2X1X1X1X>X#XQ.Q.Q.#XQ.Q.Q.W.W.W.W.R.T.W.>X#Xm.a.p.7.m y V 5.9.e.` H | | | ......O. .9.O.O.O.O.G.XXH.Y.e.5.I f ; 2 ",
"* p p j ] ] K L 4.,.4.7.7.7.p.h.W.!.!.,XjXjX2XL.L.l.9.9.u.u.z.&X=X2X2X2X#Xj.k.W.x.m.!.R.!.!.R.m.T.T.T.R.R.T.m.m.T.T.m.m.T.T.W.W.T.T.W.T.m.j.x.T.T.T.T.j.d.d.f.j.T.l.f.d.1.1.1.P A V C B t t * = P l.l.g.l.g.l.q.q.q.q.q.q.q.q.q.e.e.e.q.e.9.9.9.5.9.q.q.q.f.f.q.y.q.q.q.q.q.q.5.y.6.L 6.=X7XJ.9.] u.&X&X=X7X2X$XE.W.#X>X1X1XQ.!.W.W.R.R.R.R.R.R.R.L.R.E.R.K.R.E.W.R.v.x.#X%XK.H.%X0.l.L.9XA A *.n X . . . M T.>Xx.j.j.x.x.x.x.x.x.j.j.j.j.j.x.x.x.x.x.x.j.j.j.f.h.j.j.m.m.R.R.W.Q.Q.Q.E.R.R.E.#XR.x.K.x.3.1.3.d.d.d.0.q.l.q.5.5.7.f.f.d.f.f.f.j.k.j.j.j.j.k.p.h.h.a.*.M v M h.m.n.h.h.p.a.h.h.a.n.n.h.n.n.n.M.M.s.M.<XW.n.n.n.a.h.h.h.h.h.n.n.n.n.n.n.h.a.a.j.W.W.M.h.h.n.M.W.M.m.n.a.a.a.a.h.h.h.h.h.h.a.a.a.a.a.a.a.a.h.h.h.h.a.n.h.n.n.h.n.h.n.a.s.h.n.n.n.N.N.a.a.a.4.B Z 4.M c c @ &.nX1XR.Q.Q.Q.Q.Q.Q.Q.Q.#X>X1X1X1X>X1X1X>X>X>X>X>X>X1X1X>X>X1X1X1X>X>X>X1X1X1X1X1X>X>X>X>X>X>X1X>X>X>X>XQ.Q.#X#X>X#X#X#X>X#XQ.#XQ.Q.#X1X#X#XE.T.x.T.E.*X1X>X#XQ.Q.Q.Q.Q.Q.W.W.W.R.R.R.R.R.T.W.#XW.h.p.<.1.a y L 9.9.[ H G ` | ' ....O.D.{.O.~ | +.D.D.t.w.5.5.5.` f ; 1 ",
"p d d h C K C L L ,.7.p.h.x.p.,.a.s.s.m.>X5X#XL.l.l.y.i.z.i.z.XX7X8X5X#XW.x.j.x.j.m.R.R.M.M.m.m.T.T.m.T.W.Q.Q.R.T.m.m.x.m.T.T.m.T.T.T.T.x.j.x.x.j.x.T.x.j.h.j.j.d.q.d.d.7.4.7.,.A V S V p p p = ,.K.l.l.l.f.l.f.q.q.e.q.9.0.9.q.5.0.q.q.q.e.q.9.q.u.l.y.f.f.f.7.q.q.q.f.l.l.q.7.y.6.L y.c.4.L L.BXSXaX7X2X9X,Xm.>X>X>X#XQ.Q.Q.Q.Q.W.W.R.R.R.R.E.L.R.E.E.R.T.T.R.#X+Xx.T.*X@XH.e.@XH.L.L.8Xu ,.+ b n X . . b h.p.j.j.x.x.x.x.x.x.x.x.j.j.j.j.x.x.j.j.j.j.j.j.j.f.j.k.k.x.R.E.R.R.Q.Q.R.K.x.T.R.Q.E.K.K.K.f.3.0.7.d.d.d.q.g.q.] 5.d.x.x.f.f.f.d.f.k.j.x.m.m.k.p.h.a.p.&.M v &.a.a.a.h.n.a.h.h.h.s.a.h.n.n.M.M.M.M.a.~.<Xn.s.M.M.s.n.n.n.n.n.m.M.M.m.n.n.n.j.h.h.m.!.W.W.m.h.h.M.m.M.M.n.a.a.M.n.s.h.h.h.h.a.a.a.h.a.a.h.h.h.h.a.a.a.a.n.n.h.h.a.a.n.h.a.a.a.a.h.n.s.s.a.h.8.A A 4.M c M x <.xX#XR.Q.Q.Q.Q.Q.Q.Q.Q.#X#X1X1X1X1X#X#X>X>X>X1X>X>X>X1X1X>X>X#X>X>X1X1X1X1X1X1X1X>X>X>X>X>X>X>X>X>X>X>X#X>X>X1X>X>X>X>XQ.#X2X5X8X6X>XQ.@X@X@X@XE.E.#X*X>X#XQ.W.Q.Q.~.~.W.W.W.W.W.W.R.R.W.W.+XW.m.h.p.p.A u a L 5.9.[ H J | | H W W ..Z.Z.Z.Z.X.~ O.D.t.e.I 5.e.` d ; > ",
"p j j h V L L 4.L S 1.k.v.k.p.p.-.2.p.s.x.#X#Xl.6.q.9.y.i.i.{.&X7X8X2XE.T.x.j.j.j.m.R.R.M.R.T.M.R.T.x.x.T.R.R.x.x.x.T.T.R.R.m.j.x.T.T.T.T.x.j.j.j.j.m.m.j.j.j.j.d.0.q.q.1.,.4.7.,.A V B u h h a A f.0.7.0.0.z.L.e.e.e.q.q.q.q.q.f.g.g.e.q.e.q.q.q.q.q.6.0.f.f.f.f.q.0.0.f.l.v.f.,.f.$XE.B m E.2XE.#X#X7X8X#X#X>X>X#X#XW.T.x.T.E.Q.Q.W.R.R.R.E.E.L.R.E.E.R.R.T.R.m.#XW.+X@XL.K.l.P.w.K.E.#Xf.M z $.#.v @ . M k.7.f.j.x.m.m.m.x.x.j.x.x.j.j.j.j.x.x.j.j.f.j.j.f.f.a.7.7.j.R.W.R.T.R.R.K.x.x.K.R.R.K.g.K.R.T.T.T.j.x.x.l.5.5.e.] 5.d.v.j.f.f.f.d.f.h.x.m.m.m.h.p.p.s.s.&.$.v %.s.2.<.s.n.h.h.h.a.s.a.a.n.n.M.M.M.M.M.m.n.a.n.M.n.a.a.h.h.n.n.n.n.n.n.j.n.M.M.m.j.h.a.M.>XM.n.h.n.a.n.W.<XM.h.s.a.n.h.h.h.a.a.a.a.h.a.a.h.h.a.h.a.a.a.a.a.a.h.a.a.a.a.a.n.n.h.a.h.h.M.N.a.h.f.8.S S c c m c k.jX#XE.E.Q.Q.Q.Q.Q.Q.Q.#X#X#X#X#X*X#X#X>X>X>X1X>X>X1X>X1X>X#XQ.Q.>X1X1X>X>X>X>X>X>X>X>X#XQ.Q.#X#X#X>X>X>X>X>X>X>X>X>X>X#X#X>X1X1X1X>X#X@X@X#X#X#X#X1X2X#XQ.W.W.W.Q.Q.~.Q.Q.W.W.W.W.W.W.W.W.W.M.j.k.a.k.A u m L ] 5.[ _ H ..' J G J J T ) ].].+.( O.D.t.5.3.[ [ K - 2 1 ",
"h j h p V L L ,.1.,.1.7.p.7.p.x.<.s.p.p.f.v.l.l.5.9.6.6.i.z.|. X#X2X#XT.T.x.x.x.j.T.R.R.T.T.W.W.R.T.K.v.j.v.j.f.x.K.K.K.T.E.T.x.x.x.x.K.T.T.x.x.x.m.T.x.j.j.h.h.l.f.f.q.4.,.4.4.,.A V B B A S m 1.j.7.1.,.L ,.,.5.5.5.5.5.5.5.q.q.l.l.g.q.w.q.q.5.q.6.7.7.f.k.f.f.f.q.7.0.f.v.j.x.K.d.A m T.VXR.8XPXGX9X>X>X,XW.W.#X#X>XQ.Q.E.E.Q.Q.T.T.T.R.R.E.R.E.E.E.R.R.R.R.p.T.x.l.K.g.H.l.P.0.7.E.x.8Xx *.$.#.v v @ M h.h.k.j.x.x.x.m.m.x.x.x.x.x.x.j.j.x.T.x.j.f.f.f.f.f.k.p.p.j.m.R.T.T.m.m.x.x.K.R.T.K.f.g.K.R.E.*X*XK.K.K.K.P L e.[ 5.f.x.x.j.j.j.j.x.j.T.m.x.T.j.k.p.s.s.&.v v $.;.-.$.2.N.N.a.a.a.s.a.a.a.n.M.M.M.M.M.a.s.a.n.n.a.a.a.a.a.a.h.h.h.h.n.h.h.n.m.j.h.h.p.M.!.m.n.M.M.h.s.M.<X<XM.s.a.M.h.h.h.a.a.a.a.a.a.h.h.h.a.a.a.a.a.a.a.a.a.a.a.a.a.a.h.h.h.h.h.n.a.s.8.7.s.8.8.,.u c x c x.1X#X@XR.R.Q.Q.Q.Q.R.R.Q.Q.Q.Q.#X#X#X#X#X#X#X1X>X>X>X>X1X>X>X>X>X>X>X>X>X>X>X>X>X>X>X#XQ.Q.Q.Q.Q.#X#X#X>X>X>X>X>X>X>X>X1X>XW.R.R.W.Q.Q.g.g.g.g.x.K.R.Q.#XQ.Q.W.W.W.W.Q.Q.Q.W.W.W.W.W.W.R.R.m.x.v.k.p.7.A u m L 5.9.[ H ` | W G J T G 4 ) '.C.Z.{.D.....e.[ I K f - ; ; ",
"a h p t C ,.,.,.,.<.7.7.p.f.p.7.7.1.7.f.7.L ,.q.z.J.u.9.u.J.J.J.@X#X#XR.T.x.j.T.j.m.T.m.j.m.m.m.x.T.R.K.x.x.x.x.K.x.g.d.g.K.T.K.l.x.x.T.R.R.T.x.m.m.m.x.x.x.j.x.d.q.z.E.l.7.,.A S V V A A ,.S c ,.k.7.7.7.,.,.A L L L C V V V S A 1.q.f.g.l.g.q.q.g.l.y.f.f.f.7.f.d.d.0.d.g.x.x.f.m.,.=.k.j.T.h.W.6XQ.6XkX>X>X>X>XW.!.R.R.R.E.R.W.W.T.T.T.T.R.R.E.E.R.R.R.R.W.R.m.#Xv.l.R.K.L.w.P.K.,.l.#Xf.*.b $.#.%.;.*.*.h.k.k.j.x.j.j.x.x.x.x.T.T.T.m.x.x.x.R.x.f.d.d.d.d.d.j.h.j.m.m.m.x.x.x.m.x.K.R.Q.R.g.g.H.K.K.K.R.T.f.g.K.K.P 1.l.5.5.L.#XQ.T.T.m.x.x.j.T.m.j.m.m.k.p.s.s.$.z n #.:.:.z -.a.N.a.a.a.a.n.a.a.a.n.M.M.M.n.n.M.n.a.s.a.a.h.h.h.h.h.h.h.h.j.h.h.h.h.a.a.h.m.M.m.h.n.W.~.M.n.<.s.<XkX~.n.n.h.h.a.a.a.a.a.a.h.h.h.h.a.a.a.a.a.a.a.a.a.a.a.a.n.h.a.s.s.a.a.a.s.a.h.f.s.8.4.S u m y x x.R.#XE.x.T.R.Q.Q.Q.Q.R.Q.Q.Q.Q.#X#X1X1X#X#X#X1X>X>X>X>X1X1X1X1X1X>XQ.Q.#X#X>X>X>X>X>X#XQ.Q.Q.Q.Q.#X#X>X>X#X#X#X#X>X>X>XQ.#X>X1X1X#XT.j.q.5.4.5.q.j.T.W.Q.Q.Q.Q.W.W.W.W.W.W.W.W.W.W.R.E.+XW.W.m.m.j.p.,.m y a L 0.9.[ f W ' G G ~ | W 4 0 ) +.].{...J ..e.` J s - > 1 1 ",
"V j h h S 4.7.<.1.<.7.7.f.f.p.7.f.q.5.] L L 4.5.] q.y.q.y.z.L.+X2X#XW.T.T.T.T.m.T.m.m.m.m.m.T.T.m.T.R.T.x.x.v.v.x.x.l.l.K.K.l.l.R.f.x.R.j.f.K.x.x.m.m.m.m.m.m.x.c.z.z.l.y.6.L S L ,.S m c m c y ,.<.p.7.1.L L L ] ] L L L L L S N P ,.5.q.l.l.l.l.l.v.l.f.7.7.f.7.x.g.l.d.d.R.d.,.+ @ 1.h.p.1.p.x.2XQ.1X6X5X!.<X>X>XW.W.R.T.T.T.Q.R.T.R.R.R.K.R.R.R.R.R.W.T.m.1XT.R.x.j.R.L.l.w.g.P.q.q.E.R.p.c $.;.n $.x + h.k.x.k.x.m.x.T.x.m.x.x.x.x.x.x.x.x.T.m.x.f.d.d.d.k.p.h.m.m.m.R.R.R.x.x.T.R.R.T.K.K.K.K.K.E.K.g.f.K.K.l.K.5.L w.w.e.L.T.T.R.T.x.x.x.x.m.m.m.T.T.j.p.s.a.$.n @ :.$.&.b -.2.a.M.a.2.s.s.s.a.n.M.M.M.M.M.M.n.h.a.h.n.n.a.a.h.h.h.h.h.a.s.s.p.h.j.j.j.h.a.h.h.h.a.h.M.~.n.n.s.a.<X<Xn.n.a.a.a.a.a.a.a.h.a.a.a.h.h.h.h.h.h.h.a.a.a.a.a.a.a.a.a.h.h.h.a.a.h.a.s.f.0.6.4.,.u u x m =.q.x.l.R.Q.#XQ.R.Q.Q.T.*X*X#X#XQ.#X1X1X1X#X#X#X#X2X2X1X1X1X1X1X>X>XQ.Q.#X#X#X#X#XQ.Q.Q.Q.Q.Q.#X>X>X#XQ.#X#X>X1X1X1X1X>XQ.Q.#X>X#XR.j.7.q.5.5.q.f.j.x.T.Q.~.>X>XQ.Q.Q.Q.Q.W.W.#XQ.R.R.@XE.E.E.8.p.,.<.A N u y V 5.5.` H J W W T | Z.Z.Z.( ( ( X.' J H ` I J f f , 1 ; 1 ",
"h a a a A 1.1.,.<.<.<.1.7.7.7.4.] [ [ [ 6.6.6.6.5.l.z.l.l.L.@X2X2X*XQ.R.R.T.x.x.m.m.m.m.m.T.T.T.T.T.T.K.x.j.j.l.x.x.K.R.E.E.L.l.l.T.d.f.#XQ.f.T.m.x.x.T.T.T.m.m.v.y.y.l.l.5.,.S 1.1.,.A M M M c A ,.<.1.,.,.L L L L C V V V V A L 1.5.7.q.l.z.L.q.7.7.f.v.k.k.f.x.g.1.0.0.1.1.m A m h.>Xp.N ,.d.Q.5X2XT.5X>X4XQ.>X#XW.W.R.T.T.T.T.T.T.R.R.T.K.K.K.T.R.T.Q.Q.!.W.T.R.m.v.R.L.g.0.l.K.0.x.#Xm.<.c v #.@ n @ x p.k.R.j.T.T.x.T.x.x.x.x.j.j.j.x.m.T.T.m.x.f.d.7.7.p.h.x.m.M.m.m.R.R.m.T.R.R.R.T.K.K.g.g.K.P.K.g.j.T.g.f.x.0.1.w.g.q.R.T.T.T.T.x.x.x.x.m.T.m.m.m.m.n.s.a.$.n z &.$.:.b ;.s.s.n.n.N.a.s.a.a.n.m.M.M.m.n.n.a.s.s.a.a.h.h.h.h.a.a.a.h.h.a.a.a.h.h.j.h.a.a.h.h.h.a.a.n.M.W.M.s.2.n.M.h.a.h.h.a.h.h.h.h.h.a.a.a.h.h.h.h.h.h.h.a.a.a.a.a.a.a.a.a.h.h.a.a.a.h.a.p.0.8.6.4.S y u m Z ,.7.y.l.R.Q.Q.Q.Q.Q.R.T.Q.Q.#X#X#X1X1X1X#X#X*X*X*X#X>X>X>X>X>X#XQ.Q.Q.Q.>X>X>X>X#X#XQ.Q.#X#XQ.#X>X>X>XQ.Q.#X#X>X>X>X#X#X>X#XQ.W.W.T.j.k.5.,.L 5.d.f.h.h.m.m.W.Q.Q.R.R.W.Q.W.W.Q.Q.E.E.@Xc.c.x.7.8.,.<.=.Z y y P 9.[ H f J G G G T X.+.| ( Q Q ' ` ` ` | H , - , 3 3 3 3 ",
"s a a B L 7.7.<.7.<.<.<.7.7.7.5.] ` [ { 6.9.9.9.5.q.f.q.q.7.f.+XK.K.T.T.T.T.T.x.m.T.T.T.T.T.T.T.T.T.T.m.x.j.j.j.g.g.l.l.l.z.l.g.l.f.f.f.x.E.E.x.x.j.j.j.x.m.x.v.v.y.y.z.x.f.4.S ,.4.,.A M b b b M =.<.1.,.L L L ] L L S V S L ,.4.7.7.1.1.5.q.l.7.1.,.7.f.f.7.<.1.5.1.5.L N 1.f.,.N x.1X1.*.h.f.rX7XSXE.#X2X#X>X#X#XW.W.R.R.T.T.R.T.T.R.R.T.K.T.x.E.Q.T.m.T.Q.Q.m.M.m.v.R.L.f.0.L.H.0.R.*Xj.*.x n X X X @ M <.h.#Xx.T.T.x.T.x.x.x.j.j.f.j.j.x.T.x.x.x.x.x.j.x.x.m.M.R.R.m.m.T.T.R.R.R.R.R.R.K.K.K.Y.K.K.K.g.g.K.g.d.j.7.,.g.l.l.R.K.x.m.x.x.x.m.x.m.T.m.m.T.!.!.s.s.$.z @ $.$.&.$.-.2.s.s.n.M.a.h.h.h.n.M.M.M.M.n.n.a.s.s.a.a.h.h.a.a.a.a.n.m.M.h.h.h.h.h.h.h.a.a.a.h.h.h.a.a.h.~.M.s.<.s.h.M.n.h.h.a.a.h.h.a.a.a.h.a.a.h.h.h.h.a.n.h.h.h.h.a.h.a.a.a.a.k.a.a.a.h.h.f.0.q.q.] B i i c Z =.,.6.l.R.R.E.Q.E.R.R.R.R.E.#X#X#X#X#X#XR.E.#X*X1X*X*X1X#X#X#XQ.Q.>X>X>X>X>X>X>X>X#X#X#X>X#X#X#X>X>X>X>X>X>X#X#X#X#X#X#X>XW.T.m.x.j.j.f.1.L L ,.7.7.1.1.p.k.j.W.Q.R.T.R.R.T.x.x.K.L.L.L.E.L.f.8.,.8.<.=.V i s ] q.` f , G J G 3 G W W T ~ E G H _ ` ` W J , 1 3 Q ~ Q T ",
"a B V A ,.<.<.<.<.<.<.<.7.7.7.5.9.{ { { { 6.6.6.q.q.f.f.f.q.f.E.d.f.j.x.T.T.T.T.m.T.T.T.T.T.m.m.T.T.T.T.T.x.x.v.T.x.x.l.l.z.l.l.l.q.v.f.,.f.E.x.j.f.k.f.h.x.h.f.x.l.f.l.l.q.4.A A =.,.*.M c v b Z =.8.,.,.L S C L ] 4.4.,.4.8.q.,.1.,.P P I 4.5.q.5.6.q.f.q.7.1.,.P V L q.g.g.g.P P g.K.d.g.R.j.f.%X7XrXL.*X#X2X#X#XW.W.R.T.T.T.R.T.T.T.T.K.K.R.T.E.Q.W.T.T.~.W.h.m.x.v.K.K.f.0.K.H.q.K.R.p.=.M n X @ . x *.<.R.1Xx.T.m.x.R.x.x.j.j.f.k.f.j.x.T.x.m.T.T.R.R.R.R.R.R.R.R.m.m.T.R.W.W.E.E.R.R.T.K.P.K.K.K.K.g.k.j.x.j.j.7.,.f.x.K.K.x.x.m.m.x.x.x.x.m.m.x.m.T.W.!.a.s.$.z @ b b *.$.M -.<.<.a.m.a.n.n.n.n.M.M.M.M.n.n.n.a.a.a.a.a.s.s.s.s.a.h.n.M.h.h.h.h.h.h.h.a.a.a.h.h.h.h.a.a.M.M.n.s.s.n.M.n.a.a.a.a.a.a.a.s.h.h.a.a.a.a.h.h.n.n.h.h.h.h.h.h.a.h.f.h.f.k.k.a.a.f.q.6.6.y.] h i i u Z A A 4.l.E.R.R.R.R.K.T.R.R.E.#X#XQ.E.E.E.#X@X#X*X1X#X#X#X#X#X#X#X>X>X>X1XQ.Q.#X#X#X>X>X>X>X>X#X#X#X>X>X>X>X>X#XQ.Q.Q.Q.Q.R.m.j.k.k.k.d.d.7.4.4.1.1.,.,.,.1.p.j.W.#XE.R.E.E.@XE.L.L.L.L. X@XL.6.7.,.p.<.=.V i p ] 9.` f f J G G G 3 G J G W G f f J K H J 3 , : 3 Q Q G , ",
"B B V A ,.1.<.=.<.<.<.<.1.1.,.L 6. .9.9.9.6.6.5.5.5.5.q.c.z.l.E.x.x.x.K.T.x.x.K.T.T.T.T.m.m.j.j.j.m.T.T.R.T.x.v.K.K.x.l.l.l.g.g.6.L.f.,.q.f.f.R.v.v.j.j.x.x.x.j.v.f.0.6.6.6.L V B A *.*.b x v b M =.<.,.S S S C V S 4.4.4.7.p.f.L P P V P 5.5.] L L ,.4.4.4.8.4.m 0.g.e.q.e.1.5.y g.@XL.l.K.l.g.5.%XH.aX=Xl.2XE.#X#X#XW.W.R.T.T.T.T.x.j.j.g.j.K.R.K.j.Q.Q.!.~.m.m.R.m.v.K.x.f.w.l.K.g.g.f.p.h.<.n X v z v *.,.>X1Xx.T.x.x.R.m.x.x.j.j.f.j.j.m.T.T.T.R.R.T.m.m.m.R.R.R.M.m.m.R.R.Q.Q.Q.E.E.R.R.T.K.K.K.K.K.j.j.m.T.j.m.p.1.f.f.v.v.v.x.T.T.x.j.x.j.j.j.m.T.W.T.x.h.p.*.z x c M *.-.c M <.-.<.h.h.n.a.a.h.n.M.n.n.a.h.n.h.h.a.a.a.a.a.a.s.s.s.p.p.a.a.h.h.a.a.h.h.h.a.a.a.h.h.h.h.M.M.m.a.s.a.M.h.a.a.h.h.a.a.a.h.h.h.h.a.a.a.a.h.h.h.h.h.h.h.h.h.h.h.h.h.h.h.f.k.0.f.0.6.9.y.] h u i c A A A 4.x.E.E.R.R.R.T.R.E.Q.Q.Q.Q.E.E.Q.#X2X#XE.@X#X#XQ.E.Q.#X>X>X>X>X>X>XQ.Q.Q.Q.Q.Q.Q.#X>X>X#X#X#X>X>X#X#XQ.Q.W.R.R.T.T.j.h.k.p.p.p.p.7.7.0.d.7.<.,.<.<.k.h.m.Q.#X@X@XE.L.@X@XH.u.l.J.J.z.l.L 4.,.k.<.,.V t t P [ H f , J G G G G G G G G g g k H H J G 3 : : : , > - * ",
"a m V A ,.7.p.p.<.1.p.7.7.,.L L L [ 9.y.y.q.9.5.K L L 5.u.y.9.q.x.x.x.x.j.j.x.x.T.T.m.m.m.j.j.j.h.j.j.m.T.T.x.j.f.j.x.x.l.d.0.7.f.y.q.q.l.l.l.f.f.f.j.j.j.j.h.j.v.f.0.8.8.6.4.S B Z A *.Z b b b Z =.1.1.,.L ] ] V C ,.4.7.8.p.d.,.L K V P I L V L L 5.4.,.,.1.4.0.5.V s w.P.P t V L.P.e.w.w.e.w. Xt. X X:X@XL.@X$X#X#X#XQ.W.R.T.W.T.T.x.j.g.j.T.g.j.j.T.k.<.W.~.!.W.R.x.K.l.f.g.K.E.K.f.7.p.m.s.n n $.v $.M =.4X#Xx.T.T.x.R.m.T.T.T.m.x.x.m.T.T.T.T.R.T.T.T.T.T.R.R.R.R.R.R.R.Q.Q.Q.Q.E.E.R.R.R.R.K.K.K.T.x.m.T.x.j.m.j.p.f.7.7.g.g.x.T.T.x.j.j.m.x.x.m.W.W.m.p.h.s.;.x M M *.-.<.M v *.=.<.2.h.a.a.a.h.n.n.n.n.a.h.n.n.n.n.n.n.a.a.a.a.a.a.s.p.p.a.h.h.a.a.h.h.h.a.a.a.h.h.h.h.M.W.M.h.s.s.M.~.s.a.a.a.a.a.a.h.h.h.h.a.a.a.a.h.h.h.h.h.h.h.a.h.a.h.h.h.h.h.f.f.0.0.6.6.6.6._ h i i m A A A ,.p.T.R.E.R.R.E.Q.Q.Q.Q.Q.E.Q.#X*X2X=XE.K.E.#X#X#X#X#X#X1X2X6X1X>X>X>X#XQ.W.W.W.W.W.>X#X#XQ.#X#XQ.Q.#XQ.Q.W.R.T.m.x.k.k.k.k.d.d.p.p.7.f.g.d.1.1.2.s.h.m.T.R.E.@X@XL.l.L.L.u.9.9.u.u.9.5.S ,.7.j.p.8.V p = f H f - ; G G G G 3 3 3 G g g H k H _ Q Q T q 4 1 2 * p a ",
"a a m B =.<.p.p.<.7.p.p.7.4.,.L L L 5.5.6.6.6.6.] 6.5.5.9.9.[ [ 5.0.d.f.j.j.x.T.m.m.m.j.m.m.m.m.j.j.j.j.m.m.x.j.x.x.K.K.x.l.g.f.l.5.f.L.f.l.x.8.f.f.j.f.k.p.h.h.v.v.f.0.8.6.,.S Z Z Z *.&.b v b *.,.8.,.L L ] ] C L ,.4.7.p.p.p.1.I P P K P V j 9.q.y.f.0.4.7.4.K P L j ] e.K 5.q.u.e.[ e.w.w.u.G.J F... X-Xq.=X#X#X#X#X#XQ.Q.Q.Q.Q.Q.W.T.x.K.R.j.T.j.T.<.N ~.~.m.W.!.m.K.x.g.g.E.E.K.f.1.p.m.p.n #.#.b $.c *.>X#Xm.R.R.m.R.T.R.R.R.R.R.T.T.T.T.m.T.T.R.R.R.Q.Q.W.W.W.W.W.W.Q.#XQ.Q.E.E.E.E.E.E.Q.R.R.T.m.m.m.m.M.h.m.j.a.j.p.7.g.f.j.m.m.x.j.x.T.T.T.T.W.T.h.7.p.<.;.b *.M *.<.<.*.v N *.,.<.p.s.s.a.a.a.a.n.n.n.n.h.h.h.h.h.h.a.a.a.h.h.h.h.h.p.a.a.h.a.a.k.h.h.h.h.h.h.h.h.h.n.W.M.a.2.-.a.lXM.n.h.a.h.h.a.a.n.h.h.a.a.a.a.h.n.n.N.N.a.a.a.a.a.a.f.f.f.f.a.f.8.6.6.6.{ ] C h i u Z =.=.=.=.,.f.K.R.T.R.#X#XR.E.E.E.E.Q.#X1X2XL.l.g.L.#X#X#X2X>X1X1X1X1X1X>X>X#XQ.W.W.W.W.W.W.>X#XQ.Q.Q.Q.Q.Q.Q.W.W.R.m.x.j.h.7.p.k.k.k.k.k.f.d.f.h.k.p.k.h.k.h.m.m.f.l.E.L.u.l.J.J.q.9.u.z.y.[ ] L L p.p.p.8.V a p p f f - ; , , 3 3 3 4 3 G , g g g H Q | ~ R R 9 1 - p m m ",
"m B m c c N M $.-.<.<.7.4.4.] 5.4.L L S S L 4.5.V [ 5.] [ { ` _ L 1.0.d.g.g.x.x.x.x.j.j.m.m.m.m.m.n.j.j.j.m.m.x.x.j.g.d.d.f.g.l.q.l.v.f.v.7.,.f.k.v.v.j.k.p.k.j.v.x.v.p.7.1.A m A Z Z *.*.M x c A ,.,.S V C C C L L S L 1.7.7.7.L L L P P P I L L ,.4.4.,.L A V B P q.5.e.[ t L J.e.w.J.Y.e.u.u.F.uXG.XX Xl.L.L.E.+X#X#X#X#X#X#XQ.Q.Q.Q.R.x.x.T.R.Q.m.Q.T.m.<X<.h.m.M.x.T.x.g.l.K.l.d.f.p.h.R.p.v $.v v M @ M W.#XT.Q.R.T.R.T.E.R.T.R.R.R.m.m.x.R.R.W.R.R.R.R.W.W.#X#X#X#X#X#X#XR.E.E.E.Q.Q.Q.Q.E.E.T.x.m.m.m.m.W.j.h.f.p.v.f.f.j.g.j.x.x.x.j.x.T.W.W.R.T.m.h.7.2.;.-.v -.M =.<.=.,.M x M =.*.<.-.2.2.s.s.s.a.n.n.a.s.s.2.2.2.2.a.a.a.a.h.h.a.a.a.h.h.a.a.s.a.h.a.h.h.h.a.a.a.a.a.M.M.s.-.z %.<XhX>XM.M.M.M.n.s.n.h.a.a.a.a.a.h.h.n.a.a.a.a.a.a.p.p.p.p.p.p.p.0.q.6.6.6.{ K j a t B ,.4.8.4.4.S ,.j.T.x.K.#X@XK.R.R.E.E.E.Q.#X#XL.l.l.R.E.R.R.#X#XQ.Q.Q.Q.W.W.W.W.R.R.W.W.Q.#X>XQ.Q.Q.Q.~.Q.Q.W.m.m.m.j.h.k.7.1.1.7.d.k.f.h.h.j.j.j.k.d.k.h.k.p.k.x.v.5.5.l.J. .9.9. ._ [ r.r.` { K ] S 8.,.<.Z V d p - f f , ; ; 1 , 3 4 : 4 3 < g f , g ! | ^ T R T < > p s i ",
"u u m m c x v $.%.*.<.8.6.5.[ ] L L L ,.,.1.8.8.7.8.6.6.5.] K K ] [ 5.5.0.q.g.l.v.v.j.j.j.m.m.m.j.x.m.m.m.x.j.j.j.x.j.x.j.j.j.j.j.v.x.x.x.j.p.7.p.f.x.v.f.7.q.f.f.v.v.p.4.A Z Z N A A A A m c m A A C K C C C V V S 4.7.7.4.8.6.5.L L L V ] 6.L V m m A Z a a L 5.5.5.I V j I u.%Xu.e.H.H.w.e.Y.|..X|.J.L.@X@XL.#X#XE.2XE.>XE.@X*X#XQ.E.R.T.T.T.T.T.j.T.k.n.d.d.Q.m.j.R.E.x.d.g.K.x.f.1.,.h.!.h.M x x M *.x c W.Q.W.R.R.T.T.R.E.R.R.E.W.E.!.!.R.T.R.!.!.W.W.W.E.W.#X#XE.@X#XE.L.#X#X#XQ.R.W.Q.#XK.L.R.R.R.T.R.W.x.j.v.4.4.x.v.v.f.j.x.x.x.x.x.m.R.!.R.m.j.j.p.<.;.2.;.b v *.<.<.*.=.=.M c M =.2.;.-.-.2.s.2.s.a.a.h.a.a.s.2.s.s.s.a.n.n.n.n.N.a.a.a.n.a.a.a.a.a.a.N.N.a.a.a.a.a.a.M.~.2.n n #.2.<XhXhX~.M.<X<X<X<X>XM.h.s.s.a.h.a.a.h.h.f.p.f.b.q.6.6.8.8.8.8.q.6.u.6._ { _ t h t h C 5.y.6.] h A 1.j.K.l.q.u.J.J. X@XL.l.R.>X2X2X*X*X2X*XQ.T.T.Q.Q.Q.T.f.3.d.x.E.E.R.R.Q.1X1X1XQ.W.!.W.Q.Q.!.m.j.j.j.k.d.p.3.1.d.d.d.k.d.d.k.d.h.k.k.d.d.d.p.7.4.6.5.K { i.t.` _ ` ` ` ` ` { { H _ ] S A Z Z Z p f - * > , , 3 1 2 < Y T T 1 < 1 G , ; 1 1 < X.R R 3 ; 2 - - = ",
"B A A m b $.%.%.%.*.=.=.S C C C L L ,.1.1.8.8.8.8.7.8.6.5.[ [ ] _ ` [ [ [ 5.0.q.l.j.x.m.M.m.n.h.x.x.m.T.T.m.T.T.m.T.m.m.T.x.K.m.j.h.h.h.x.h.j.k.m.f.7.7.l.l.q.,.p.p.0.4.A Z N Z Z =.A A A m u m A V V V j j V C ,.,.1.1.,.,.L L 6.L K C K ] 5.L A N N Z A S V V h h V K K K 9.J.H.w.w.F.H.w.w.J. X.XJ.u.u.L.@X@X+X+X#X9X#X#X#X#X#X#X#X#X#XQ.R.R.Q.#XT.Q.m.T.h.j.j.m.m.x.K.T.l.q.E.f.7.7.k.T.m.s.c m N c M y x x.Q.W.Q.Q.Q.Q.E.@XT.L.T.T.R.R.R.T.W.W.W.W.W.W.E.E.#X@XE.@X@XE.L.l.2X2X#XW.W.!.T.T.E.E.E.W.W.!.T.R.E.R.T.q.q.c.c.m.R.m.j.k.h.x.!.>XR.T.R.!.m.p.<.;.%.-.-.b M =.<.<.<.<.,.N c b Z *.2.2.2.s.s.2.2.s.s.s.s.;.-.-.B.s.N.N.n.n.n.M.M.M.n.n.N.a.s.s.a.a.s.a.N.N.N.N.M.M.M.M.M.s.#.v n #.:.s.N.N.N.M.M.M.<X<X~.M.m.h.h.h.x.v.p.8.4.6.6.6.6.{ 6.6.q.6.6.6.6.r._ k { _ t d t C 6.6.] K C C A <.7.f.l.u.l.J.F.J.J.L.#X2X1XR.E.R.E.#X#X#X>X1X1XQ.W.j.7.1.0.x.g.K.#X2XQ.h.k.j.m.m.m.n.m.m.j.h.j.d.d.3.3.3.3.p.d.d.k.k.k.d.k.k.k.p.p.p.d.0.0.0.L [ [ _ ' o.| E G H _ | | ' ` ` k k C C V B B B C H f > G E T ~ T : 3 9 T T : < Y ! G 3 T Y 1 1 Y Q T , 2 ; f G ",
"] 6.,.m c &.-.$.%.&.*.A A V D C 4.4.4.7.7.7.8.7.,.4.8.6.6.5.[ [ [ [ ] [ [ 5.5.7.f.f.k.h.h.n.h.p.h.h.j.h.j.j.j.x.x.j.j.j.j.j.j.j.h.h.j.h.j.m.m.x.m.v.k.f.f.f.f.8.p.8.<.*.Z M N Z N A Z Z Z m u B m B V C V V V V ,.,.,.,.<.,.,.,.5.5.K j ] [ ] L S L S V V K K j V p t f [ 9.J. Xi.u.u.u.F.u.w.u.@X&X.Xu.y.L.#X=XE.#X#X#Xf.#X2X#X*X*X#X#XE.R.K.x.T.R.T.#XR.Q.R.W.m.m.x.l.x.L.z.q.l.5.,.7.h.j.p.*.x m N c N N N j.1X2X1X#XQ.R.T.K.E.E.E.R.R.R.R.W.R.R.R.R.E.E.E.E.#XR.m.+X#X+XE.#X2X2X#XW.W.W.W.R.W.#X#X~.W.W.W.W.R.T.T.q.0.c.m.W.x.m.M.R.R.M.m.n.W.!.W.~.m.<.*.<.*.;.=.N N =.1.,.,.,.,.*.M M M M %.%.-.<.2.-.-.;.;.;.;.:.:.:.>.>.>.:.%.%.&.-.;.s.s.s.s.s.s.a.N.N.M.M.M.M.M.M.~.>Xa.a.a.>.#.#.n n #.:.>.;.;.B.2.;.;.p.s.s.p.p.a.f.q.y.r.r.r.i.r.} { { { 6.6.6.8.6.6.{ k h _ k * * d ] 9.[ C C _ ] 1.,.,.7.q.q.y.u.y.q.q.c.#X2X#Xv.g.l.x.K.R.E.*X5XR.R.T.T.T.R.#X3X2X2XrX8X#Xj.j.W.T.m.j.h.k.p.3.1.k.p.2.1.1.1.d.k.k.j.j.k.1.,.,.,.<.<.<.<.1.1.7.4.L L ] _ ` ` W E G J Q | | | W E g k k C D D B h k H G H | ' Y G 3 1 < 9 T T < < ! W G G Q Q 3 < T ~ Q G > f W ' ",
"5.6.4.A M &.-.-.-.-.*.*.A B V A A A =.A =.S S S S L 5.6.6.5.] L ] [ 5.5.5.6.6.q.v.x.m.m.m.m.M.M.j.j.x.j.h.j.j.j.m.m.m.j.j.x.m.m.m.n.h.h.x.m.m.m.x.R.E.x.f.8.f.v.p.8.=.Z Z Z Z Z M M N m Z m m A m Z A V V V V A =.,.<.<.<.<.8.4.5.6.K k [ { K K L 4.4.L V j k k j p = K i.|.J.i.t.t.9.t.H.J.u.5.l.L.z.l.q.l.L.@XE.R.$X9X#X>X>XR.#X@X@XE.E.#X#X#XE.+XE.E.T.T.T.R.*Xx.d.l.L.l.q.u.e.5.0.f.k.d.1.*.x y c m ,.<.=.f.v.T.E.Q.Q.#X#X#X#XE.E.E.E.E.E.R.T.R.E.E.E.@XE.E.#Xm.x.R.R.m.!.>XM.m.h.j.j.j.j.f.x.m.M.M.!.!.W.~.!.W.#Xl.f.W.W.#XW.M.m.m.M.R.!.!.W.M.M.M.n.<.-.<.=.,.,.A A L ,.A P ,.,.,.,.*.M x v v v M M M b #.b $.:.:.:.:.:.:.>.-.-.:.:.:.:.>.#.:.:.>.>.2.a.N.2.2.>.>.>.>.:.:.:.#.:.#.#.:.v n X n #.#.:.;.s.s.;.;.=.*.M M *.,.] o.t.O.i.{.i.o.' } _ _ ] ] 4.5.] _ k k _ k * * h _ ] C C ] 6.] 7.<.,.,.,.,.L L q.q.f.v.x.x.x.v.$X=X@XL.l.f.g.x.#X#XQ.#XQ.R.R.E.=XE.K.K.g.d.d.j.2.p.d.d.d.d.d.d.<.<.1.p.p.1.1.<.,.<.<.<.,.,.1.1.*.*.*.=.,.1.,.L ,.L C k k H E ' W ! ! Q W ! E E g k k k C D D h K ` ` {  .' G < Y 3 Q ~ ( ~ G Y < G G Y Y Y Y T Q Q ! Y E '  .| ",
"K C D A Z M *.2.-.-.-.*.A Z m B *.*.*.A A A V V C C K L L S L L L ] 5.6.7.7.0.p.j.m.M.M.n.n.M.M.n.j.n.j.h.h.j.n.M.m.m.m.m.m.M.M.M.M.M.M.M.m.m.j.M.x.v.f.f.f.p.p.8.=.Z Z Z Z Z M M Z Z Z A B B S ,.=.A m a a A ,.,.<.2.2.<.,.=.S L 6.] K  .{ K K L L 4.5.] k d d = p H t.|.|.t.` |  . .9.u.u.e.1.L 4.4.4.L 4.6.q.=Xq.f.#X#Xm.W.6X#X=X$XR.R.E.E.R.@X+X@X+X+X+X#X$X*Xl.q.L.@XJ.q.5.5.5.0.7.1.7.<.M x i m A ,.A m <.p.x.R.R.Q.#X#X#XQ.Q.Q.Q.Q.E.E.R.E.E.#X*X*X@XE.E.E.m.T.W.m.p.k.m.h.h.k.p.<.,.,.,.p.s.a.a.a.N.n.n.!.W.+Xv.f.m.m.R.W.R.T.R.W.W.W.!.h.h.s.2.<.-.-.&.m B V V L P P L 1.L ,.,.,.*.M M &.M c c x x z z x b #.%.:.:.$.$.#.#.#.#.#.v n n #.#.#.#.#.#.#.#.#.#.#.#.:.#.#.#.#.#.#.n n #.#.#.@ n n n #.#.:.;.-.:.Z c z c B A ] } } E E ' o.o.' ` E k k C C D k k k _ _ h t d C ] ] C C 5.6.L ,.1.,.,.A A Z Z 7.7.0.0.7.7.f.f.q.y.l.l.l.R.$X2X#X#X#X+XR.x.v.v.l.l.f.0.d.j.j.d.d.d.d.d.3.1.3.1.,.<.1.1.1.<.,.=.,.=.,.,.<.<.1.<.=.=.=.=.=.,.=.S S V B V j k K ' W W W W E H g k f f j k h h h h H _ H f g < < Y Q T X.X.Q Y : 3 < G ! Q T G 3 < G Y W ! ' | ' W ",
"g d p h u i c =.x v v M M Z A =.-.-.=.*.A V C C j j h a a B S ,.L L ,.,.4.4.8.7.7.a.n.n.a.s.s.a.h.a.h.a.a.h.n.n.m.n.n.n.m.m.m.M.W.W.W.!.!.M.M.j.h.a.p.7.8.8.8.,.*.Z Z Z Z Z M M M Z Z m B a u m A A A A V B B m A =.<.<.<.=.A Z C ] [ [ [ ` K K L C L 5.9.` f - j [ u.F.G.O.| ' ' o.t.6.K B B V m B V m m B L ] l.f.q.8.M.W.<X4X#X#X#X+X+X$X$XE.2X$X$X@X$X@X=X@XL.K.z.J.@X Xu.K 5.5.5.4.7.k.1.x y i ,.7.=.m m 7.x.W.#XW.T.R.T.m.Q.Q.*X*X#X#XQ.Q.Q.E.Q.@XE.P.L.K.x.m.W.Q.M.a.s.a.h.h.k.p.1.L L ,.=.-.-.;.>.2.2.2.h.j.m.f.f.c.m.T.x.c.E.E.T.v.8.<.1.1.<.%.%.-.%.M a s a V K P P I I P P A A A ,.,.Z m x y y y y x c x x n n #.#.#.#.#.#.v v #.#.#.n #.#.#.#.#.#.V.#.#.#.#.#.:.#.#.#.#.#.n n #.v #.#.#.#.n n n n n z z x c c Z A S h h j j k k ` ' ' } } _ _ C k d f k _ } _ f d h _ ] ] L D C S S V S ,.=.A A =.*.=.*.A ,.1.,.,.L 6.6.6.6.4.4.4.8.p.p.p.p.p.a.j.x.f.K.T.j.h.m.T.j.m.j.j.d.7.1.1.,.<.<.<.<.<.<.<.=.p.<.,.=.=.=.&.M =.A A A A A Z V m m B V V C H H G G E E H k d p d h h h h F d f > g g , < < < Y T 9 Q 9 3 3 < T Q 3 3 Y Y T Y < 3 T Q Q W G g , ",
", > * * t i y c @ x x c m N A =.%.%.M m a a p d f f h h h B Z A A A A A Z Z Z &.=.<.s.s.s.s.2.s.s.s.a.s.a.s.a.a.a.a.a.h.n.n.n.M.n.n.n.n.n.h.a.s.<.7.7.<.=.A *.=.Z Z Z M M M M M M N M m m u i u u m B C L C a i m c M A ,.<.,.A B K 6.[ K K _ L 5.6.6.] ] _ H G 9.u.u.t...| | o.| { [ K a y u m N Z Z V m B V L V f.c.f.,X~.M.s.p.f.f.p.v.W.#X#X+Xm.W.c.+Xc.c.q.L.L.L.J. X.Xy.L l.y.l.x.v.j.7.M x c <.,.Z N Z <.<.h.x.h.h.m.!.!.T.W.Q.>X1X1X>X#XQ.Q.R.L.K.L.L.L.v.x.M.M.n.h.a.s.<.<.;.=.=.S S S =.-.;.>.>.>.;.<.a.h.x.f.y.+XL.L.L.z.q.5.L A P L ,.,.,.<.<.%.%.M N a a B V K J J P K K K K V K L s t i t t a a u x y z @ @ v n v v n v n n n v #.#.#.#.#.#.#.#.#.:.:.:.>.>.>.:.:.#.n n X n #.n #.@ @ n n #.#.#.#.b b Z Z S S S S x x c A A V k C { } ' E E E E k d g ` { k d d k K C C D h a B D m V A A *.=.=.*.M c c N Z Z m V V D V B m B N M M b M b c x M *.,.<.<.=.*.<.2.s.<.<.<.p.p.k.k.p.p.p.7.<.<.<.=.;.Z M Z *.*.=.*.*.A Z N N m m m m a m B h B V C j g G H H H j a s B C S C h h h k G Q | X.X.( R R q 8 q 8 9 ^ ^ X.Q 1 1 < Y ^ X.R Y Y Y Y Y 3 , 1 ",
"1 ; ; - j K S B A M M c x c m M -.-.*.M B h j k d g K L L A N m M m c x i + + z n z z n v $.%.#.$.$.&.$.$.$.$.&.$.$.$.%.&.&.-.-.-.-.-.-.-.-.-.*.;.;.<.,.*.A *.*.Z Z Z b b b M M M Z Z Z Z m y m a u i i a j C V m y y m ,.7.,.V B V 6.[ f j ] ] q.c.l.L t h ` 9.[ I [ [ t.t.o.' ` k t p B Z A =.*.=.=.,.S A V C L A Z A h.v @ 2.;.*.x     . + + . . B =.L.+X$X+X7X@XL. XL.y.9.y.q.q.L.@Xf.=.N M A Z =.M c Z M x A <.p.<.<.2.s.s.h.n.M.W.W.~.W.W.>X#XE.T.L.E.$X#XW.m.h.s.2.2.2.2.2.<.-.=.,.4.L L <.2.s.2.2.2.s.p.7.8.8.] ] 9.] ] [ [ [ [ K K V V V V ,.7.<.M v N A a a B K J J J I I ` ` K f - - d - * - p d p t i i y x x x z @ z n v v v v n n #.#.n n n #.#.#.#.#.#.:.:.:.#.#.#.n #.n n #.n #.#.#.n n n n n n z z z c S =.4.B.-.v z c m u a k _ E U g g E Q Q g g _ { k d h k D t i t a a a V B V V Z M *.%.M $.$.M M c u m S S S A c c b M b v b b $.b v b $.*.*.*.-.<.-.-.<.2.;.-.;.<.<.;.&.<.;.<.;.=.*.&.Z M Z &.*.&.M Z Z *.A Z m m B B B m B a t s j V j J G G g f j j j K ] [ ] k g k E ( ) ( ( ) / q 0 : & & & 5 0 q 0 : 2 : T T ( X.R 9 1 2 1 T ~ Q Y ",
": 2 < ; d h V a m m m Z Z A A =.-.s.s.<.6.5._ H f _ { 6.4.<.p.p.,.A c x b Z Z b v b $.$.v n v #.n n n n n $.&.&.b b $.%.&.&.&.&.&.&.-.;.-.*.-.;.;.;.;.;.;.=.=.=.=.&.M b M M M M *.*.*.A Z Z A S B h d t * * d h h A B a V 6.[ h B L 6.[ K V V B 7.q.4.V p h _ 9.V V V K K [  .{ K h a B A A A *.*.*.=.A S S L L A A A ,.,.*.-.-.*.=.Z b M n . x . c u +   i V y.L.y.y.5.V 9.u.V 6.5.q.T.T.7.N c ,.*.M c m m b c &.*.-.-.2.s.2.%.-.:.:.&.&.-.<.s.a.a.a.h.M.v.v.s.=.<.<.;.-.-.-.-.2.2.<.<.,.L ] 4.=.;.;.;.-.-.<.s.8.6.[ K k k k k H H _ H G f f f K K V a y y x m V m j P P J f J J | J W , , % ; ; > , > ; * * * t p t i i i y z z z z y z z $ $ X @ n n @ X @ n #.>.s.s.B.B.>.:.#.n X n #.#.#.#.#.n n n n v $.&.$.Z &.Z F F F B ;.*.M m c a h k k E o.< 2 , 1 g { k _ ` k * = C h t t a B u u u V V B A <.<.-.b $.b b M *.=.,.4.S Z c c b Z b v v #.#.#.b b v n &.$.&.;.B.B.2.s.:.>.>.>.>.>.>.>.Z Z Z b b b b b b b b b c c c c Z c y u m m m a a h j h a a a d , 3 < 1 , g f p _ ` ` E g , G R q ) / w w / ) q 7 7 8 r q q 7 & & : : : 9 T R T 9 1 2 1 9 T Y T ",
": 2 < > f d j s A A Z V V A A ,.-.s.p.8.f.z.{ E } _ [ y.c.m.n.n.j.,.Z <.s.p.<.<.;.p.s.s.;.:.$.n n #.$.b n n n z &.$.$.$.$.$.$.$.b b %.-.;.;.;.;.;.;.;.;.;.=.=.*.z c Z &.Z b x z + + + + + i m V ] [ [ H * = = p j V V h a h K [ V B V ] ] V h V 4.,.L A B h j K j j V V K K C C V a u m Z *.Z M *.*.A A A S S S L S =.,.=.*.*.*.M &.:.:.&.x . + =.<.=.=.4.D h D 4.S L q.] h C y.5.q.6.i     m ,.=.c i x c x c M M -.2.2.2.2.-.%.-.:.:.:.:.:.&.b n &.p.s.s.B.=.=.M &.*.&.&.-.-.-.-.-.=.=.=.S D V Z *.=.;.;.:.b u V C _ k g G H G g G G G , > - > - - p a s a a a m B V m j j f f , 3 1 1 ; 2 % 2 % % % % ; 1 , g - - * = = i i i i i u c c B b c c z $ $ z z n Z n #.n $ . X X X X X n #.#.#.#.#.n #.:.>.>.:.$.v :.8.s.B.S D F F A A V h h * * > > > ' Q Y Y > < t.f = = d d * h D h t a a u u u u V ,.8.p.s.s.s.-.-.-.;.<.=.A Z b Z &.Z v n z n #.#.#.n v $.&.:.v $.&.#.n n n #.n n n n n n n n v c c c c b b b c c c c z y z y . z m m y i u h h h h h h j j g : 0 q & 2 2 % 1 < 3 Y T R R / ) w e r e ) e ) w r r w w q q r r q 9 : & : 9 T 9 ^ 9 : : 3 3 < : ",
"1 1 3 , g f K a B V V A L ,.4.7.M.W.m.f.y.u.{ f k _ r.u.f.h.n.M.&.*.<.s.p.;.;.s.s.2.-.$.b v v n n n z n n n v $.b b b #.$.$.%.%.-.:.:.:.:.$.v n &.:.:.&.&.Z b v c v b v n n b M ;.<.4.,.=.A B B = * g E ' E > = * = a V h * d [ ] V j C ] ] K V B B m m V K K k h h j j B h B m m m c c N *.Z M A A Z A A A S S S A Z A A Z Z *.<.=.;.<.=.*.<.p.A Z B S 6.] _ 6.6.B i C 6.p * { h a h V m i i i A i + u m y x =.*.<.p.<.-.-.-.:.>.>.>.:.:.&.$.Z :.;.;.:.&.Z &.:.-.;.;.;.;.p.2.;.<.=.*.Z A V B u c x z + + z c m = p f , > , , < , < 3 : 1 2 2 ; , , , f j f s i a A P j s f J , 1 2 2 2 1 2 % 2 1 2 2 2 2 2 2 2 > > ; * * - * = t t t u B B u u u i i i i $ . . c Z ;.B.B.s.B.:.&.#.#.#.n X X n X z v $.#.&.&.$.n :.;.S D ] ] C C ` } | Q Y 3 G Y , g g E ` _ r.r.k k d t d t h h t i t a a h V V B c i . . z b n v v v x z . . . z z z n n v #.. X @ n v n X . @ $ X . X X X X V.V.#.#.#.V.#.#.c z z z z y i y z z z z z y z z Z Z c i + i t t = = = = - - f , & 7 q 7 & & : 0 0 w w w e e w w e r 7 e '.) '.'.w q q w q 8 r 0 0 9 : 1 3 T T Y Y < 1 2 2 2 % 2 ",
"Y G W E { _ y.6.V A A A m y +   o M m.c.q.C k { { { ] L k.M.n.2.. ;.h.s.<.p.s.2.s.:.n . . . z n n z @ n n z z n v v b b $.$.$.$.:.#.#.#.#.v v v v v b v v z z z b c z . . z b &.&.*.<.8.8.4.,.S [ E g g E W E E f * t h j d > f K [ _ d k { [ h t B m y h [ [ j h h h h a B B Z c m M c m A A Z Z B B Z A A ,.,.=.A Z Z Z A A A =.M Z Z x M <.8.8.4.] ] _ g U r.y.K = t C _ k d ` k j j t i C z.C a u a m u m A S ,.=.Z c b &.-.&.:.>.&.$.$.:.B.B.&.b z c b &.&.-.*.&.&.&.&.Z b M c y z i i i i . z x x z x c m = * - ; % % 2 1 1 1 : 1 & & 2 2 ; ; ; ; s j j j p a j p - > , , 1 % 2 % & % % % 2 2 2 1 1 1 1 : 1 ; 2 2 * * * = d h d h k l h u t i = i t i i i D =.B.4.8.s.s.B.s.B.>.:.#.n X X n b b v v v $.$.$.Z c y u D ] } U Y ! ~ ~ Q ! ! Q U g d h h h t h f k t = t t D h t t u a h B V i i i z z z z z z z @ + z z z z b n . . X @ X . #.n X . . . X z X X X @ @ X X X X V.#.#.#.V.#.n n z z z z i z z z z z z z z c c y z y i u B h * f d d g E W W Y 7 r r r q & & q 7 q r w e e e ) ) / 0 ) ]./ / R ) 9 8 / ( ( / 0 : 1 < 3 Y Q W W Q W Y G G G Y ! ",
"o.o.o.r.y.6.@XR.T.E.#X2X2X=X#X#Xm.p.Z B C h * d = O               @ v @ x M M + . . . . + z z X . . X n v n z z v $.$.#.b b n @ n n n n n n n v z n n n n z z z . X . . z z z z . . . + i u B V _ } ' E , , G ' { K p * p d f d d E H - - H _ f j V V B V C f * d f j V B B Z Z x N A m u m V V V V V B A *.=.=.=.*.A Z A A A V L A ,.8.Z m m u L ] ] ] E > ; E H k K f = E o.E E ' } k f _ _ K k k j h h h h h B B u i i y c b v n n n v b Z &.i $ z c Z &.&.$.v v n x c u i i + i i i i . + z . z x @ @ z i i = - ; ; 2 % 2 2 1 & 1 & & & & & 2 1 ; ; ; - f f j p f G J g G G G 4 3 1 9 2 % 1 2 2 2 2 % % 2 & 2 2 % % % % % % * = = * - > * * > * = = = = * t F B V V A S =.:.;.;.B.s.s.>.#.n v Z :.:.:.;.:.&.. . . c D D F F g > 1 < Y Y Y U g k d t u V A u D d d = O t i t h t t a a u t u u u i y y $ . . . . . . . . z z . . . @ b &.:.&.b $.-.2.8.&.b z i b B.a.:.X X :.X X #.#.#.#.X @ z z z z x c c b b c z y z z z z c b Z c u D K _ d > , E Q Q Y 9 8 q q q 0 7 & 7 r e ) ) w q 8 8 & R +.OXfXoXoXoXQ , 1 Y T T 3 1 1 < G W ` ` ` ' { ..' ` ` ` | o.",
"i.i.r.y.y.5.$X#X>X#X>X#X#XE.E.T.E.E.R.+XJ.{ K { { 6.y.l.A . M M.m.h.h.h.h.a.a.n.W.M.M.n.a.p.&.x z @ X X z v $.$.z b $.#.#.$.v n X X X n n n X @ z n v n n z z z . X X $ z n z . x z z i i i i =   * g E E g > > k C j t * d f f > > > 1 ; ; f _ j p h ] ] d = * * d k C D B c c x M Z m u t h j D V V B Z A *.*.=.*.*.Z V A B a a a S 4.L A V h = * - g E ! T Q d > E E > Y +.Q X.! > ; g ' E > > g k d d k j d t t t t u u u i c z . y c Z u . i c Z Z b c z z @ @ @ z c i i i i t F F u z z z x z + . @ M A B = = ; 1 1 2 2 2 1 1 : : : & & & 1 < < , , f J f k d , H W G G G T T T Y Q g , Y ~ | X.~ T 4 2 2 2 2 % % % % % 2 2 = = % % % % % % % = 2 ; 2 % * = d D C S S S ;.=.:.;.s.s.>.:.#.;.8.8.8.p.s.s.;.&.$     . . i F t =     = * * = = t     . c *.c = t C h d h t h = = = i = = = i             c *.8.s.s.s.s.s.s.s.M.>X4X4X<XW.M.M.M.M.j.m.M.x.M.$X4X4XjXjXM.b . . @ @ n n #.#.#.#.x c c c c b b b c z z y z c c c i c Z S S D d * > ; , Y R 9 3 3 9 T 9 9 / ( 0 q & 0 +.].].Z.+.Z.Z.XXoXoX:XoXoX|.F.r. .t. ... ... . .o.t.9.9.t.u.J.|.|.J.i.F.F.F.",
"y.u.q.l.l.7.,X>X#X#X>X>X,X4X5X5X2X=XL.l.l.y.9.r..Xz.c.#X!.h.n.~.M.n.m.m.a.<.p.M.!.M.M.!.W.W.W.M.n.a.;.n z v b v v $.$.$.&.-.-.&.n X . X n n v v v v b v n z z n n z z X @ z n v . + z u c u i i j d * > , g > = O * h h d d f > > ; ; 1 1 1 , E p * p j K k f g ; > l k h u c c c c m B a t * d h h h B Z Z &.&.&.*.*.A S L D h = = O = p s p f j H g G Q X.( X.Y > > Y g Y R 9 : : 9 R 9 1 < Q , , < , > > d d d d d h h F t u c y i u B V u i u F c i .   . . . . + z i i i i = i t i i z n v v -.s.a.n.n.k.4.V d ; ; ; 2 2 2 : : 4 4 4 4 & & % 2 1 , J .. .| ; ; ; 1 1 1 1 1 , , ; , g G d g ; 1 , 3 3 1 2 % 2 2 % % % % 2 1 < g G < , ; ; 1 % % 2 , Y G 3 < g k k p = = u Z 8.;.>.>.>.#.#.#.&.Z b c M :.b $   . &.v.+Xc.b.8.v.a.8.7.p.f.f.f.0.x.j.j.h.p.;.x   t 6.y.6.y.y.z.z.z.z.J.L..X.X.X$X$X,X9X,X$X+X$X,X4X9XjXjX4X<X<XW.4XkXvXjX4X5XkXkXjXjXCXCX8X9X8X9X9X9XjXvX,Xa.&.n @ X X @ #.$.:.:.Z Z Z Z Z Z Z b c z z c c c c &.i     . F } t.' Q ~ +.+.) ) +.F..XF. .o.O.~ T X.+.{.}.|.D.G.G.i.|.F.J.J.J. XL.L.J.J.J.l.u.u.t.F.z.u.l.l.l.H.L.z.L.L.l.u.u.u.9.",
"9.u.q.L.L.q.5X2X2X2X4X2X,X>XW.E.l.@XL.[ K ] [ 6.q.L.@X+XR.W.Q.!.>X>X>X~.W.W.W.M.!.!.!.W.!.M.m.h.a.n.s.-.-.p.2.$.&.-.;.-.-.2.2.;.M.B.n X X n n n &.&.&.b v n x v n n n z . . z c z z i i i i i i = = = * * * * = t t t t t d d > > 1 ; 2 1 < , > - j p = p ` { g > > d t t u m Z M c m V j p * * * t p h B V V A B A S L [ 6.[ K { { K j _ k d k g Q Q ! R / 0 R Y g 1 ; 3 < : ! & 9 ! : : 9 9 : 9 < < < < ; > , > > > > > - > d t u u u t a h C h p t t a B B m c c c B u i * t F t i i c *.s.n.2.M.~.M.a.s.p.q.l.[ f - ; ; 1 3 3 9 9 9 9 3 : 1 : < , > g ` _ G < Y Y < 1 < G G , , % - f ` g g > % O O % ; 1 1 % % % % % % % 1 1 < Y Y < : : : ! : % % % % % % % > E _ k a u m *.-.;.;.:.n X X z Z p.W.jXDXkX4X9XvXFXGXCXtX$Xc.W.M.n.m.M.!.!.!.#X>Xm.R.m.<.s.<.7X&X=X&X=X:X=X:X:X:X:X=X=X:X:X7X9X,X,X8XCXxX8X8X9X8XjXkXkXkXjXjX,X4X8X8X4X4XjXkXDXkX9X9X2X=X=X9X8XCXxX8XxXjXm.&.-.#.@ @ v :.2.2.;.;.;.;.;.;.;.B.=.&.b c c z z + . Z v.=X+X6._ _  .' Q X.X.X.+.{. X=X@Xl.u.J.F.i.F.F.F.F.F.J.J..Xu.L..X&X&X@X@X@X@XL.E.#X*X*X@Xu.u.t.9.u.l.l.z.J.z.L.L.J.l.J.J.u.",
"i.z.|.|.u.q.z.=X#X2X2X>XW.W.W.W.*Xz.9.{  .[ 5.9.u.u.l.y.l.L.E.#X#X#XW.R.m.m.T.W.W.W.E.W.m.x.v.j.j.n.m.h.s.h.h.2.2.2.<.<.p.s.s.2.%.;.%.n v v b $.b -.;.b z n b c z c b y i i i i i y y . . . + . i = = i = = = t i i h a h l h l d > > > > 1 > > f p h d p d g ' g , > d h a a m i A B V d k > g - d d f d f k E E k H k * = - d f g ` E ' ! X.Y ! q R / 0 5 & 8 R 9 : : : < 6 6 : : 1 : < 3 9 < Y < < < , , < Y Y < < : : : 2 2 ; > > - * * > f g H H H G j f p = h t h = * * = * t V K y.q.l.#X!.n.h.h.h.h.x.+XL.u.f G > g ! < T T 9 ( ~ Y ! , > > ; > H f > k 1 < 2 Q 2 G E > E g g > > ` { d k *   % % ; ; 2 % % % % % 2 2 2 : 9 : : : : : 2 : : 1 & : & 2 1 % % % > h u Z z 2.>.2.#.z z   B 9X8X8X8XCXVXDXVXGXHXGXCXVXHXCX$XW.m.m.m.h.m.#XR.2X9X2XW.#XjXbXvX7X=X:X7X9X:X7X7X7X:X7X:X=X&X=X2X2X2X3X3X3X3X2X2X2X2X2X2X1X#XQ.Q.Q.E.Q.Q.#X#X#X1X2X2X3X=X#X@X*X2X9XvXVXCXCXCX,Xf.&.b v z n :.>.s.;.;.;.-.B.;.&.$.. z i c y . c =.R.2X2Xl.8.L C 5.] 9.i.i.u. X&X@X>X2X2X#XE.c.x.z.L.J.z.z.J.J.L..XL. X@X@XL.@X#XE.+Xy.@X7X@X=X2Xl.y.r.r.y.i.u.z.z.z.z.z.z.z.z.z.z.",
"z.r. .r.i.y.q.y.@X@X+XE.W.W.W.E. Xi. .9.r.9.9.q.u.u.q.w.l.z.L.L.L.T.T.x.x.x.x.T.T.T.T.T.m.x.v.v.M.j.m.W.W.W.M.p.-.;.;.;.s.a.;.z b v z z v b b :.;.&.x + @ z z z i + i y +     i y i y A f.+X+Xc.6.V u C q.5.s   O = p = t F D h d d d g , , > > d d j d d - k E ' E d f j i + a i A V K d f ; , f d > > 2 ; 1 1 1 1 < Y g > > > k * > > , 2 1 2 6 : 0 ) 0 8 8 6 R R 9 9 6 6 9 9 T Y 3 < < < Y Y Y 3 3 Y G < 1 ; < : : : 5 5 & & : , < < 1 1 < 3 3 G G G G G , - k d p - d * - = k [ 9.5.l.z.L.l.>X~.W.W.W.W.+X$X$Xz.K ` k H Q E X.^ ~ X.+.Y W ; > g H _ k d k { g 3 ; ' H '  .H k d k _ _ ` U d j * = = ; ; ; ; > > > = % 2 1 : 2 1 1 1 1 1 : : : : & & < : ; 1 2 2 % > p i Z M n 2.X X n + v.CXAXAXBXBXBXAXSXAXJXSXVXBXVXCX9X#X#Xx.T.T.v.T.*X#XQ.2XzXxXcXxX8X#X@X@X X@X XL.L. X XP.L.L.L.L.P.P.@XQ.#X*X*X*X#X#XE.Q.Q.#X*X*X*X#XQ.Q.Q.Q.Q.#X#X#X2X*X2X2X@XK.R.*X$X9XxXCXCXVXjX,XM x @ @ v :.>.;.2.-.:.;.&.. . $ z z . + x M v.#X#X#Xx.l.E.@Xl.5.q.c.@X@X@X$X>X#X>X6X4X1X>XW.W.W.@XE.E.L.L.L.L. XL.L.@X@X@X=X=X@XE.x.E.$XL.R.+Xl.z.i.i.i.u.i.z.i.z.z.z.z.z.z.z.i.",
"i.r.9.r.9.6.5.6.=XL.x.R.#X#X+X@X Xi.9.u.J.l.u.q.q.q.w.l.l.l.l.x.v.v.v.v.v.x.m.T.T.T.T.T.T.x.x.x.m.j.m.M.m.m.m.a.@ b $.M b b v . z + @ v M v v $.M b M M c + . + . x M x M v.8XCX8X4XjXCXGXHXGXDXDXJXHXJXBX*Xz.q.L C C p h t h h d > > , < < < > g H k p j - { g > ` _ K 6.5.6. X:Xz.h d f H > g k * d g g < ! Y Y < R | ' E H f } > g g Q Y ! T q : ( ].0 9 @.6 T ! ! Y Y Y Y Y G Y E E Y Y Y Y Y < Y ! Q ! < : < : : 6 6 5 5 : : < : : : : : 4 1 1 1 : , 1 1 ; = = t = *   d K ] 6.y.q. X+X#X#X2X4X,X<X,X,X#Xm.+Xz.5.r.} ` ` ` o.Q o.| F.`  .j _ k k ] ] C h * d , - ` 9.t.J.J.y.] ] y.9.] [ 6.4.V * = > g E ` d j j f d > > ; 1 < 9 < 1 ; 1 1 1 : 1 2 1 ; ; 1 2 ; 2 ; = O i x @ #.X #.z *.GXHXJXJXDXAXSXGXGXAXGX8X$X$X$X$X2XtX#XT.m.T.v.x.E.#X#XQ.R.T.T.R.R.E.@XL.L.z.l.l.l.l.K.z.z.l.z.K.K.L.E.E.Q.Q.Q.Q.Q.Q.Q.Q.Q.^.*X*X2X2X1X1X1X1X1X*X#X#X3X*X2X3X*XK.R.2X=X9XxXBXCXCXCXxX7.Z @ X n :.:.#.:.-.#.. X z z $ v n z s.>X4X5X#X#XW.T.R.@X=X#Xc.E.#X=X=X=X2X,X#X>X,X2X2X>X>X#X#X@X+XR.L.c.c.L.L.c.v.l.+X$X$X=X#XE.E.$X#X#X#X=X=XJ.z.u.y.u.u.u.u.u.u.z.z.z.z.z.z.",
"z.u.u.u.y.6.6.y.=XL.l.R.#XE.E.@X@XL.z.J.L.J.u.q.w.l.l.l.z.z.l.l.l.v.v.v.x.x.T.W.T.W.E.E.E.W.W.W.#X,X6XW.m.M.n.<.. + x z . . . z @ @ v $.M M M b M b x z @ x M <.p.p.p.h.5XHXHXjXVXCXDXGXGXVXCXVXCXVXVXAXVXtX=X XL.9.j K h = = * d , < < Y T Y < W ' H p f f F.H _ &XXXr.[ K C 9.[ { { J.i. .g _ ` d _ ' ' Q o.Q X.( X.X.' ' | ' ' k { o.i.X.X.Q ! T X.X.Y Y X.X.| X.' X.o.O.o.o.' ' ' ' o.o.o.O.+.X.o.i.{.{.{.O.X.( R q 8 6 : : 8 6 : : : : & & 2 2 2 2 1 1 1 ; p a V t t h [ J.6.] 6.q.E.y.T.5X4X5X6X>X>X4X>Xm.f.c.l..Xi.r.` _ i. .t.i.J.r.l.9.&Xq.q.L.$X@Xf.a d j k L [ K 6.L.R.f.0.b.6.4.6.c.9X@Xy.[ K k C ]  Xq.S 5. X&Xr.d 2 ; Y G Y < < G > Y E , > ; g E Y ! E E _ h i x M X n %.:.4XHXaXDXSXDXSXGXDXCX8X$X+X$X2X2X#X#X2X2XE.T.T.x.f.x.Q.#XR.K.T.T.x.x.R.@XL.L.L.L.c.L.L.E.L.L.L.L.P.E.@X#X#X#X*X*X*X*X*X*X*X*X*X*X2X2X2X3X3X5X2X2X2X1X1X1X1X2X3X*XE.#X8X7X9XtXtXxXtXBXCX>Xp.v X n #.#.#.#.+ . @ . o . h.m.<X6XhX>XM.#X2XW.W.#X+Xx.E.2X$X#X=X=X#X#X#X>X>X>X,X,X>X>X#X#X#XE.E.T.c.l.l.l.l.#XR.+X=X=X@X+XL.l.E.E.E.#X@XE.=XL.z.u.y.u.u.u.u.u.u.l.z.z.z.z.z.",
"@XL.l.l.L.L.c.z.@Xc.x.R.@XE.R.@XP.L.L.L.J.z.l.z.g.l.l.l.K.K.x.l.x.v.v.x.x.m.T.W.T.W.W.W.E.E.E.W.2X,X2X>XM.h.=.+ + . @ M &.b z z x v -.*.$.2.h.p.p.p.1.7.m.,X4X>XPXHXHXGXxX2XxXPXDXxXxXVXGXDXVXVXVXCXtXxXAXSXtX&XP.u.j 9.k k = = W Q ~ ^ ( X.+.+.O.O.G d f _ oX ._ &X:X|.J.r.{ J.&Xz._ o.t.i.i.:X.X .r.o.t.W | Q X.X.X.X.Q ' o.t.t.t.XXi.t.o.' G G X.o.W ' Q ' {.i.i.t.i.|..X|.i.i.o.{ ` { t.|.|.t.o.' o.i.D.i.i.{.].X.Q 9 9 9 q q 8 5 7 8 7 5 & & & 2 2 & : 3 g h B = O   q.4.6.y.y.c.l.c.4.p.M.M.!.M.M.W.>XW.v.8.R.+X&X X Xr.r.@X XL.&XL.L.y.q.7X@X,X9X9X9X2XR.a B S L ,.S 7.W.#X>X,X4X,X#X$X,X,X,X=X7X7X=X=X$X$X2X9X#Xc.c.@X:Xt.' i.W E - 2 - H ' ` g > > f Y E ! Q ' r.] u x v v @ M 4XGXVXDXGXDXDXDXVXxX9X=X$X,X2X9X2X#XE.E.2X#XE.E.R.j.x.Q.#XE.Q.1X2XQ.R.E.E.+X+X+X+X+X@X@X@X@XE.E.E.@X*X*XQ.Q.Q.Q.Q.*X*X*X*X^.^.^.Q.*X*X*X1X1X1X1X1X1X>X#XQ.#X1XQ.R.Q.1X3X=X&X-XtXBXBXCXVX,Xh.Z z n n #.#.@ $.v v s.>XlX4XkXjX#XW.#XW.#XR.,XR.R.W.m.@X2XE.#X#X$X#X#X>X>X>X>X>X>X>X#XW.W.E.W.E.W.R.T.T.R.R.2X#X>X2X#Xx.f.0.v.#X#XE.#Xx.f.x.@X.XJ.l.u.u.u.u.u.l.l.l.l.l.l.z.",
"@X@X@X+XL.L.+X#X+XL.R.@X#X@X+X$Xz.L.L.L.z.l.l.L.l.l.l.l.x.K.K.K.x.x.x.x.c.T.T.T.T.T.T.W.R.W.W.E.>XW.W.W.p.x + + c x b &.&.b b &.v v -.*.<.!.nXjX1XkXbXDXGXKXHXvXGXxXxXGXHXCX5X2XxXxXxXvXxXxXxXvXVXGXHXVXtXtXwX-XP.&X .J.r.t.` ; | O.Z.+.+.].].{.Z.o.G f p  .oXt.J.&X X&X&XF. .F.sX|.E o.{..X .r.:Xz.i.o.{.' o.O.o.X.+.X.Q ' o.o.i.z.:XF.t.t.o.{ ' .X|.r.i.t.{ .X.X.Xz.z..X@X.Xi.z.y.r.r.i.z.z.i.t.o. .t.{.{.{.{.{.O.' Q R R R R q 8 8 8 8 8 7 : & 2 2 2 1 : < g D S u u i +Xb.c.v.+X2X+X#Xm.m.m.m.M.M.M.W.W.m.7.k.E.#X@X+X$Xy.z.+XR.E.9Xx.#X7.7.2X2X9X4X>X,X4X4X0.4.7.f.k.x.j.!.n.W.>X>X,X<X#X>X,X>X>X$X#Xm.v.v.,X6X<X~.W.W.+X+Xt.` i.` { _ { F.i.i.{ k k k k f , , , g { ] i y + v v >XHXDXJXHXGXDXBXCXtX9X2X2X9X9X2X@XR.E.#X*X1X#XE.E.#XT.x.E.#XE.T.R.R.R.E.#XE.@X$X$X$X#X#XE.#X@X#X@X#X#X#X*XQ.Q.Q.Q.Q.Q.Q.Q.Q.Q.Q.Q.Q.Q.Q.Q.Q.Q.Q.Q.Q.#X#XQ.Q.#X#XT.T.Q.1X*X=X&X=X7XtXBXBXxXW.s.b n n n X X . . x n.kXkX5XjXM.>XW.#XR.m.Q.>X#X!.!.W.#X#X#XT.W.+X#X>X2X2X>X>X>X>X#XW.#X#XW.W.W.W.W.W.W.W.W.W.W.W.#X>XW.x.x.f.R.2X2X#X>XT.j.x.$X=X@XL.l.y.y.l.z.z.z.z.z.c.c.c.",
"c.$X2X=XE.L.#X2X$X@X@X$X#X@XR.c.g.l.l.l.l.l.K.L.x.x.x.x.x.K.T.T.x.x.l.x.R.R.E.R.R.R.R.R.R.R.R.E.>X>X2XW.k.,.A c @ M Z M x b *.<.N v *.<.k.5XHXGXDXGXGXVXbXbXDXDXbXDXDXbXbXDXDXVX8XbXDXVXxXvXVXGXbXVXbXrXxXAXZXrX%X Xe.F.F.}  .g o.Z.{.].Z.].].].Z.~ f J - F.XXt.u.z.l.i.i.t. .o.o.o.Q O. .` K r.&XJ.J.t.oXo.O.|.i.O.{.i.o.o.O.o.o.{ &Xz.i.z.z.|..X:X&X X&X@Xz.L.=X2X*X@X&X=X=X&X@X@X&X=X=X&X.Xz.9.[ [  .t.i.z.z.t. .` ` ' | | Q q q q q q 8 4 : & & 2 2 1 > ; * i c c c i c.v.M.v.,X9X>X5X4XhX>X6X4X4X4X4X6XW.j.m.R.m.R.+X+X8.+XW.j.x.#Xm.#Xp.7.4X4X4X,X4X4X4XhX4X>X2X5Xj.W.a.a.M.>X>X>X4X6X,XhXlX<X,X,X,X>X,X6X~.6XhXhX<X>X>X+Xz.{ .X{  .K 6.&X=X&XL.q.9.q.9.9._ E E E r.9.i m @ . W.KXGXVXJXCXCXCXCX8X9X2X2X9XE.@X#X#X#XQ.E.T.R.#XR.R.#XQ.x.T.Q.Q.Q.Q.Q.Q.R.R.E.@X#X#X#X#X#XE.#X#X#X#XQ.E.Q.Q.Q.Q.Q.Q.Q.Q.Q.Q.Q.Q.Q.Q.Q.Q.Q.Q.Q.Q.Q.Q.Q.Q.Q.Q.#XQ.Q.Q.Q.#X#X#X*X=X=X3X8XtXtX8Xm.8.v n #.V.X X   p.4X4X>X,X,X>XjX1Xm.m.R.R.Q.m.T.W.>X#X#XW.W.#XW.#X#X>X2X,X>X>X>X#X#X#X#XW.W.W.!.W.!.W.W.W.W.W.#X#X2X2X,X5X5X>Xm.W.W.W.W.R.M.R.#X=X$X+Xl.v.l.x.L.L.c.c.c.c.L.L.",
"#X#X#X#X2X2X#X@X$X$X@XE.E.R.v.8.g.l.l.x.K.L.K.l.T.T.K.x.x.T.T.R.m.x.x.T.E.+X+X+XE.E.R.E.R.R.E.E.W.>X>XW.2XxXx.  + M *.M *.p.p.&.&.# &.k.T.zXHXDXDXbXbXVXAXbXxXxXbXbXDXGXDXbXbXbXVXVXvXnXxXbXzX6XDXDXnX6X3XcXbXyXuXI.e.t.|.> O.i.o.{.}.].C.].].].O.G , I ; F.F. .y.*X&X6.H o.o.Q ! Q E o.{ { [ J. X.X.Xz.qX .E o.i.i.D.i.t.D.{.i.t.6.:X.X.X.Xz.@X=X=X=X$X=X9X9X$X#X2X2X$X#X$X2X2X=X=X*X@X+X+XL. XL.l.q.q.y.u.l.z.i.9.{  .t.i.r. .| ~ ~ ^ T 9 : 1 1 1 ; > > > = = u . c c =.,Xv.M.,X,X,XW.5X6X<X<X,X,X>X,X6X6X<XW.W.M.m.+X#Xc.=.+X2Xh.x.x.m.#Xh.p.M.,X,X6XhX4X<XhX>X>XjXvXn.>Xn.n.m.~.~.>XhX<XW.4XhX4X4X4X,X#XM.M.6X<X~.~.6XhX4X#X] k .X{ 6.V 5.&X@X7X=Xl.6.q.q.z.r.t.t.o.F.r.= y y x DXHXCXHXtXVXCXCXCXxX9X$X@X$X#XE.R.R.T.K.T.E.T.#XR.T.>X#Xx.x.#XQ.R.x.x.T.R.R.x.T.R.R.E.#X#XQ.E.Q.#X#XQ.E.E.!.Q.Q.Q.!.T.T.T.T.Q.Q.Q.Q.!.T.T.T.!.!.W.W.W.W.Q.Q.Q.T.T.Q.#XQ.Q.Q.E.*X*X-X7XxXCXxX#Xs.v z #.V.X X . ,.m.!.>X6X>XQ.m.Q.Q.>XQ.T.Q.Q.Q.>X!.R.>XW.!.>X>XW.W.W.Q.>X>X>X>X>X#XW.W.W.W.!.W.W.W.W.W.~.~.~.>X#X>X#X#X5X5X#XW.W.W.W.W.W.>X>XE.$X>X+Xx.v.x.E.E.E.T.c.m.T.E.E.",
"#X#X#X#X#X#X#X#X$X$X$X@XR.l.v.f.g.g.g.l.x.x.x.K.x.x.x.x.x.T.T.x.x.T.R.R.R.R.R.E.T.T.R.E.T.c.R.$X#X#X2XQ.T.2Xx.  y A *.A ,.<.A M x *.N Q.5XGXHXnXxXDXbXVXcXxXCXbXbXVXDXAXAXDXbXbXbXbXbXvXbXbXvX5XvXnXnXVXGXSXSXJXJXP.&Xe.I.j  .| D.Z.Z.Z.Z.C.Z.].~ G J f s I.t.J.5.=Xz.[ t.W i.X.Q X.o.| { { y..X XJ.J.|.|._  .i.t.{.i.{.{.F.{.t._ z..XL. X X+X7X=X2X9X2X2X,X2X5X4X>XW.W.W.#X#XW.+XE.R.R.+X@X@X@XE.E.T.x.f.q.f.l.y.l.z.J.z.l.y.r.t...oX:X' W  .G ` d - f p * = = c z c . =.,XM.v.>X4X,X>X~.6XlX<X4X4X4X4X4X,X6X4X4XW.m.W.,X>Xx.j.M.m.m.W.M.m.W.7.v.4X4X4X<X<XhX6XjXW.jXbXn.h.h.n.n.m.W.>X4X4X6X<XhX<X<X4X2X,X>XM.<X<XlXlX<X4XhX>XV _ u.a t S l.l.E.T.2X2Xv.f.c.l.u. . .F.z.9.t a m c HXGXVXCXBXCXaXCX8X,X$X+XW.R.E.R.T.K.T.T.T.K.T.Q.Q.R.Q.2XQ.f.T.>XQ.x.T.m.x.T.T.T.R.R.R.W.Q.Q.Q.Q.Q.Q.Q.Q.E.E.Q.Q.Q.Q.E.E.!.T.!.Q.Q.Q.Q.T.j.d.T.!.W.!.T.T.W.Q.Q.T.T.Q.Q.Q.Q.*XQ.*X1X3X3XxXVXxX>Xm.&.X n #.X X *.h.<.k.Q.T.Q.2X>X#XQ.Q.Q.Q.Q.Q.>XW.W.~.>X~.>X>XW.W.W.~.>X>XW.W.#XW.W.W.W.W.W.W.W.W.W.W.~.~.~.>X!.W.>X>X>XW.W.#XW.W.W.W.Q.Q.#X#X#X#XW.T.R.T.E.E.W.R.R.W.W.#X+XE.",
"R.R.W.#X#X>X#X#XW.+X@X@XE.R.c.c.T.T.K.x.K.K.T.T.x.x.x.x.m.m.T.K.L.T.R.R.R.R.R.R.T.T.R.E.E.R.E.#X#XE.#X#XL.E.f.i u Z Z B S =.N c N c ,.5XnXnXbXbXvXDXbXbXxXzXBXVXbXbXVXAXDXDXbXbXbXbXbXvXbXbXbXnXvXxXvXVXAXBXZXSXSXyX-X:XJ.j H H | | +.Z.Z.Z.Z.Z.O.G f ; ; F.G. Xq.L.y.z. .' D.X.Q | | ' { 9.l.&XJ.z.u.J..X{  .t.i.{.t.F.F.t.i.r.{  X&Xz. X=X=X$XE.+X#X>X>X>X>X>X,X>X#X#X#X#X#XW.W.T.m.m.T.R.E.E.W.W.R.x.j.f.f.v.l.l.L.L.z.y.y.J. XJ. X-X&XP.J.J.l.5.L h y i i i z n v . &.M.j.h.+X,X,X+X~.>X<X>X#XW.>X4XkXhX6X>X<XhXhX6XW.h.j.,X4X#XM.>X+Xv.f.4.p.,X4X4XhX4XlX<X4X>X,X4X>X~.n.W.W.W.W.W.>X2X5XjXhX<X6X2X,X2X,X!.6X<X6X6X<X>X4X2X6._ q.5.6.q.f.k.2XT.R.R.f.f.m.f.u.u.u.F.i.i.h a u m GXGXGXDXBX9X8X9X9X$XR.R.L.c.R.T.T.K.T.T.K.K.T.W.Q.R.Q.2X1XQ.T.#X#XQ.R.T.x.T.T.T.R.R.R.W.Q.Q.Q.Q.Q.Q.Q.Q.Q.Q.Q.Q.Q.Q.Q.Q.Q.!.Q.Q.Q.Q.Q.Q.T.T.T.W.W.W.T.T.W.W.W.T.T.Q.Q.Q.Q.Q.Q.Q.1X2X2XrXxX9X,Xm.;.n n #.V.X a.x.,.,.R.1X1XQ.W.Q.Q.#X~.Q.Q.W.W.!.W.>X>X~.W.W.W.W.~.>X>X>X#XW.W.W.W.W.W.W.W.W.W.W.~.W.~.~.~.>X,X,X,X>X>X#XW.W.W.W.W.W.Q.Q.Q.#X#XW.W.R.R.R.R.E.R.R.M.R.W.W.R.T.",
"m.M.W.#X>X#X#X+XW.E.E.+XE.E.E.R.R.R.T.x.x.x.x.x.x.x.x.x.x.x.x.x.T.L.E.E.L.L.L.L.R.c.l.c.R.E.+X$X@XK.E.#XL.l.q.V y V B m Z Z m x A y T.DXGXnXnXbXbXbXxXxXzXzXbXDXvXbXbXVXDXbXbXbXvXbXbXvXbXbXbXbXbXvXbXVXbXcXbXSXAXLXwXSX-XP j s f H | O.Z.Z.+.+.~ f f p f u.u.P.u.5.{ XX} ' {.| Q X.' ' { 6.u.@Xl.z.y.u.&X9.9.z.J.|.i.i.i.r.i.u.6.@X&XL.@X7X2X,X4X4X2X4X5X4XhX4X>X>X>X>X>X#XQ.W.Q.W.R.T.R.R.W.Q.W.W.W.R.m.m.x.v.T.c.T.R.l.f.v.E.R.#XR.E.=XK.f.=X@XL.f.A m m c x z v x . x p.h.j.M.#X>XW.!.W.!.m.M.m.m.#X<X6X4XhX<XlXhXhX,XW.M.>XjXW.j.,X$X0.8.0.8.$X2X4XhXlXhX<X#X2X>X5XvX5X<.h.n.m.M.!.W.>X,X2X<X<X,X#XE.,X,XM.5X4XlXhX<X,X2X9Xy.C ] y.q.f.7.k.M.h.h.h.k.x.W.m.K.J.9.K j [ p t y ,.DXxXvX8X=X=X7X2X$XR.c.c.c.x.T.T.T.T.T.T.K.x.j.T.R.T.R.#X2X5Xx.m.Q.>XW.T.m.x.m.T.T.R.Q.Q.Q.Q.Q.Q.Q.Q.Q.Q.Q.Q.Q.Q.Q.Q.Q.Q.Q.Q.E.E.T.T.E.E.E.T.W.W.W.W.R.T.R.W.T.R.Q.R.R.E.Q.Q.Q.Q.^.6X2X8XxX8X#Xv.s.$.z n n . b 0.8.,.f.T.#X2X>X>X#XQ.W.W.Q.>XW.W.W.>X>XW.W.~.W.~.~.>X>X>X>X#X>X#XW.W.W.W.W.W.W.W.W.W.W.~.>X<X2X,X>XW.W.W.!.!.W.W.W.W.W.W.W.W.W.W.!.R.R.R.!.R.W.!.!.W.W.W.W.R.",
"!.W.W.#X#X#XW.W.W.W.W.W.T.T.T.T.R.R.T.x.j.j.j.j.j.j.j.j.x.x.x.x.T.L.E.E.R.L.L.L.+Xl.f.v.l.L.+X$XL.q.l.L.H.l.q.4.u B m a B B a a m m 2XvXbXVXVXzXbXbXnXxXzX8XvXbXvXvXbXbXbXbXbXbXvXvXbXbXbXbXbXDXVXvXvXbXcXxXcXZXSXSXrXZXSXl.K = s j _ o.+.+.+.| W f j j L J.J.L.q.C ]  Xo.' i.o.| o. .{ 9.6.q.L.z..Xy.y.&X9.9. X.X Xz.z.u.r.z.z.q.l.R.=X=X$X,X4X,X>XW.!.R.W.#X#X#X>X>X>XQ.W.W.W.Q.Q.R.R.R.E.Q.#X>X~.~.W.W.W.R.m.x.v.m.W.R.v.v.R.W.2XQ.R.2XR.x.8XQ.E.T.k.1.*.c x x v + . z ;.M.m.M.M.M.M.m.m.m.h.j.v.j.j.h.M.6XkXFXkX6X>X4X4X>X>X,XR.v.2X2Xf.0.L.c.,X,X4X4X<XhX<X,X,Xm.W.,X>X;.p.a.n.M.W.>X>X>X>X4X4X,XW.m.#X#Xm.#X6X<X>X>X#XW.+Xu.[ [ l.6.7.1.m.p.p.M.!.m.m.W.#XE.L.5.V j 9.j a u q.VX,X#X+X+X=X=X$XR.c.c.R.L.c.K.T.T.T.T.K.x.j.x.x.m.T.R.R.1X8XT.f.T.#XR.T.R.x.m.m.T.R.Q.Q.Q.Q.Q.Q.Q.Q.Q.Q.Q.Q.Q.Q.Q.Q.Q.Q.Q.Q.E.T.T.T.T.E.E.E.W.Q.Q.Q.W.W.W.R.R.Q.Q.R.T.E.#XQ.1X~.~.1X1X3XtXtXv.x.8.c c n z .   S f.8.,.,.j.#X1X1X1XQ.W.T.W.>X#XW.W.#XW.W.~.>XW.~.>X<X,X,X>X>X,X>X#X#XW.W.W.W.W.W.W.W.W.W.>X>X>X>XW.W.W.W.W.!.W.W.W.W.W.W.W.W.R.R.R.R.!.R.M.M.W.W.W.W.W.W.W.W.",
"#X#XW.W.W.W.W.W.W.W.R.R.R.T.R.R.W.R.R.T.x.x.x.x.j.j.j.v.v.x.x.x.c.L.R.R.L.L.L.R.R.x.v.l.L.R.E.+Xl.q.q.u.l.l.q.L s h a s B B a B B A =X$X3XCXVX8XxXvXnXvXnX5XkXnXbXbXbXbXbXbXvXvXvXbXbXbXvXvXbXDXVXvXxXxXvXbXbXbXZXbXzXbXGX3XP i s j K ` o.O.o.' ` f j a L l.@X@Xy._ { J.|.' o.o.'  . .r.u.y.l. Xz. Xu.y.&Xq.u.&X X@XJ.L.z.y.L. X6.f.E.2X,X#X>X4X4X8X4X2X>X#X>X2X#X#XQ.W.R.T.T.T.R.T.T.m.m.T.W.W.>X>X>X>X#X#X+XE.L.l.v.R.E.L.T.W.>X>Xm.m.1X5X2X1XR.R.T.T.x.,.# v c x @ v *.h.#Xm.m.M.m.j.h.n.n.h.a.f.v.v.h.a.M.<X>XhXkXCXvX4Xh.7.W.#Xm.,X9Xv.8.@X+X4X,X,X<X<XlXhX,X#X#X,X6X4Xn.a.h.h.n.m.m.W.Q.>X4XhX4XW.W.,X2XW.W.4X4X>X>X#Xx.q.6._ [ 5.B ,.,.k.h.m.~.,XW.R.R.R.d.7.L L 5.u.f a u y.8XE.T.#X$X8X#XE.K.K.T.R.R.T.x.T.T.R.T.x.j.j.T.m.m.T.R.W.#X2X>Xm.m.R.T.W.Q.m.T.T.R.R.R.E.E.E.Q.Q.E.Q.E.E.E.E.E.E.E.Q.Q.Q.Q.Q.Q.Q.Q.Q.Q.*XQ.Q.Q.Q.Q.Q.Q.Q.Q.E.E.#XE.x.x.R.E.Q.~.Q.Q.Q.R.@X7X7X6..X4.t B c . y i A 8.8.,.Z A 7.j.T.>X2X>XW.M.m.R.R.W.W.~.W.~.>XW.~.>X<X,X,X,X>X>X>X#XW.W.W.W.W.#XW.#X#XW.+X#X>X>X#X#X#X>X>X#XW.W.W.W.W.W.W.W.W.M.R.!.!.!.!.M.M.M.M.!.W.W.W.W.W.",
"W.W.!.!.!.!.W.W.W.!.!.R.R.R.R.W.R.R.T.T.T.m.m.m.x.x.x.x.x.x.x.l.l.c.c.L.L.L.R.R.l.x.l.E.@X@XL.c.u.u.q.9.u.l.9.K a j a a h h h V B L +X2XtXvXxX9XxXvXxXbXvX5XjXkXbXbXbXbXbXvXvXvXbXbXbXbXbXvXvXCXCXxXxXxXvXCXbXbXAXGXAXHXbXVX7.A a m V K ` o.o.' k d h a ,.l.=X@XJ.r.i.i.XX' ' t.{  .9.y.l.l.y.L.y.J.u.u.&Xy.z.&X X@XL.+XL.y.L.@Xv.c.$X#X+X#X>XM.W.#X,X>X+XT.T.R.Q.E.R.T.K.x.K.T.m.m.T.m.m.T.R.W.W.W.#X#X#X@XE.E.+Xl.l.x.c.E.+X#XW.W.!.M.W.4X2XQ.E.T.x.T.T.,.+ N x + b <.h.>X>Xm.M.M.m.h.h.n.n.h.j.f.f.v.n.h.n.n.s.s.s.8.s.a.a.a.x.>Xc.$X2Xb.8.$XM.2X,X4XhX<XlXlX6XW.>X4XW.4XW.n.n.n.m.M.m.m.T.R.>X>X>XW.R.#X2X+XW.4X4X>X>XE.q.5.j k ] L L l.j.h.W.~.~.~.<X>X!.M.k.1.A 5.9.9.p t h q.#XT.#X9X2X7X@XR.x.K.T.T.T.T.x.T.R.R.T.x.x.j.m.x.j.m.m.T.R.W.6XQ.m.j.x.W.W.x.T.R.R.R.R.R.E.E.Q.Q.Q.Q.Q.Q.Q.Q.E.E.E.Q.Q.*X*XQ.*X*X*X*X2X*X*XQ.Q.Q.Q.Q.*X#X#XQ.Q.E.K.x.x.K.R.R.>X~.#XT.z.P.&XXXr.|.{ d C u   u u u S ,.A Z N 7.d.j.W.>X>X>X>XW.m.x.R.#X>X>X~.W.~.~.~.>X>X,X>X>X#X#XW.W.W.W.W.W.#X>X#X#X#X+X#X#X#XW.W.#X#XW.W.!.W.W.W.W.W.W.W.R.M.T.R.!.R.!.M.M.M.R.!.W.W.W.W.Q.",
"R.R.!.!.!.!.!.!.R.R.R.R.R.R.R.R.m.m.m.T.x.x.x.x.x.x.x.x.x.x.x.x.l.v.l.c.L.L.R.E.c.l.L.@X@XE.L.c.l.u.q.9.u.u.[ K a j h a h a a V s 5.l.8XVXBX8X8XxXvXxXVXbXjXvXvXbXbXbXbXbXbXbXbXbXvXbXVXVXbXvXbXCXCXxXvXvXbXbXbXbXHXAXHXvXGX1X3.N B B j _ { { _ * t h y 4.c.9X+XJ.i.F.i.i. .{ r. .9.9.y.l.l.y.c.z.z.y.u. Xy.L.@XL.@XE.$XR.f.L.E.c.x.T.+XW.#X>Xm.M.R.W.W.R.c.x.c.E.L.x.x.K.L.K.K.T.T.R.R.R.R.W.Q.W.+X#X+XR.L.L.L. XL.z.y.l.L.E.E.>X4X,X>X>X>X*X2XL.R.g.g.K.1.+ x c . *.p.h.,X>XR.W.m.m.m.m.m.n.j.M.v.s.f.h.n.h.h.h.h.s.a.>XjXjX4XW.,Xv.R.2Xq.4.$XM.4X<XhXlXlXlXlXlX>XM.n.s.~.~.~.6X6X6X,XW.W.!.!.M.M.M.!.M.W.#XW.m.>XW.M.W.0.L 6.K _ u.y.c.2X5XW.>X~.W.W.>X>XW.W.>XR.j.l.q.q.a a V 7.R.E.#X2X2X$XE.R.K.R.R.R.T.R.K.T.R.R.m.x.x.x.x.m.x.j.j.m.T.T.1X1XR.h.x.W.W.T.R.R.R.R.R.R.E.E.Q.Q.^.^.^.^.^.^.E.E.E.Q.*X*X*X*X*X*X*X*X*X*XQ.E.#X#X#X*X1X*X#XE.E.K.x.x.L.L.R.R.Q.Q.#XL.z.&X&X|.o.o.` _ k d = t = i S S m V A 7.f.f.j.m.!.>X4X5X#XT.T.W.>X~.W.W.~.~.~.>X>X>X2X2X>X#XW.W.W.W.W.W.#X#X#XW.W.E.#X#XW.W.W.!.R.R.R.!.W.W.W.W.#XW.R.R.R.R.!.!.!.R.R.R.R.!.W.W.W.W.W.W.",
"R.R.!.!.!.R.R.R.M.M.R.R.M.M.m.m.m.m.T.T.K.x.x.v.x.x.x.v.x.j.j.l.v.l.x.l.c.L.R.E.R.L.L.R.L.L.c.L.l.u.r.i.J.u.[ [ h V j h h a p j t l.q.@X7XxXxXCXvXvXxXDXbXjXbXDXbXbXbXbXbXbXbXbXvXvXvXDXDXbXbXbXxXCXVXCXvXvXbXbXxXGXbXnXDXMXGXp.A A V h C [ _ j a a u . A m.xX2XJ.u.z.|.{ t.9.r.9.9.q.l.L.+X+X=X=XL.y.q.L.f.+X@XE.$X@X$X+Xv.L.E.E.7.p.W.#X#X>XW.>XW.R.m.m.T.T.L.L.l.x.x.T.R.T.K.T.R.W.W.R.R.R.R.#X#X#XE.L.z.z.L.z..XL.u.q.l.l.l.#X>Xx.m.8X2X@X7Xl.L.g.f.K.1.y y M . <.2.7.+X#X#XW.R.R.T.T.m.j.j.h.h.v.m.n.h.h.n.n.m.h.a.M.,X,X#X8X8Xx.W.9Xq.S $X$X4X,X<XhXlXlXlX<XlXhXkXjXFX6X<XvXjX>Xm.k.h.x.T.M.m.M.W.m.W.+XR.M.#XW.#X+X0.6.&X[  . Xl.L.#X1XW.W.<X>X~.W.!.!.>XQ.>X#X@Xl.y.a u V 8.E.#X#X2X2X=XE.R.R.E.E.R.R.R.T.R.R.R.T.x.x.x.m.R.R.m.x.R.Q.Q.Q.5X>Xj.T.>X#X#XQ.E.R.T.T.R.E.E.*X*X*X*X*X*X*X*XE.Q.Q.*X*X*X*X*X*X*X*X*X*X*X*X*X2X1X*X1X2X1X*XE.Q.K.l.L.@XE.E.E.T.R.R.x.L.&X&Xi.' , E ' g < g * h h 6.S a A m m 1.7.p.h.M.W.>X<XjX2X!.R.!.W.W.W.>XW.W.#X#X>X2X2X5X2X>X#XW.W.W.W.W.W.E.W.T.T.W.E.W.W.W.!.R.R.W.#XW.W.W.W.W.W.R.R.R.R.!.!.R.R.!.R.M.R.!.R.M.m.m.R.",
"m.T.R.R.R.T.M.m.m.m.m.R.R.R.m.m.x.x.x.x.x.l.x.x.l.l.v.x.v.x.v.f.f.v.x.x.c.R.W.R.T.R.R.L.c.L.z.z.u.u.u.u.u.q.5.K j V j j j j j j a L.q.7XrXVXBXCXbXxXxXxXnXjXnXbXbXbXbXbXvXbXbXbXVXxXvXbXVXVXvXbXbXVXDXVXCXVXCXvXvXbXMXVXDXDXbXvX1.L j K t j a B i x @ + 2.p.>XvXR.z.c.z.6.5.y.z.y.L.z.E.2XW.W.>X>X#X#XT.f.v.E.E.$X#X#X#XR.l.l.L.K.f.k.m.Q.Q.R.R.x.x.j.d.f.v.g.d.K.j.j.K.R.T.T.R.R.R.W.Q.#X#XW.W.#XE.T.K.L.L.L. XJ.J.J.J.i.r.9.u.L.L.+X+X9X2X2X*XR.K.Y.g.K.,.. x z @ M *.<.x.E.@X=X*X#XR.K.x.T.W.!.j.j.h.a.j.M.h.h.!.4Xx.R.CXjX#X8X9Xl.f.L.v.0.+Xm.#X4X4XhXhXlXlXhX4XhX>X<XhX<X<X5X#X,X>X,X4XW.W.x.>X2XT.f.f.x.m.x.R.h.R.@X4.C 9.C ] L.q.W.>XW.!.>XW.>X>X>X>X<X6XM.7.<.k.f.,Xc A *.<.+XE.R.8X3X#XR.R.Q.Q.Q.Q.R.R.T.T.T.R.T.K.K.x.x.x.x.K.R.E.E.W.R.2X#Xh.m.2X4X#XR.Q.R.T.T.T.E.Q.Q.Q.*X2X*X*X*X*X*X*X*X2X*X*X*X^.*X*X*X^.^.*X*X*XE.*X*X*X*X*X*XE.E.R.R.R.E.E.R.T.T.T.R.R.E.E.J.r.' Y < ! ! : 2 1 % g E g d p a A 1.<.7.a.M.M.M.M.4X8X4X>X!.R.W.W.W.W.#X#X>X>X+XW.>X#XW.W.!.!.W.W.W.R.m.m.m.T.W.W.R.E.W.W.R.m.m.R.m.M.R.!.W.W.W.!.!.R.R.M.M.T.R.R.W.R.T.m.x.x.x.x.",
"j.v.x.T.R.R.R.W.R.R.T.m.m.m.m.x.x.x.v.l.v.v.f.f.l.l.v.v.x.v.j.f.v.x.x.x.c.W.+X+X+XR.c.l.l.z.J..Xu.u.u.u.u.9.] K V V j j j j V V B L.z.BXBXBXtX8XVXCXVXVXVXvXvXvXbXbXbXbXbXbXbXbXVXvXbXbXbXbXbXDXvXbXbXbXvXbXbXbXbXbXbXbXbXVXGXHXP 0.V V j s y y x @ @ n 2.s.M.jX8X#XE.E.l.6.q.l.z.+Xl.@X2XW.!.,X2X>X#XM.j.x.R.E.#X+X+X+Xx.f.f.l.E.R.Q.1X1XQ.x.f.d.f.g.f.g.x.x.x.T.K.x.T.R.T.T.R.W.R.R.W.W.#X#X#X#XE.E.R.L.L.L.J.l.u.J.J.i.t.9.t.I.J.L.c.2X#X2X3X*XK.K.K.x.,.. z @ . M =.p.W.@X=X*X*X*X*XE.Q.Q.>XW.m.m.!.!.m.x.h.m.p.j.m.k.,.<.E.8XtX@Xy.q.L 4.+X$X,X,X<X<X6XhXhXhX<XhX<X<XhX>X+X,X>X4X,X2X9X,X2XR.W.T.v.l.x.f.1.1.a.k.f.R.c.K K k 6.L.f.W.>X>X>X,X!.m.W.,X>Xm.s.m.#XkXkX<XkXM b s.8.W.E.E.3X2XR.R.R.Q.Q.Q.Q.R.R.T.T.T.T.K.j.f.d.d.g.x.K.K.R.R.R.R.2XW.h.m.2X4XW.Q.Q.R.T.T.T.E.E.*X*X*X*X*X*X*X*X*X*X*X*X*X*X%X^.%X*X*X*X*X*X*X^.E.*X*X*X*X*X*XE.^.E.R.E.E.E.R.T.T.R.R.E.#X@XL.u.E Q ! 9 6 : 1 2 > E k > * p h V ,.,.<.p.a.n.M.m.n.W.5XjX5X4X>X!.#XW.W.#X,X#X+X+X#X#XW.W.W.W.W.W.R.m.m.m.m.T.W.E.W.E.E.E.R.T.T.R.m.M.!.!.!.W.!.!.W.R.R.M.m.T.R.R.R.R.x.x.v.v.j.v.",
"f.j.v.x.x.m.T.T.R.T.m.x.x.x.x.x.m.x.v.f.f.f.f.f.l.l.v.v.x.x.x.x.x.c.c.x.x.E.#X$XR.l.v.y.l.y.y.z.J.l.u.u.q.9.[ j V V V j B B V V 5.L.z.tXtXBXcXBXxXzXxXbXbXvXnXnXbXbXvXvXbXbXbXbXvXbXvXvXvXvXbXbXvXbXbXvXvXvXbXbXbXvXbXbXvXvXGXPXP 5.K s P t s y c @ @ v -.a.a.,XVX2X$X$X@Xy.q.z.L.@Xl.#X2XM.M.>X2X,XW.m.x.m.W.#X#X@X+XE.l.f.v.L.T.Q.#X#XR.x.f.7.d.g.x.x.x.K.R.R.R.T.T.T.R.T.R.R.Q.R.R.R.W.#X#X#X#X@XE.E.E.L.H.l.l.F.J.|.J.i.t.i.F.u.l.y.$X+X#X2X*XK.K.K.g.,.@ z v @ b &.<.7.7.f.@X%X=X2X2X2X2X6XQ.j.p.k.x.j.h.m.x.h.j.>XW.p.<.1.m 4.f.L.@Xl.7.v.#X,X4X4XlXlX<X<XhX<XhX4X4X4XM.M.6X,X4X,X>X>X,X8XvXjX#Xv.f.y.v.v.p.R.5Xx.l.l.K [ [ z.c.x.4X,X<X~.W.#X>X!.h.h.~.kXvXkXjX4X,XhX*.<.h.p.m.E.#X3X*XT.R.R.R.E.E.E.R.R.T.R.R.K.x.g.0.7.q.l.L.R.K.K.T.R.R.>XE.j.R.4X2XW.R.T.T.T.T.R.E.Q.*X*X*X*X*X*X*X*X*X*X*X*X*X*X^.^.E.^.*X*X*X*X^.E.E.^.^.Q.^.*X*X*X^.E.E.E.R.R.R.R.E.E.R.E.#X@XJ.9.E Q Q 9 : 1 1 1 g _ k - p j j h V ,.4.<.p.a.a.s.2.h.!.<X4X4X6X>X>XW.R.#X>X#X+X#XW.W.W.W.W.W.W.R.m.x.x.x.x.T.W.W.W.E.W.R.R.T.T.R.M.R.!.!.!.!.!.R.R.R.R.R.T.T.m.m.T.m.x.v.j.j.f.f.",
"f.v.v.v.v.v.x.x.x.x.v.v.x.x.m.x.x.x.v.v.f.v.l.l.l.l.v.v.x.x.m.T.c.c.c.x.T.+X#X$Xx.v.v.c.z.y.6.y.J.J.u.q.q.e.[ j K K V V V B B m q.L.l.=X2X8XxXVXBXCXbXbXvXxXnXvXvXvXvXvXbXbXbXbXxXbXvXvXvXvXbXnXvXVXDXvXkXvXbXbXbXvXbXDXbXvXbXGXg.P P j P s a m x @ v v v M.s.!.bXjX2X2X#Xl.y.z.c.E.x.E.>Xm.m.>X>X>XM.h.m.R.W.#X>X#XW.E.x.f.l.E.T.E.R.j.d.f.f.d.g.x.x.x.x.K.R.R.R.R.R.R.R.R.R.R.R.R.R.R.W.#X#X#X@XE.E.E.L.L.z.l.l.J.J.|.|.F.F.F.u.u.l.l.=XE.R.E.%Xg.K.g.0.,.x z v @ v &.7.k.7.x.E.@X*X=X2X2X3X2X5X#Xf.p.x.m.m.W.x.W.j.x.m.h.x.,.S 4.7.y.R.c.0.0.T.#X5X4XhXlXlXhXhX<XlXlXhXlXM.M.4X4X,X#XW.#X,X5X,X>X#XR.c.l.x.m.m.m.m.m.=X=Xq.K ] .Xc.E.,XM.W.M.h.h.j.R.#X>X<X4XkX>XW.4XjX<Xb ;.j.h.m.E.*X*XE.R.R.R.T.K.R.R.R.R.R.R.R.K.K.l.d.q.l.K.L.L.K.K.T.T.R.>XW.x.R.,X>XW.T.T.T.T.x.x.T.Q.*X*X*X*X*X*X*X*X*X*X*X^.E.^.E.E.R.E.E.E.Q.E.E.E.E.*X^.E.E.*X*X*X^.E.E.E.R.R.E.E.@XE.R.E.@XE.u.` ` Y Y R 9 & 2 , f ] _ k K K j t V ] 6.4.8.8.7.=.<.2.s.h.M.W.>X<XW.#X#XW.W.W.W.W.W.W.W.W.W.R.R.m.x.x.x.x.x.m.T.T.T.T.T.T.T.m.m.T.R.R.!.!.!.!.R.R.!.R.R.R.R.m.m.m.m.x.x.v.v.j.f.f.",
"l.l.v.v.v.v.v.l.f.f.l.x.x.c.x.x.l.x.x.l.l.x.l.l.x.v.f.x.x.x.m.E.c.L.L.R.+X$X#XE.R.c.c.L.c.y.q.y.l.u.u.9.9.9.L V K K L L K B j a 5.u.l.2X=X=X=X*X2X8XxXvXvXbXVXDXxXxXxXxXvXvXvXbXxXVXxXbXVXvXDXxXvXCXCXvXxXvXvXvXDXbXbXVXVXvXvXVXbXP 5.P V j y m x @ M @ @ m.a.m.8XvX8X,X#XR.l.l.c.+Xl.R.>Xm.M.~.#X>XM.h.m.!.W.#X#XW.E.R.l.f.l.E.#XQ.K.d.d.g.x.g.x.x.g.d.j.x.R.R.R.R.E.R.R.R.R.T.T.R.W.E.+X#XW.E.E.R.L.L.L.L.L.l.l.u.u.J.F.z.i.F.t.u.J.z.7XE.L.@X@Xg.Y.f.1.=.x @ v @ v $.p.h.p.L.@X@X@X*X=X=X=X*X2X8X,XE.,X>XM.x.m.W.m.W.m.7.h.j.7.7.8.4.7.f.f.x.x.+X2X4X<X6X4XhXhX<X4X4XhX4X>X~.4X6X>X<X6X4X5X4XjX>XR.x.T.T.v.f.h.jX>XW.,X2X@Xt h u.l.T.x.p.M.~.jX4X5X5X4XjXFXKXkX,XM.M.+Xh.b n.m.M.W.#X2X#XE.E.L.K.K.K.K.L.R.K.K.K.K.K.K.K.K.K.x.l.x.l.K.K.K.K.x.#XW.x.m.W.#X#XR.R.R.T.j.d.g.T.E.Q.*X*X*X*X%X*X*X^.E.E.E.E.E.E.P.P.R.R.R.R.E.E.^.*XE.E.E.Q.*X*XE.E.E.E.R.E.E.^.@XP.L.L.E.L.u._ E g < T 9 1 1 < h L ] ] [ [ j - K ] [ ] 4.8.<.*.*.*.-.p.h.n.M.M.M.,X4X#X!.#X>XW.W.W.W.W.!.M.m.x.m.x.x.x.x.m.m.m.R.m.m.m.m.m.m.m.R.R.W.W.!.!.R.R.!.R.R.R.m.m.x.x.x.x.x.v.v.j.j.f.",
"v.v.l.l.v.f.v.v.f.f.v.l.c.c.x.l.x.l.l.x.l.l.v.v.l.f.f.x.m.x.m.T.T.R.+X+X#X$X+Xm.E.E.L.z.y.y.y.z.y.u.q.9.5.] L V K K P P K B a p 5.q.L.*X=X2X*XE.E.1X8XxXvXvXvXvXvXvXxXxXvXvXvXvXkXxX4XxXVXkXVXjXxXvXbXvXvXCXbXvXVXbXvXvXvXVXVXVXHX1.I P j j y y x x N @ + h.n.h.>XvXxX,X#XE.l.x.l.#XT.R.>XR.!.W.>X4XW.M.#X#XW.>X>X#XW.E.c.l.l.+XR.K.j.g.x.K.K.K.K.K.x.g.x.R.E.E.T.R.Q.R.T.R.R.R.R.R.W.+X#X+XW.T.T.T.L.L.L.L.L.L.J.l.l.J.J.z.F.F.t.i.q.q.#Xc.l.=X*XK.K.0.1.=.z @ n v n x <.h.f.T.@X@X@X@X*X=X*X*X@X2X9X2X9X9X>XR.!.W.W.2X,XR.M.x.W.x.f.f.f.f.4.B f.E.9XjX4X6X6X6X4X<X4X<X6X4X>X~.6X<X<X4XhX4X4X~.kX5XW.j.j.T.#X#X2X5XT.xX>Xm 5.9.C ] 4.x.m.W.<X4X5X,X4XvXGXDX5XW.>X,X+XM.4XW.M &.M.,X,X9X7X@XE.E.L.L.K.K.K.L.K.K.x.l.l.g.l.K.K.L.K.l.l.l.K.L.E.E.x.#XW.x.h.m.!.#XT.T.R.R.x.g.j.E.R.E.Q.*X*X*X%XE.Q.E.E.E.R.R.P.E.E.P.P.P.R.E.Q.Q.E.E.E.R.R.E.E.E.E.E.E.E.E.E.E.%X@XP.L.L.P.P.u. .E ! 3 : 6 3 < > C ] ] [ { ` H k ` _ K C L ,.<.<.=.*.=.<.p.a.h.m.m.,X5X,X>X,X,X#XW.W.W.W.!.M.x.h.m.x.x.x.m.m.T.m.R.m.m.x.m.m.m.m.W.R.R.R.!.!.!.!.!.R.M.M.m.m.x.x.x.x.x.v.v.v.v.v.",
"v.l.l.l.v.f.l.l.l.l.l.x.l.l.l.l.c.l.l.l.l.l.l.l.l.l.x.R.E.m.m.T.E.+XE.E.+X+Xc.v.x.E.E.l.q.q.l.z.y.u.y.6.] ] K V C C V V V B a a q.q.L.L.L.=X=Xc.$X2X2X5X8X8X8X2XvXvXvXvXvXvXvXbXvXjXW.8XvX8XbXkXvXvXbXvXVXVXxX8X8XvXCXbXvXDXDXbXbXK.V P P V y y c # v @ # <.n.h.!.jXjX,X2XE.f.x.x.2XW.R.#XW.R.M.W.4X>X!.,X,X#X2X>X#X#X#XT.x.c.#Xg.d.d.g.K.K.K.K.K.L.R.K.x.T.Q.Q.T.R.W.R.T.R.E.R.E.W.E.E.+XE.T.c.K.L.L.E.E.E.L.L.L.J.J.J.J.J.J.J.t.u.6.] +Xy.l.=X*XE.K.0.1.=.@ @ X n @ @ p.W.#X8X*X#X@X%X*X=X=X*X=X2X9X7X=X9X9X#X#XE.m.h.m.,XW.m.W.j.7.f.E.9X,Xv.x.+X9XjXjXjX4X<X4X4X4X<X<X4X#XM.6XhX6XlX4X~.>XM.2.n.!.R.T.#X#XW.k.>Xh.7.k.#X2XV 6.K 7.#X>XvXkXhXhXkXvXxX4X>X<XjX4X4Xj.p.>XM.*.;.M.4X5X8XrX#XE.P.H.H.l.z.K.K.K.x.l.l.g.g.g.l.l.l.l.l.l.x.x.K.K.L.R.#XR.j.j.x.R.>XT.K.T.E.E.T.T.^.T.R.E.E.^.^.^.^.E.E.E.R.R.R.P.P.P.P.P.P.P.E.E.^.E.E.Q.E.E.Q.E.E.E.^.*XE.E.E.E.E. XP.L.J.L.L.F.t.' Q Y : < 3 < > [ [ [ [ ' E Y ' W g f K 4.4.7.p.p.<.;.<.<.p.h.M.M.!.<X4X5X4X,X>XQ.#XW.W.!.M.m.x.x.x.x.m.m.R.R.R.W.m.m.m.m.M.M.M.!.!.R.R.R.R.R.W.R.R.M.m.x.x.x.x.x.x.v.v.v.v.j.j.",
"v.x.v.l.f.f.f.v.l.l.l.l.l.z.c.c.c.z.l.y.y.l.c.L.L.x.T.#X#XR.m.T.+X+XR.L.c.c.v.7.q.L.@Xz.q.u.z.z.u.l.u.9.] L L K C V V B B B B B q.6.L.l.l.+XL.4.,.,.,.7.R.5XjXjXbXbXvXvXvXvXvXbXDXkXR.8XbX8XDXVXbXCXCXbXVXvX8X>X>XkXDXDXCXDXbXzXrXbXV P 5.V y + N + # # v v n.h.m.,X<X,X5XR.k.m.x.2X#XT.W.!.R.x.h.Q.!.m.>X>XW.2X#XW.E.E.c.v.x.E.K.g.g.x.K.l.g.l.g.K.R.K.j.j.T.R.x.T.R.T.T.R.E.R.+XW.E.E.R.R.m.c.K.L.E.@X@X@XL.L.L.J.J.J.L.J.l.u.u.F.q.5.+Xv.y.=XE.%XH.1.3.=.@ n @ #.@ . =.m.m.=X=X*X%X*X=X=X=X*X2X@X=X=XL.l.l.f.R.x.>XW.R.W.h.m.h.j.h.x.x.+XR.0.#X$X+X+X#X4XjXjX4X4XjX,X,X4X>XM.6XlX6X<X~.M.<X6X~.>XW.m.R.#Xx.,.m.m.M.,X8X9X=Xq.] K =XVX2XvXjXkXvX8X2X,X>X#XR.m.v.+XW.W.4Xh.M s.m.4X4X9XrX=X@XL.l.l.l.l.l.l.l.g.l.l.l.l.g.g.g.g.g.g.l.l.d.0.f.d.#X#XR.j.v.m.W.#X#XR.R.#X*XE.K.R.T.R.R.R.E.E.%X*XE.E.R.R.P.P.P.P.P.P.K.P.R.R.E.E.E.*X*X*X*X*X*XE.^.*X*X*XE.R.R.E. X XJ.H.J.J.z.t.i.Q < 3 6 : , E  ...' | | 3 9 X.Y > f [ f.p.s.s.p.7.p.p.p.s.p.h.m.h.M.hXkX4X>X>XQ.#XQ.W.W.R.m.m.x.x.x.m.R.E.W.W.E.T.m.m.m.R.R.R.!.!.R.R.R.R.W.W.R.R.m.m.x.x.x.x.x.x.v.v.v.v.j.f.",
"f.l.l.x.v.f.y.l.y.l.l.l.z.z.c.z.c.l.l.l.q.7.l.#X$XT.R.#X#Xm.m.#X@X@XE.L.L.v.f.l.l.L.L.L.u.y.u.z.z.J.z.y.5.] L C V C B a B B B V q.q.z.q.q.L.E.l.1.7.k.v.v.x.#X8XxXVXvXxXVXxX8XxXDXxXjXxXvXxXvXDXCXjX5X5X8XjXjXjX8XDX5XxXDX5XxXVXGXPXP P 3.s m y x %.# @ @ v k.k.p.<XjX>X,Xm.x.x.E.2X#XE.#XW.W.R.W.Q.W.m.M.#X4X2X+X2X2X$XE.l.f.x.K.x.g.l.l.z.l.l.l.l.K.K.K.K.T.E.Q.Q.W.R.R.W.E.W.+XR.T.R.+X+XR.c.l.E.L.K.L.L.L.L.L.L.L.J.J.J.l.l.J.J.9.l.@X5.L.L.P.L.w.1.1.=.v @ n n v . &.k.h.5X#X*X*X*X=X-X-X%X*X*X=X=X=X$X@XR.T.T.T.R.W.R.M.m.M.x.x.p.v.f.f.7.f.v.x.f.f.m.>X4X4X,XjX,XW.4XM.>X4XW.!.W.!.M.>XhX6X!.W.W.f.S f.#Xm.#XM.vXjX8X7Xq.6.[ q.2X#X>X!.~.W.W.R.W.#X#Xk.A Z x.2Xm.W.M.M a.M.jX8X9X3X=X%XH.l.w.q.u.u.w.w.u.u.w.g.q.q.q.g.l.w.g.l.l.g.0.5.1.R.2XT.f.j.x.#XW.#XE.R.R.E.E.E.E.K.j.K.E.E.R.E.*X*XE.K.K.P.P.P.P.P.P.K.K.K.R.R.E.*X*XQ.E.E.E.^.*XQ.*X*X*XQ.E.E.^.P. XP.L. X Xz.{ {.Q < 3 3 : 1 g | D.Q T Q ( X.: 1 E { K A ,.2.-.M Z A Z *.<.p.p.h.h.M.4XvXkX4X>X>X>X~.~.W.W.W.W.T.M.m.R.W.#X>X>X#X#XW.R.M.M.m.m.M.R.T.T.T.T.T.T.M.M.M.m.m.x.x.x.x.x.v.v.v.j.f.f.",
"x.x.c.l.l.f.f.l.l.l.l.l.z.z.z.l.l.q.q.q.6.6.f.R.+XT.T.#X#X#XE.E.R.@X+XR.E.l.f.l.l.z.L.z.l.u.u.J.z.J.l.q.] L C V C L V a B B a V 5.6.z.y.6.l.l.f.0.f.f.v.x.x.R.#X2XxXvXxXCXCXvXvXjXvXDXGXxX2X2XjX8X5X5X5X8XxXvXvX8X8Xf.m.xXjXVXDXVXPXg.V P a N x # v # v @ + *.d.n.W.>XjXW.1Xp.x.x.2XE.+X2XE.T.#X#X>X#XT.R.#X>X#X2X#X@X#X@Xf.7.x.x.l.l.l.l.z.H.z.H.H.K.K.K.T.T.E.R.R.W.Q.W.W.E.W.E.R.T.L.R.R.c.c.x.R.L.L.E.@XL.L.z.z.L.J.L.L.L.L.J.J.9.l.@X6.L.L.H.H.w.0.7.*.x v v n x @ *.p.h.#X*X=X=X*X*X*X%X@X*X=X&X=X=X=X$X#X#XE.R.R.E.W.!.M.!.m.m.p.v.f.f.7.7.v.x.v.f.f.h.v.+Xa.s.<X6X,Xj.M.5X>XM.M.!.!.W.4X4XhX6XR.N l.2X2X9XxX6XVX2X#XE.L 5.6.l.7X2X,XW.Q.!.T.v.f.x.#Xx.<.1.v.$Xm.#XM.&.p.h.4XjX2X#XE.@XP.J.u.u.u.u.w.q.w.w.w.w.q.q.q.g.l.w.g.l.l.g.q.0.7.T.2XE.v.j.j.W.W.Q.E.Q.*X2X*XE.K.R.K.K.E.^.E.E.R.*XE.R.P.P.P.P.P.P.P.P.P.P.R.E.E.*X*X^.Q.E.^.^.^.Q.*X*X*XE.E.E.E.P.P.J.H.K.P.J. . .' ! < : : < , T ^ q R ^ R 0 : Y E H V B A *.-.*.=.*.A A *.<.p.p.h.W.4XjX2X#X#X~.~.~.~.W.W.W.!.Q.W.W.W.W.#X#X#X#X#XW.W.W.R.M.m.m.m.m.m.m.m.T.T.R.R.M.M.m.x.x.x.x.x.x.x.v.v.v.v.",
"l.c.c.l.l.y.l.l.l.l.l.l.l.l.l.u.q.q.9.6.q.l.L.@X#XT.x.T.#X#X#XT.L.@X@X@X#XE.K.L.l.l.l.l.l.l.J.J.L..Xz.q.5.L C V S L V B B a a B L 6. Xz.q.l.y.f.v.f.f.j.x.x.x.x.m.>XjXxXxXvXvXxXGXVXvXjX2XW.W.#XxXxX8X#Xx.j.p.7.p.x.7.m.9X5XvXDXAXIXrXV m a m y # v # v # + N <.m.4XkXW.xXR.x.x.v.#Xc.E.2Xc.v.$X#X>X>XW.W.#X,X#X#X#X$X2X=Xl.q.L.l.l.l.z.z.l.H.H.J.H.K.K.R.R.R.R.R.W.W.#X#X#XW.W.R.R.R.L.c.z.c.c.l.L.L.K.E.E.L.L.L.L.L.L.L.L.L.L.L.l.9.z.@Xq.L.L.I.I.J.K.d.M @ v v v @ v $.=.k.j.#X*X=X*X%X%X%X@X=X=X$X=X$X=X#X$X2X$XR.m.T.W.W.W.W.M.m.k.f.f.f.7.8.f.x.x.v.h.a.p.h.+XM.4XW.M.M.m.2X4X>XT.M.M.!.5X<XhX>XN x.2XBX9X2X8X>XvX9X2X#Xq.[ 9.l.#XR.W.T.m.j.K.K.l.L.#XL.4.,.4.x.a.s.;.+ v <.4XjX2XE.L.%XP.J.J.u.u.u.u.w.w.q.q.w.q.q.q.w.l.w.g.l.l.g.q.q.q.L.2X#Xx.f.f.m.R.Q.E.R.E.#X#XE.K.E.R.K.L.E.*XE.H.E.E.E.E.P.P.P.P.P.P.P.P.P.R.R.E.*X*X*X*X*X*X^.*X^.^.^.E.E.E.E.E. XP.H.l.z.L.J.t.o.E Y Q Y 1 1 < 9 4 0 / / 0 : 4 Y g f V A *.*.<.,.A A A A Z =.7.<.<.p.W.5X5X>XW.~.~.>X>X>X>XW.W.>X#XW.W.#XW.W.W.W.W.#X#X#XW.R.M.x.x.m.m.m.m.m.m.R.R.M.M.m.x.x.x.x.x.x.x.x.x.x.x.",
"x.x.l.l.l.l.l.L.z.l.l.l.l.l.u.y.q.y.y.q.l.@X#X#X$XE.x.v.x.#X#Xc.E.@XE.L.@X#XE.L.L.z.l.u.u.u.u.u..X XL.y.5.L C V A S V B B a a V L 5. X.Xl.L.c.c.l.y.f.f.j.j.v.v.v.j.#XjX8X8XjX8X>X#X#X5XjX9X>XW.E.#XW.x.v.m.m.x.k.T.k.f.f.j.5XGXnXHXSXV V m y x x N # + # N *.N <.KXkX1X5XR.x.T.x.2Xc.L.#XL.f.R.#X#X>X#X#X#X$X@XE.9X8X@Xl.5.4.6.g.l.K.H.l.l.H.H.H.l.l.K.R.R.R.T.Q.Q.#X#X#X#X#X#XR.R.R.L.c.c.c.c.L.E.l.l.L.L.K.L.L.L.L.L.L.L.L.L.L.J.l.L.L.q.L.J. XP.P.E.l.N + v x v @ v c c p.p.x.E.*X=X*X*X*X@X@X#X#X=X=X=X$X#X2X#X+XT.m.m.W.+XW.R.x.f.k.k.f.8.f.v.v.v.j.x.j.j.s.h.s.a.h.>X#Xx.+X9X#XT.>X>X#X5X<X*.c >XE.7X2X9X#X>XR.8X9X2XE.6.z.i.l.L.T.#X1XQ.#XE.q.L L l.E.E.x.L.jXkX+X8.z n M #X8X2X@XE.%XJ.J.J.F.F.u.u.u.w.w.w.u.w.w.w.w.w.g.g.l.g.g.f.f.g.L.=X#Xm.f.7.j.x.Q.E.K.K.E.#X#XE.K.P.K.K.R.*XE.g.K.R.E.E.P.K.P.P.P.P.P.P.P.R.R.R.*X*X*X*X*X*X*X*X*X*X^.Q.E.E.E.E.P.P.K.l.l.K.l.9.t.E < ! Q < > : 8 5 ) ) w q & 9 < , d j S A =.=.A m m Z Z m Z ,.<.=.=.p.W.,X4X,X>X>X>X>X>X~.Q.W.W.W.W.W.W.W.W.W.W.W.W.#X#XW.!.R.m.m.m.m.m.m.m.m.M.M.m.m.m.m.x.x.m.m.x.x.x.x.x.x.",
"l.l.l.l.l.l.z.L.z.l.l.u.u.u.u.y.u.u.l.u.z.@X$XR.+X+XT.v.x.E.E.L.E.L.f.q.L.@XL.K.l.l.q.q.q.q.q.9.J.L.c.y.5.L V h V S V B V m m S C ] z.L.c. Xz.c.c.x.v.f.f.f.f.f.j.<.j.2X5X2X5X5XvXxXjX9X2X#X#X#X>X>XW.v.x.T.m.f.j.m.x.R.R.x.x.x.W.2XxXV L m y x x # @ + # %.*.N =.5XxXjX#XW.x.v.T.8XL.c.+X@Xz.L.@X#X=X#X#XE.L.l.L.=X=Xz.q.q.q.u.l.l.K.H.l.u.u.u.u.u.l.l.K.R.W.W.Q.#X#X#X#X#X$X$XE.+X+XL.c.z.z.c.L.L.z.l.L.L.K.L.K.K.K.L.L.R.R.L.K.z.K.+Xl.y. X XJ.H.Y.P.l.Z @ b x v @ c @ + <.p.d.L.*X=X=X=X=X=XL.L.+X$X#X$X=X=X=X=X$X@XL.c.R.@XW.E.m.v.f.l.v.f.c.c.x.f.h.j.n.j.h.=.8.a.p.m.p.+XxXCX2X#X7X2Xl.j.M h.m.,.2X=X=XL.T.W.x.#X#X@Xl.6.J.i.u.l.K.#X2XQ.K.l.H.z.l.l.L.@X=X$X9X>Xp.x . @ M m.W.E.E.E. XF.F.F.F.F.F.F.u.u.u.u.u.u.u.w.w.w.l.l.g.g.g.g.g.l.L.#X=XR.j.p.7.v.E.E.#X#X*X*X*XR.l.K.L.K.L.*X%XK.K.P.E.R.K.H.H.H.P.P.P.P.P.P.R.E.*X*X*X*X*X*X*X*X*X*X*X^.*X^.E.E.L.L.L.K.x.g.9.[ _ ' E 1 > ! Y 2 & 8 '.) q q & T 1 , f d h V V V A u u V S A B A =.,.7.8.8.f.W.5X,X<X<X~.~.W.W.W.!.!.!.W.W.W.W.W.W.W.W.W.W.W.W.W.R.R.m.m.x.x.x.x.m.m.m.m.m.m.m.m.T.m.x.x.v.v.v.v.",
"l.l.l.l.l.l.z.l.l.l.u.u.u.i.i.i.i.u.u.l.L.@X@XE.m.E.+XE.E.W.E.L.@XL.q.7.l.@XL.l.z.l.w.u.u.u.i.u.z.L.L.l.6.L V h V V V V A m m L ] ] l.L.L.+XL.L.+X+XW.x.f.f.a.p.x.7.f.#X9X2X2X5XW.j.1.=.,.k.R.#XR.T.x.j.x.R.R.x.#XR.v.j.v.x.m.m.M.T.2XL ,.m + y c @ v v v M M 1.p.. jXxX2X#XE.p.l.9Xl.L.l.&X X XE.@X=X=X#X@XE.L.l.q.L C ] ] 5.y.l.z.H.H.l.u.u.u.u.l.l.K.K.R.Q.W.Q.W.W.W.E.W.+X#X+X+X+Xc.z.z.c.c.L.L.l.K.@X@XL.E.K.L.L.R.E.R.L.L.K.l.L.@Xy.c.@X%XP.G.w.H.q.V z c x b x x z + =.p.p.x.Q.*X*X=X=X=X@X@X#X$X$X$X#X#X$X2X2X=X@XE.+X#X#X#Xx.x.f.c.x.l.c.m.x.j.h.j.n.h.j.h.#Xm.8.x.,.x.v.@XL.7.,.B i y h.a.k.5XE.@Xc.c.f.R.L.@XL.L.l. Xi.{ 5.5.q.d.f.1.l.5.L L K L l.=X=Xx.f.7.Z x v b &.h.k.0.g.l.J.u.i.F.F.i.F.F.u.u.u.u.l.u.u.w.u.u.l.l.l.l.g.g.l.z.E.@X$XE.x.f.7.f.E.#X#XE.E.#X@XR.K.L.K.K.P.*X*XE.%X*X*X%XP.H.H.H.K.K.L.P.P.E.E.E.*X*X*X*X*X*X*X*X*X*X*X*X*X*XE.E.L.R.E.R.K.d.5.K j ` E , 2 < U < & q ) w 8 9 3 Y , g f - d K ] L 4.S A ,.4.,.A Z Z S ,.,.,.7.f.R.5X4X4X4X,X>XW.W.W.Q.#XW.W.W.W.W.W.W.W.!.!.W.W.W.W.W.E.R.T.m.x.x.m.m.m.m.m.m.m.m.T.m.x.v.v.v.v.v.",
"l.l.z.z.z.z.z.l.l.l.y.y.u.i.i.i.t.y.y.u.L.@X#X$Xm.E.#X#X#XE.T.c.E.@Xl.f.L.@XL.l.l.l.l.l.u.u.z.z.l.L.L.z.q.4.S B B V V V A m m L 5.] l. X+X@XL. X+X@X#XR.m.x.x.v.x.x.x.W.2X2X#X#X#Xm.f.f.v.x.j.f.E.W.T.T.R.T.m.x.f.v.W.#XE.W.E.W.>X#X5X4.,.a + y x @ %.-.-.&.M <.=.  7.VXW.5Xm.k.T.2XL.=Xq. X XL.L.+X#X=X=X@X+XL.7X&Xz.9.q.9.9.y.l.l.l.l.l.u.u.t.u.l.z.K.K.T.T.T.R.!.E.W.E.E.+X+X+XR.c.c.z.l.z.c.l.L.K.E.*X@XL.L.L.R.E.E.E.E.R.L.E.x.K.+Xf.+X&X@X XI.Y.w.5.m i c x c c z c x y <.1.d.x.K.L.@X*X=X=X=X2X2X=X#X=X=X=X=X2X2X=X=X=X=X$X#Xm.L.f.T.l.c.x.c.m.j.h.n.n.m.a.a.k.p.j.2Xf.A V 4.q.4.a s V 7.h.!.m.7.$XL.l.q.l.@XE.@Xc.x.6.u.9.K [ ] 5.L ,.V a a a j V j j V a B A ,.=.b z . ;.a.8.4.5.5.u.F.t.t.t.t.i.F.F.u.u.u.u.u.w.u.u.l.l.l.l.l.l.z.K.L.E.E.#XE.T.v.1.f.K.E.E.R.K.R.E.E.E.R.K.H.P.*X*X%X*X*X*X*X@XP.P.P.I.P.P.P.E.E.*X*X*X*X^.Q.Q.^.^.^.*X*X*X*X*X*XE.R.R.E.E.R.x.0.1.K H g g Y > % ; Y : w R R R R R Y < , , G ` {  . .6.6.6.5.4.L A B m m m B =.7.0.p.>X<X6XhX5X4X<X~.#X>X>X>X#XW.W.W.>X~.W.W.W.W.W.#X#X#X+XW.E.R.T.T.m.m.m.m.x.m.m.m.m.m.x.v.v.v.v.x.",
"l.l.l.z.c.L.L.J.l.u.y.y.i.u.u.u.i.r.9.y.l.c.L.+X#X+XE.+XE.T.x.l.K.E.L.x.L.E.K.l.g.l.l.l.u.u.u.l.y.l.L.l.q.4.V a V V V A V a a L ] L l. X+X@XL.+Xc.E.+X+X#X#XW.m.m.#X#XE.,X,XW.T.R.W.#XT.f.k.v.m.v.v.x.T.T.x.x.x.#XW.#X+XW.#X,X,X,X>X2X8.,.m i x @ # -.%.-.2.M z + x x M.5Xh.#Xf.2X9X*XtXy.z.|..X+X@X#X=X@XL.l.q.q. X X6.] 9.9.9.l.g.w.u.l.u.u.u.u.u.z.z.l.j.x.m.m.R.W.W.+X+X+X+XR.L.c.x.x.l.l.x.l.l.L.@X2X@Xl.l.x.x.R.#X#X#X#X#X=XK.c.@Xf.$X@X XJ.F.e.[ P a i N y z x + M m . M =.<.7.0.g.L.#X=X@X@X#X#X#X#X2X9X=X=X=X=X7X9X2X=X#X#Xx.c.f.m.x.m.m.m.m.h.p.a.h.h.j.x.p.W.m.x.8.S 8.A B a i t a a =.h.k.7.7.6.5.q.q.y.q.L.+XL.L ] H p K V L V 1.,.5.5.L L L L K h t D V Z c + x M <.h.k.q.5.P 9.F.t.t.i.t.i.F.F.u.u.u.w.w.w.u.l.H.l.l.H.H.K.L.L.E.#XR.#XE.W.T.1.d.7.K.*X#X#X#X#XE.1XR.g.g.L.*X*XE.@X@X@XE.P.P.P.P.P.P.P.P.E.%X*X*X%X%XE.E.E.E.^.*X*X*X*X*X*X*XE.T.R.K.K.j.0.,.K C H g , > ; % = 2 q R q ( ( ^ X.T 3 1 , Q O.| E E ] 5.[ K V B m m x m m m c Z <.p.h.m.W.<X4X6X>X~.W.>X<X<X>XQ.Q.#X#X#X#XW.W.W.W.#X#X#X#X+XW.E.E.W.R.R.R.m.m.x.x.x.x.x.x.v.v.x.x.x.",
"l.c.c.x.l.l.L.z.z.i.r.t.u.z.z.l.i.r.9.q.y.z.c.L.E.+X#X+Xc.v.l.l.x.T.T.R.L.l.l.l.l.l.l.q.g.l.E.+X@XL.c.q.0.f.L B A A L V V B a K K [ q.l.L.+X+X+XR.E.#X+XW.W.>X,X$X$X$X$X+XW.M.W.W.#X#Xx.k.k.v.T.W.W.+X$X#X$X+X#X#X#X$X$X,X9X2X#X>X2X2Xj.A N + @ # $.-.%.2.M.W.M.<.@ x $.!.bXh.x.#X7X7X&XJ.u.J.J.H.@X*XL.g.q.q.f.e.w.u.u.9. . .t.l.l.l.l.l.l.l.u.u.u.u.l.z.l.l.l.T.R.R.T.+X#X#XE.R.T.m.c.c.l.l.l.T.E.E.x.f.f.x.R.+X+XW.#X#X#X>X#X$Xq.#XL.v.=X@X@X Xu.] 5.P s a i i i y x x x @ + *.=.<.8.8.0.T.*X@X=X#Xc.c.=X7X=X7X7X2X2X2X2X=X=X2X2X#XK.f.j.T.j.j.m.T.m.d.2.k.j.p.p.h.j.7.=.B A m B u i i a V Z ,.1.0.0.,.V K [ 9.9.9.9.9.[ K k j V K P 5.d.g.d.x.d.1.A N m m a t a V m x z v M <.h.k.7.y.9.[ F.F.z.z.z.i.u.u.u.u.q.q.q.q.l.l.l.K.H.l.l.K.K.K.K.K.Q.W.Q.1XT.2.p.,.p.Q.E.v.E.2XQ.Q.>XQ.W.E.#X@X@X X@X%X X@X%XP.H.K.L.L.L.P.P.P.%X%X XP.P.E.@XE.R.E.Q.#XE.E.@XE.L.g.l.f.7.4.] C d k k g d * = = = 9 q 0 R ( ) ^ 4 : < 3 T Q 3 , G W | ' E K B c v v #.$.b c v $.:.s.s.s.n.~.<XlXhX<XhX>X~.>XW.>X#XW.E.E.E.W.W.W.W.#X>X>XW.W.#X+XW.m.m.m.m.x.x.l.x.l.v.x.x.K.K.m.m.",
"l.L.T.L.l.L.c.l.u.i.r.t.u.z.z.l.z.z.u.y.z.+X@X@X+XE.R.R.L.l.l.L.x.x.T.T.L.L.l.z.K.L.L.L.E.@X#X+X#XR.L.v.f.f.=.V A A P B V j p C V K 6.z.@X@XL.x.R.+X#X#X#X#X>X>X+X+X+X+Xm.v.M.W.>X>X#Xm.x.m.W.+X+X+X#X,X2X$X#X#X,X$X+XM.M.$X2X2X#X2X>Xp.N M @ # @ $.2.2.a.M.~.~.W.#.. v $.m.!.p.>X=X3X:XJ.i.|.i.w.H.K.l.l.l.x.l.g.g.u.u.9. . .t.u.l.l.l.u.u.u.u.q.q.q.u.l.l.z.l.c.R.E.R.W.+X#X+XW.T.K.x.l.l.K.c.x.E.#XE.m.T.+X$X#X+X+X#X>X,X2X2X#Xq.+Xc.l.*X@XL.z.q.6.q.L s a i i i y z x z x z z c A 4.8.7.p.v.@X@X@X@X#X#X=X7X2X=X=X2X2X2X2X2X=X#X#Xl.f.x.W.T.1X>XQ.Q.Q.T.d.,.h.h.p.=.m m 7.m.c.8.V A ,.7.8.7.1.,.,.1.1.L ] 9.{  .9.9.` j f j I 5.0.5.0.f.v.x.p.1.,.N N N N m h h B B c y x c <.p.1.A q.y.{ 9.z.u.l.J.J.J.l.u.w.q.q.q.f.g.g.l.g.g.l.K.K.K.T.T.E.Q.Q.Q.6X1XT.d.N <.T.#XE.#X#Xm.~.~.~.W.W.$X@X X X X XP.L.E.P.K.P.P.P.P.P.P.P. XP.P.P.P.@X%X*X*X*X*X*XE.E.E.K.g.f.f.8.,.S C C j j d * * > > = % % 8 ) ) R 0 / ) 4 & & 9 T Y G Y ! | X.X.o.6.<.:.V.#.v v c v #.#.v &.;.s.a.M.hXMXkXMXhX<X4X6XjXjX2X2X@XT.m.R.W.#XW.W.#XW.#X#XW.R.R.!.W.W.W.T.c.l.l.l.l.x.T.T.T.T.",
"l.c.L.L.c.l.l.y.i.r.r.t.u.z.z.z.J.z.u.y.z.@X#X@X#XR.c.c.L.c.l.c.x.x.T.T.R.E.E.L.L.L.E.E.E.#X#X+X#XR.R.x.f.p.A A =.A L V V B s V V V ] l.@X+Xx.b.v.v.m.W.#X>X>X>X+X+X$X$XM.c.M.#X>X#XW.M.R.+X#X#X#X#X$X,X#X+Xm.m.m.M.m.m.W.#X$X$X#X#XW.,.N N # v $.%.$.*.2.n.M.~.~.M.. . @ M h.j.xX7X7X:XJ.i.|.t.e.e.q.q.f.l.l.g.l.l.u.9.9.9.t.t.l.z.z.l.u.u.u.u.l.u.u.l.l.l.l.l.c.L.E.R.m.W.W.#XE.R.L.x.K.L.L.L.+X$X,X#X$X#X$X$X#X#XE.E.>X2X5X2X@Xq.L.L.z.@XL.q.q.q.q.q.L t s i i i y x x v v c y u B S L ,.4.0.+X@X=X7X2X$X=X=XE.#X2X2X2X#XE.T.v.f.f.7.7.j.Q.#Xm.Q.>Xm.p.d.T.#X,.A M ,.m.9XxX8X2Xy.,.4.7.,.=.8.v.0.1.L L V V K K K [  .K f j L L L ,.4.q.v.x.x.,.=.A Z Z Z Z V C h h a m u y @ N p.7.S 4.6.q.l.J.u.u.u.J.L.L.J.w.q.q.q.l.l.l.l.l.K.K.K.K.K.T.R.T.T.T.T.Q.6X>Xd.m S l.@XE.R.+XW.W.W.!.W.W.$X@X X%X&X@X@X@X@X*X*XL.L.K.L.P.P.P.P. X X@X@X@XE.E.E.E.E.R.K.K.x.d.7.p.7.,.Z B V C K k > = = ; > > 2 : q / ) ) / ) C.w & : / ( ^ ^ R Q +.X.( o.9.1.*.%.$.b c c c v v b c v b :.2.a.M.n.>X~.,X5X4X8X9X8XjXxXxXkX5X,X>XW.>X>X#X#X>X#XW.W.W.W.+X+XR.l.l.g.l.x.l.K.L.T.T.",
"l.c.L.c.c.c.z.y.y.r.t.i.z.J.L.L.z.u.y.l.L.@X@X@X#XE.T.T.c.x.v.v.L.L.R.E.E.@X@X@XL.@X@XL.R.E.#X,X#Xm.W.m.v.8.*.=.=.A ,.Z V V y V L V L q.c.z.l.x.v.v.x.+X,X2X,X,X$X$X$X$X$X+X#X>X#X#X+XW.#X#X#X#X$X$X$X#XW.m.c.c.v.v.c.W.$X,X,X#X#X#Xm.N M c @ # # %.2.n.M.M.M.n.M.<Xv v # @ <.j.jXtX@XL.J.u.u.i.u.q.9.0.q.q.q.q.l.g.q.e.9.9.t.t.u.l.z.l.u.u.u.l.H.l.l.z.z.l.l.c.L.L.R.L.c.T.E.+XE.E.T.L.L.L.E.E.2X2X$X$X$X$X,X$X,X+XT.T.+X>X,X#XL.l.+XL.z.L.q.5.5.6.6.q.L s s i i i y x x v M M m m B V L L 4.7.f.E.=X#X2X9X2X@XT.W.W.E.T.j.p.1.,.L ,.,.,.d.T.W.6XW.k.1.j.Q.g.N j.R.#XW.E.E.T.v.x.8.4.7.7.=.1.v.g.7.L A K K K K j j K [ K j K q.l.v.7.7.f.j.p.=.=.A A Z Z Z Z B j d p t a a u i c <.7.<.1.4.7.l.&X&X@X@X@X XL.l.e.q.q.g.l.l.K.L.K.R.R.K.K.K.T.T.Q.T.W.Q.Q.5XjX#XL A 4.l.L.l.l.T.W.W.W.W.#X#X@X@Xz.c.K.l.z.K.L.@XE.R.K.K.P.P.P.J.P.L.L.L.K.K.x.g.f.g.x.l.g.f.0.7.7.,.Z B V L ] _ k k g ; 2 1 9 R ) q 7 r ) '.'.'.) 7 0 ].+.( ( 9 9 R 0 : < H A M v x z i i u c v M c c M *.<.<.<.2.s.$.M A =.p.k.7.8.a.j.M.W.<X6X~.>X>XW.Q.>X>X#X#XW.W.+X#XE.l.y.l.l.x.l.K.K.T.T.",
"c.c.c.l.L.L.L.l.y.i.i.z.J.L.L.L.L.y.y. X=X@X+X#X#X+X+X@XR.x.v.v.E.E.E.E.E.@X@X@XL.@X*X@XE.#X2X2X#Xc.W.R.m.a.=.,.=.A ,.Z A V a A L D L q.l.z.L.$X+XR.+X$X9X2X,X$X$X+X+X$X#X$X#X#X#X>X,X>X#X,X=X#X$X,X,X#XE.E.#X2X#XW.T.+X2X9X9X2XE.Q.T.x N x @ # + N s.n.n.2.;.2.<.-.-.-.. @ &.M R.8XL.9.L.u.r.|.F.u.u.q.e.q.f.g.g.q.e.e.9.9.u.u.w.u.u.u.u.u.u.l.u.u.l.z.K.K.L.E.E.L.c.c.L.R.R.R.E.R.R.L.L.L.E.+X=X=X=X$X$X2X2X=X$XR.x.v.c.E.+X+Xl.l.@XL.q.q.5.5.6.6.5.5.K h j = i u c c v b M Z u u h K ] ] L L ,.f.v.x.E.2X#Xx.m.x.f.7.,.=.,.,.,.S ,.,.A 1.p.p.T.1X2Xm.1.1.d.j.W.>X#Xx.f.f.f.y.6.8.8.7.1.1.p.x.f.q.4.L L L L K K j j K K V K q.f.f.7.<.<.<.*.c N N M m m m m a h d d p a a s u V B A ,.p.7.<.p.q.z. X%X*X@XL.g.q.q.q.l.l.l.l.x.K.x.x.j.x.T.T.T.R.x.R.Q.T.Q.5X5Xf.A B 6.L.L.l.l.W.R.T.W.#X#XE.L.E.+X+X+XE.E.#X#X#XE.K.z.z.H.H.l.q.q.5.6.f.y.f.q.7.f.g.f.0.8.7.q.4.A m V L L K j f E ! < & : 0 / e 7 7 r e ).'.'.'.r / ].) 0 0 : 9 / 0 8 9 ' 5.7.<.,.S h F t i u c Z =.A N N =.1.<.<.c x m N 1.,.v.h.h.a.s.s.a.a.M.M.W.W.#X#X#XW.>X#XW.W.E.W.c.l.l.x.l.l.l.l.x.x.",
"z.l.l.x.x.L.c.l.y.u.z.J.J.L.L.@XL.l.z.@X=X@X+X$XW.+X#X#X+XT.c.T.E.E.E.E.E.E.L.L.l.@X=X=X#X#X1X>X+XT.+XE.M.j.<.,.=.A ,.A A V a L V V L q.c.L.@X=X$X+X@X=X9X7X=X=X=X@X+X$X$X#X>X#XW.#X#X#X#X#X$X#X#X,X,X#XW.#X2X9X,X#X#X2X9X2X#XW.T.Q.T.x A x # # N v # x x # @ + . . @ # . M @ c <.9XL.q. XJ.r.J.u.u.t.u.q.e.g.K.g.g.g.w.w.w.u.u.u.u.l.J.J.J.J.l.J.J.J.L.L.L.L.R.+XL.c.c.R.R.R.T.T.L.L.L.L.L.L.L.L.+X@X=X2X7X9X2XR.x.v.v.x.c.T.L.l.L.L.q.4.L 5.6.6.6.] ] K V K t i u c c c b M Z B a h k K ] [ 5.7.<.7.f.v.k.p.p.<.7.p.<.<.=.*.=.,.S ,.,.A A ,.=.k.j.j.p.3.j.*X5X8X9X#XE.T.x.f.8.f.f.8.4.8.v.m.x.f.q.q.5.] ] P K 5.L V j j j V S u N *.A M M M &.M M M m m m m m h h h d a t t a B m Z 7.p.<.<.p.1.q.g.g.l.K.K.l.l.z.z.z.z.l.l.l.x.j.j.j.T.R.Q.Q.T.x.T.T.j.j.Q.2Xf.4.A L q.l.@XtXvXjX5XjXjX8X2X=X@X+XE.E.W.m.m.W.f.q.7.7.q.q.w.y.6.] L L 6.q.q.0.7.7.q.7.,.S L 5.] C a h C C d * > G T 9 q w w r e e e ).).).).`.'.e e / r q 0 q / ) ) e / ~ [ 5.8.6.] } U l D V S ,.=.Z m M *.<.<.p.<.p.f.k.f.7.b &.;.s.a.a.N.a.a.M.M.~.>X>X#XW.#XW.M.m.m.c.x.l.l.l.l.l.l.l.x.x.",
"l.l.x.x.c.L.l.y.y.i.J.J.J.L.L.@Xc.L.+X@X@X@X$X@X#XE.E.+X+XW.E.E.+X+XE.E.E.L.L.L.l.E.#X=X$X$X$XE.+XR.+XL.c.c.4.A A A L A A A m L m B S 6.l.+X=X=X@X+X+X=X2X=X$X7X=X=X$X$X$X#X#X#XW.W.m.x.m.#X#X$X2X2X>XW.W.#X,X,X#X>X2X8X2X+Xx.j.f.R.T.+ ,.x # # N v x x M M x + @ $.v @ x M . N N #XE.l.l.J.J.u.t.9.9.y.q.q.g.l.x.K.L.L.z.l.u.u.l.l.l.J..X.XJ.l.J.J.L.L.E.L.L.L.+XL.z.L. XL.L.E.L.L.L.L.E.L.L.L.J.L.+X@X=X2X=X=Xc.c.x.l.l.l.c.c.K.L.q.5.,.,.4.5.5.5.K K K L [ a i c c c c c m m C h d f k K ] 6.7.7.p.k.p.=.*.,.*.<.p.p.<.<.*.*.,.A =.S N N A Z *.=.<.p.j.x.x.f.k.M.2X2XE.v.f.l.q.0.7.f.R.=X2X+XS C C K L 5.6.5.] L K j a h a a *.<.<.*.v v M *.$.M M m m m m B a a a t t t t t a a L 4.,.=.<.p.T.L.f.4.7.q.f.q.l.x.l.c.l.l.l.l.x.x.j.x.m.m.T.T.R.R.T.x.R.Q.E.#X7.7.,.L 5.6.E.VX#XM.n.m.m.x.j.f.1.=.A =.*.A Z A A S S L L 4.5.[ 9.{ ] L L ] 5.q.] K C V h p h k ' G f f f f - - , 3 9 0 w e e r '.`.`.`.`.).r r e e r r r e / e w w q q 0 < ; = = = d U W } } ] L A Z Z =.7.p.a.h.m.<.=.=.A =.,.;.:.&.&.:.;.a.N.s.a.n.n.M.W.>X>X#X+XW.m.x.x.l.v.l.l.c.c.K.K.l.x.",
"L.L.E.E.+X@XL.l.r.u.J.J.J.J.L.+Xl.@X$XE.E.$X=X+X#XE.x.m.E.E.E.E.+X@X@X+XE.L.L.L.@X@X@X$X=X2X#XE..XL. Xz.z.z.,.B V A L V P P m L V B B S 0.L.@X@X=X=X@X=X=X&X=X=X=X$X$X$X$X+X+X#X#XW.v.f.m.#X2X$X,X,X+XW.#X2X2X,X2X2X2X2XQ.x.x.m.7.m.T.+ *.x + # @ N *.N @ M s.M.n.n.n.s.+ @ c c + 7.K.q.L u. X9.z.t.r.u.u.q.f.l.L.E.#X@XL.l.l.l.u.q.q.l.L.J.u.9.5.5.q.z.L.L.R.E.L.L..X+X.Xc.c.+XR.R.E.@X@X@X@X X@X X XL.L.+X@X@XR.R.L.c.l.l.l.l.x.x.4.,.7.7.5.L L L V V V K ] a y u m m c c m m h h f k k k j V ,.p.h.p.<.<.2.<.p.2.<.-.%.*.<.p.8.1.1.,.N m M c M =.<.<.,.A 1.f.8.,.=.,.,.,.,.4.q.f.f.x.x.v.7.A C V h a V K C j V L L j a B h a =.*.M v v %.*.*.$.M M x y y u a u y i i t t i = h t a B A <.7.=.Z A A S 7.l.v.q.7.f.v.l.l.y.v.l.x.m.m.j.h.p.7.7.p.j.7.7.K.Q.x.f.<.<.A ,.y.q.4.q.p.<.-.<.2.<.=.*.<.A Z A *.*.*.=.,.1.,.L S V j h _ _ _ k h k ] r.k d * * - - d g ^ q 3 : 1 1 < 3 : q 0 0 r e '.`.`.`.`.e r r r r 7 7 7 7 r ) ) / (.e 7 r e 9 ; * d j E Q X.' U h m A =.Z x z b &.<.a.p.;.=.Z *.=.b b v b #.:.-.;.2.2.;.-.2.m.>X4X,X,X,X#XW.c.c.x.l.L.L.L.L.L.K.K.",
"@XE.c.T.E.+XL.l.u.z.|.|.L.L.E.@X=X=X$X=X=X#X$X@X#XT.R.+XR.E.#X#X@XE.+X$X#X#X#X=X=XL.l.$X=XE.L.@X Xz.z.J.u.] C [ L C V V K L V V m B B A 0.E.+Xc.7X7X=X@X@X=X$X@X:X=X#X$X#X#X#X#X,X#X#X+Xx.T.$X9X9X,X2X+X>X#X5X#X2X8X2XT.f.x.x.j.Q.Q.6X. N # # # N ,.&.c <.!.W.m.m.W.nX>X2.<.M c @ 1.0.7.q.5.L [  . .9.q.l.K.K.K.E.#XQ.L.K.L.K.f.z.l.l.u.q.9.[ [ 5.5.5.5.0.f.x.c.y.z.@X=X Xc.L.@X@XE.E.@X@XL.L.L. X X X@X@X@X@XE.E.$X=X$XL.l.z.L.K.q.1.1.5.1.1.5.L L L L V a j K a m m m m x i + ] C k k f j j a =.h.m.p.2.2.2.-.<.2.s.s.2.s.h.n.x.h.8.*.M c M *.M M Z =.A A =.A N Z Z A A A A A 5.4.7.7.1.L N a K V h h j V h t h L L S B a a m M v x v $.&.%.M b b M M m c u x c v c y + O = = d p a j V A A Z A A =.<.f.f.j.v.f.7.8.0.f.f.v.x.h.k.p.p.p.p.p.k.p.7.7.7.1.1.,.,.1.*.N ,.8.4.,.8.7.2.<.-.-.-.-.;.=.S =.=.=.A A =.,.6.S V ] C p p k ' ' ; ; g d t.E > = ; ; 2 2 1 ) / w w q 8 0 : 4 8 8 q r e `.`.'.`.`.`.e r 7 7 r e e e e ) ) ) C.C.) e 7 8 Q k H  .i.+.Q Q E k S Z c z + + z v z . . . + z z z z n v v v v #.%.#.%.-.-.-.s.M.<X>X>X,X,X#X$X#X@X$X+XL.c.E.@X+Xc.",
"E.L.c.T.E.R.c.l.u.i.z.J. XL.R.+X2X2X$X=X2X2X2X=X@XE.$X#XE.T.T.x.@X#X=X2X2X=X#X$X@X@X@X@X+X+X XL. X.Xz.r.r.r.{ _ _ K j j j V V V m a u V 6.l.+X=X+X@X$X$X=X:X=X=X@X@X@X#X2X9X2X#XW.W.#X#X$X$X=X$X,X,X>X#X2X2X2X#XR.m.x.x.j.f.j.T.d.d.j.  N x x %.N ,.,.,.h.R.M.m.m.W.W.m.W.a.@ . + 7.x.x.q.L V 5.j H ] q.l.l.K.x.Q.#XQ.K.x.K.x.g.4.5.5.5.5.5.[ 5.[ 5.5.q.q.d.d.q.y.] ] 9.y.L. XL.E.L.@X=X@X@X@X X.X.X X@X@X@X=X=X#X$X#X#XT.v.l.l.L L ,.4.7.5.L B 5.P j j V V j j s a a a m u y i ] [ _ k k D j B =.s.a.2.<.s.s.2.s.2.-.$.v v %.<.=.<.p.p.p.<.<.<.-.M &.Z N N A m Z Z M m m c a m V V B m m m V V a j j h a h B h a B V B a s s y x x z v v b v v M M M M M m c c v v v z + + = = t t p p h j B B A A =.,.<.1.1.1.f.p.f.f.f.d.7.7.p.a.p.p.p.p.p.p.<.<.,.,.,.,.,.,.<.<.7.8.4.4.,.1.,.-.-.*.%.-.-.-.8.4.=.S A B B S B S h p j j * = ; Y X.< 1 1 1 | +.Y 1 6 R 0 8 5 '.e r e r 7 w w / e w w e r 7 5 e e ).`.`.).).`.e r e e ) e / ) +.) e e / ( i.' f k ! Q X.o.W d i + . . z z v $.. . @ X @ z z z z z z n v v $.%.:.:.-.%.$.&.2.s.M.W.6X4X,X,X,X,X2X$XL.x.c.E.+XL.",
"L.L.T.W.E.R.c.z.z.u.u..X@X XE.@X$X2X2X9X2X=XE.l.+XR.$X=X$X+X@XE.m.#X#X#X+X#X+XL.v.L.L.z.u.z.L.J.|.i.o.} {  .` k H k k j j V V V V u u m A L 0.c.$X=X=X=X$X=X$X=X=X=X=X=X2X2X2X2XE.#X,X2X$X2X7X+X+X2X>X#X5X2XW.R.j.d.d.j.j.g.g.j.j.j.j.x N N N 1.,.<.2.j.W.R.m.M.!.W.M.!.M.<.v @ x A 7.v.K.q.L L K K C K L ,.7.k.j.j.k.7.<.7.1.L 7.5.,.L L L L P P L 5.5.7.q.q.y.u.{ [ 6.6.u.L. Xc.l.L.@Xz.H.L.J.J.J.J.L.L.E.@X#X#XQ.T.l.l.q.5.L q.d.5.A V P P V P I P j s s f K a a a a m y y t = K ] ] 9.6.S Z c v x x v $.$.$.v @ @ @ . . . . . . z z v b $.&.*.M M M M *.=.A *.&.&.Z Z Z V V y s a j j m m j a h h a a h B B m V V V V V V B M $.%.%.%.$.$.$.v x x x z y y z x n z z @ + i = i * p p p p h h A =.=.,.=.A A =.A A ,.7.7.8.<.<.<.<.p.p.p.p.p.7.<.1.,.,.,.,.,.<.<.s.p.8.,.4.4.L =.=.*.%.%.%.%.*.4.S V B a u u a = p t = d f > 2 2 : ( ^ 9 1 : R R ( ].(.0 8 0 '.'.`.e e 7 7 e e e 7 7 e '.'.) e e e '.'.'.'.'.'.'.'.e r q 7 5 8 R R q / ) +.O.H f k G T ~ | G = a c x x z + . . . . @ @ @ . . z z x z z v v $.%.$.%.:.%.%.%.-.-.2.n.~.<X>X>X>X,X#X@XW.R.+X$X@XR.",
"l.c.R.E.E.T.c.c.L.u.z. X@XL.E.#X#X2X2X2X#XL.v.q.R.L.@X=X@X#X=X2X+X$X#Xx.f.f.f.0.v.y.y.q.6.6.r.i.' E E ' ' E g g f k K ` L P V B B m m m B B A 4.T.+X$X$X+X+X$X=X=X7X7X7X=X*X2X2X5X>X#X#XR.#X2X,X2X8X8X#XjX#XT.m.d.j.j.d.f.K.g.1.,.,.,.x # N x 1.1.d.h.T.#XW.x.m.#XM.>X5Xp.=.p.@ x N ,.g.@X@Xf.L ] K V B m m A ,.<.<.<.<.<.<.<.,.,.L ,.1.4.5.e.q.e.q.q.e.0.4.5.] [ { r.r._ K q.z.@Xl.u.q.I 0.u.9..XJ.J.J.L.E.K.v.7.7.1.1.1.1.L A A L L A A P P V P I [ V = = f [ j a a a a a u t = 9..X X&Xy.i   x + . + @ x # # + @ @ v #.v @ + z z @ X @ n $.-.v x v v M *.=.M &.:.&.Z N m u i s a V K V V j j C V h h C L L A B B B B V V h a b b b v v n z z @ @ + + + + i z x @ z z @ + i i i t p p p p h j A A =.,.=.*.=.,.=.=.*.*.M M N *.*.=.;.<.<.<.<.7.p.7.7.8.<.,.,.,.2.<.*.A L 4.] C S Z N M M M b c V h a h h t i * * = = > g , > 1 & : / ( q : 9 ( ) / / ) ) ) ) ) `.'.e r r e '.e S.r 7 e '.'.'.[.'.].'.'.) e / ) w / w & & 8 0 8 9 9 4 / ( ~ ` p O - > 1 2 2 % O       . + . . . M &.*.=.=.*.*.Z M M M v v v #.$.#.$.%.%.-.-.-.-.:.2.n.m.M.M.#X#X#X+X+XE.+XE.R.m.",
"l.c.R.W.R.T.c.c.L.z.z..X.Xz.E.2X2X2X=X@Xc.z.L.@XL.L.+X$X+XE.@X#XW.#X+Xv.j.x.c.v.x.y.6.[ ] _ ` { k H ` { ` g f H G _ [ [ ] K K V m m m m Z ,.,.S A 4.v.c.R.E.$X=XL.@X=X3X2X=X2X2X8X#Xc.x.v.x.$X9X>X4X5Xj.6Xh.h.k.k.j.j.k.j.T.k.1.1.,.A N N N N d.2.n.m.m.W.W.m.m.M.h.M.4XM.M.M.  + y A 1.f.g.q.P V V S ,.,.A M &.&.*.-.<.<.p.p.1.1.1.7.7.0.q.q.q.5.q.u.l.u.q.5.5.K `  .r.] _ 6.y.@Xl.q.] K 9.l.9.K K P L L A N c x m N A L ,.1.1.,.P ,.5.5.L P L K K K j p p f K K j a a a y y s K 5.h   + + . x x @ @ x x z @ z v v v v v v v @ @ @ z z n @ @ @ :.%.&.-.*.<.-.M @ z z z x c m m B B j a s a j V V V V V V L L L S V B B V h a u c z . . . . . . z z . . . i i z x z z x x i + i i i t p p p f V Z A =.=.=.*.=.,.<.=.*.*.M M M =.&.Z Z *.*.=.=.=.<.<.7.<.<.=.A Z *.c c V C k h k V a i y x y y i V h p h h p * = d = * G G 1 2 & : 4 0 ) 0 8 R ) '.w 8 r '.[.C.r e w 7 e e '.[.`.'.e e e C.) C.].].].+./ R / / ) 8 0 0 & & 0 ) ^ Q ~ 9 ~ X.| ` P I e.O.| ~ ~ ..e.I I P 1.0.7.0.d.k.d.7.p.d.d.7.1.,.,.*.*.&.$.v #.$.#.#.$.:.:.:.:.-.;.2.s.h.m.M.W.>X+XE.T.m.m.x.x.",
"c.R.E.+XW.E.E.L.L.J..X.XL.L.@X2X#X$X#XE.z.l.L.@Xz.l.L.@X@X+X+XT.T.W.W.x.x.x.x.f.4.6.L h k { { k k { { E f k _ _ [ { [ [ K V L L Z Z m u m ,.,.Z c m Z =.8.k.W.2X*X@XP.@X=X3X3X2X#Xx.f.v.f.x.+X#X5X4XjXm.5Xm.W.T.T.K.K.T.T.j.p.3.,.N N c + + N 1.p.T.T.j.T.W.W.m.m.W.m.m.,X4XM.*.x + y m L 0.d.4.L A A L ,.*.&.-.*.*.*.*.*.=.*.A 1.7.7.7.,.L V V L L L L P L 5.q.r.E k ` { 6.6.L 9.6.L B K 5.9.5.j [ 9.5.P m m A N N N A A ,.,.1.g.7.1.0.5.L A P a j K P s = p K J s s a a y t a h V p i u c x M z @ x v v z @ v v @ @ @ X @ @ X n n v #.#.n @ @ @ X @ @ @ v v . @ . . . . z m V t p a p t = = t = p h t + + i u a u u a h h h h c z . . . z z z z z . . . i i i y z y c m i + i i i i t t p h V S =.=.=.*.A Z *.M M M %.*.$.*.-.Z Z Z M M M Z Z M Z Z A Z M c x z z m S k * = d k p i i u u u h K d * * * * * * - % 2 ! Y & & : q w w ) / 8 q w 0 w e e r e e e w & & ) [.C.'.'.e e e '.'.'.].[.].].+.( R R ^ / / R R 0 q 9 9 T X.O.~ | Z.O.Y.H.H.H.t.O.A.G.Y.Y.I.Y.H.H.Y.g.g.g.0.3.1.1.1.3.1.,.1.,.,.,.*.*.$.v $.#.#.#.$.:.:.-.>.-.>.;.s.a.h.j.h.x.W.+X+XW.m.m.",
"E.E.W.+X#X#X@X+XL..X.XJ.J.L.R.R.v.x.c.c.z.l.y.u.q.6.y.L.+X+X+XL.#X!.x.a.7.=.Z m B V j d k } ` k H ` _ g f _ { ` { [ ] L V V L 1.S A m m Z Z N c A m x x c A p.x.=X@X@X@X#X*X#X#Xv.f.f.f.l.@X@Xl.a.a.k.<.p.1.d.3.T.j.j.T.T.k.d.3.A N N N N N 2.k.p.T.m.j.T.#XW.x.m.>X!.s.m.W.m.!.j.N + m A 7.K.E.l.7.L A =.*.%.-.2.<.-.%.&.M N N c N A A V B B B ] L V p = = p h _ f d f h j j p a L j t j K V K K K [ K m y m N A N N N N N N N + + a P L P m y y t K 5.K = p [ H s s a j a j V K h t i y x x v b M M b b b v v @ @ x x @ @ @ @ X X . . . . . X @ @ @ @ @ &.<.-.-.%.b z z x u a B K [ K j = O O O = i O + i i i i + O i t i t u i z . . . . + z X $ . . . + i i i i i m B u i i i i i i t s a a A m m N M N M M *.$.M $.$.v v x M N M M M M M M c c c c c x z z + i h k f * ; > E f * t h h V C j * = = - > - - ; % < R R q q 8 q ( w R w & 5 q 0 q 8 7 r e S.e ^ 3 4 C.].C.'.`.`.'.[.[.].].C.Z.{.{.D.+.~ Q R 9 R 9 9 R R T T ~ | G...A.D.G.H.E.K.Y.t.Y.G.G.Y.Y.Y.Y.Y.Y.Y.Y.Y.H.w.e.3.3.3.3.3.1.1.1.1.,.<.,.*.$.%.$.#.#.#.:.:.>.:.>.>.;.;.2.7.7.*.<.k.M.!.M.m.R.",
"R.R.R.R.E.E.E.L.J..X.Xl.l.l.f.8.7.6.6.6.q.u.z.z.9.] [ 9.y.l.l.l.7.,.Z Z A A A S S h f _ ` G , g ` k f g E ` { r.H ` L L V V L 1.S B B L ,.Z m m m m m N N m N A 7.L.2X7X=XL.l.g.f.f.f.f.L.7X$X8.<.<.,.1.N 1.1.3.1.d.d.p.d.j.k.3.,.N N # # + *.1.d.n.n.m.W.Q.R.m.!.h.!.h.<.h.h.m.R.A x x . . <.2XQ.j.p.p.p.<.-.-.$.v v x c M M M c M N m y i i i = t p p t = i i p f _ K t = a K p 5.C = p h p K  .` j p a a m m y y y u m m m a y y + O i m V a V i s [ e.H f H J f p f j j V ] C t i a N M -.-.c m x @ + x x + @ @ @ @ @ @ @ v v n @ @ @ @ X X . . .     x ;.;.-.;.2.s.j.R.#X#Xc.L.z.e.K p = O O O O i L 6.6.4.L C V j h t * t i c c z + . + z z z + i i i i i i i i B V a i y u i i i t a a m y i + y x c m m m u y c M M $.M c c m Z Z Z m m m m u y i i i i u u t * > g g > ` f = * p a h C * = = - k H G g < 3 ^ ( R / / 4 2 0 & & 4 2 4 ^ w q 7 8 e '.'.C.^ X.( ) C.'.'.r '.].[.].].].].+.i.F.{.D.o.| ! 9 R R R 9 Y Q ~ | I G...D.U.G.w.Y.w.Y.G.G.G.G.Y.Y.G.Y.Y.Y.Y.Y.Y.Y.e.e.e.e.e.3.3.3.0.0.1.1.,.,.,.*.%.%.v v n v #.#.:.>.>.2.;.-.;.=.<.=.*.=.,.<.h.!.",
"2.a.h.h.7.6.5.6.K _ ] ] 1.1.1.4.L K j f k k k ` { { { ` _ H k K L A A A P A K K j - - E ! 3 : G G , , W o.o.W G H _ j a K K P 5.j E [ [ K m m m m m y x m N N c m V A V L 1.1.,.0.g.7.d.*XE.0.7.d.2.2.2.1.,.1.p.1.3.<.2.p.1.1.*.# v v v v # $.-.-.<.n.m.k.!.<XM.~.n.2.<.a.x.m.j.p.<.M @ @ c x @ c <.M.m.=.x x @ @ x M M M M M M x c c c x u a h K k f f f d t t d p h [ p * = d [ [ K = p k = `  .f = - - = = p = t V p j P p f p s t t t V P P a s p j  ...G G , G G f f k K ` h a a Z =.<.-.=.L V s a m m y + + + @ v -.2.p.k.h.n.n.h.d.<.M v %.$.#.v @ . . @ v @ ;.M.f.0.f.q.L.c.f.8.8.L t = t O t 5.9.9.L.9.9.[ j k [ H - h B B i u y i M z x z + i i i + + i y i p C V i + i i t p j A m + + x x @ x m u O = = t t i x v v x u B S V p p d - * * p d t = p j * = * f g g g H H H j f j j t i a V j f f - % ; T T 4 0 / 0 0 9 & 2 q q R Z.4 1 ~ +.}.fXOX].OXfX[.) w w 0 q R ].].OXoXi.t.F.r. X X&XJ.F.o.O.X.9 R ~ T 3 Q o...I ..G.G.G.Y.Y.Y.G.Y.I.U.G.G.G.G.G.G.G.G.I.U.Y.Y.e.I I I I P P I 1.1.1.3.3.3.2.2.,.A N M x x v $.$.:.>.2.s.2.<.,.,.=.A Z &.*.*.-.",
"$.*.=.=.V B j k K K K K L L ,.L L _ k d f > > g g g , , g g g f V B j j s a a j f , , T Y & 2 & % ; G Q T G G Q ` ` G f s j V K | ~ ` J s y a N m a y a m N N N u m m m V A A m + 1.g.x.j.7.P 3.1.2.2.1.2.<.1.3.3.2.1.1.*.N N # # v v #.v # N *.M %.k.n.k.m.>XT.h.s.2.p.p.<.=.m =.=.*.v @ @ v v + @ M M c c c @ c c v c x z z x x c c c x u a p f k k f d h a a K d p [ K K d d f _ r.g f f = } | , ; - - - , f s f f - J ` - = - p s s s p V P s j p p _ | W W f , , f E ` H f f C ,.,.A N b c P K P P m N y # x @ x %.2.k.p.p.s.k.k.j.j.j.k.p.s.s.n.n.h.<.M M v + M k.q.y.E.L.+XR.f.,.S a O O p = = K H ` F.t. .` `  .o._ f H a i u u a u y c z i + + i i u m + m t = d d i i i i * k K j m M x x x x i i = = * d f p y x n v x u B C C f - - > > > f g - = d k d - > > > > > | H f p d p f V V a s s p p - ; ; T ~ Z.].].Z.( ].Z.Z.}.}.Z.Z.W J H ' +.XX{.].fX[.OX[.OXOX{.( R X.X.O.t.r.t..X X X7X:Xy.J.:XXXG R q q 9 T O.O.J ` t.Y.Y.G.Y.G.G.G.Y.G.G.G.G.Y.A.G.G.U.U.Y.Y.G.Y.XXI.w.5.3.1.1.1.P 1.1.3.2.d.2.3.d.1.,.A N N v #.$.%.%.-.-.=.S S S A A A Z *.-.-.",
"&.&.Z A V D k k _ E H K L L S V k E H > > , > 1 > 1 ; ; ; > ; ; - t t p t - p f G G Y T 9 : & & % < R R 3 1 G | ! E H k f H  . .! ! E H f a a a a s s s m m N N m m m a m V m y O a 1.0.0.1.P P ,.,.<.p.k.d.2.2.1.2.,.*.N @ x @ x x x c x x N N A ,.j.x.d.j.R.x.p.2.2.<.<.<.=.A N &.*.v @ + @ v v x c v v &.&.v M M M M v b M M N N N x x u a a p k E k d h h h H > - ` E _ g > , G o.` f > * W ' , ; ; ; - , ; , f G > G | G , , , f f s p a V K K s p _ | Q W , , , f W ` H p K K V m m x v N N N N N x # # v + # v # @ @ $.2.2.2.2.d.j.j.j.h.k.k.h.s.2.*.N M $.@ c A Z L 5.L t u i = = = = p f - - f - f  . ._ G W  .` f > d = = h t u B   i i i i O i t a u + a = = k H t i i = - k k t i c c @ + y + O = p f H K a y c v x u a j C K K f * > f f k H d - d > > - ; > > g E O., = - G s = O O O O t s f J ..A.Z.{.oXoX}.}.{.D.D.XXoXXX}.A.O. .f H { {.+.}.fXZ.].].Z.].}.}.}.Q Q W o.F.|.F.|.:X&Xz.z.r.o.Q T R 9 4 3 Q +.O.J H ......t.G.G.G.Y.I.I.Y.G.G.G.Y.A.G.G.A.Y.Y.Y.Y.w.e.[ 3.3.1.1.1.P 1.1.3.2.3.1.1.3.1.,.*.N v v v $.$.$.N B B B B B B B B Z Z &.&.",
"M M B B V k k k E H k H K L A V d Y G 1 < < < 1 1 < < < 1 ; ; > - p p f f p f G > > 1 1 & & & 2 & : : : 1 : 3 Y 3 < g g > G | | Y Y G G j f a a p p p p a j m B L A m a a V V m m s a P 1.0.5.L ,.,.7.k.h.p.2.-.%.-.$.$.v @ c x x x x N c x m N 1.0.x.x.5.4.0.1.<.*.M v N M *.,.A N N M v v v @ N v M M N v N x v v c c c v M M A N N x # y a a p f H H j p a f f > g E G g g g W , W E > , , G Y , 1 ; ; 1 , ; ; < G 3 G G Y | J , - f j f p p ` K f f W  .Q , , , G G G J G G H f t y m m N M *.N # x N *.%.%.%.v @ @ @ # # @ -.*.*.,.,.1.1.<.p.2.-.$.v c x c v x x u i i i   O = = = * * = - f f f f = = J J ` J '  .H f g > = p h = t h     O i i = t h h t i t O % H g O O t f g > * = = + @ @ + i t = s H H ] L a y v $.v a j j j C _ H f - d d g H g > f > ; ; ; 1 < Q X.1 3 W J - - [ P.P.%X&X%X XXX;XqXfX}.oXfXXXoXoX|.|.&XuXoXoXqX|.XXJ.K [ [ XXF.XXXXfXfXfX{.Z.Z.Z.Z.}.{.o.Q o.O.F.:X X&X.XXXr.' ! Q R R R R ^ O.i...J ....` ..G.G.G.Y.I.U.Y.Y.Y.Y.Y.I.Y.G.Y.U.U.P.I.Y.Y.w.w.0.5.5.5.1.3.3.3.2.2.2.1.1.7.d.7.*.$.%.<.*.Z B m a a a a h h a m m M M M ",
"c c m B D k k g k g g f j V V h > 9 < 1 : < : : : : 9 9 9 < < g - - p p - = = = 2 2 % 2 & : : & 5 6 & & 9 T Y < Y < Y G < Y Q Y ( Q G , p p s j p p p p p p h h h a p p a B j a f a j j j K 5.5.4.,.,.,.,.$.v v @ v v v c @ x x x u x m m m N A 1.7.d.0.L V A N N N N N N m N m ,.A N N ,.,.*.N x x N N N N N N A A N N N N N N N N N N N N a s s - - G j p p j G 3 ! ! G G T Y Q , 3 3 1 g Y G 3 , 1 1 ; 3 3 : 2 : 4 q 9 2 & T T 3 , , f f - - G J J G G T T 3 Y Q | | W G G H d f j C L A m y x + . + v $.N # v %.2.<.M @ + + + + x x m N A A A A *.N N m y i + + u y t p p * d d p - d - = = ; G g , 2 = G G > > , > % ; , % d h = * t = =   = = = = h _ _ j L K > , Y ; O p C _ G ; = * i + + + y t s G G G j L L N c M %.N j k k d f H _ K f f > d g g > > g , , < 9 9 q R ^ Z.{.D.|.qXuX0X;X-X-XI.Y.G.I.G.I.I.XXoXXXqXuX&XaXSXLX0XqXsX0XXXJ.L 4.5.&X%XwXXX|.XXXXXXXX}.}.}.}.fX}.D.O.Q o.XXi.F.{.oX{.i.! R R ^ ) ( X.+.G.O.H ..| I ..t.t.t.I.I.Y.w.e.Y.I.I.I.I I Y.U.w.e.H.w.w.5.P P L 3.5.5.3.3.3.2.2.2.2.1.1.7.7.<.<.<.<.m B h h a p p t h h a u c c c M ",
"c m B D C k k g g g f f d h h h > 9 : & 1 : & & : : : < Y Y , ; G j k H k f - - ; ; 1 1 3 9 9 : 6 8 6 6 9 ! < 2 g g G G 9 @.@.0 9 3 , > - p a s - - d > > - d d = * p d j h p p t p p p p p V K _ C h a u x x v # v v M c y c y x x m N N m N A A ,.1.,.A N m N *.*.,.,.*.A A A m A P P ,.,.1.1.,.A A *.*.1.p.p.,.*.*.*.,.,.,.*.A A 1.3.3.1.V s j - - f J f j K ' T Q T Q T T , , 1 3 3 1 G Q Y G , , 1 ; 1 : 2 & & 2 q R & 2 & 3 Y Y G , , , G , f W G ; ; T ~ ~ ~ | X.~ Y , > > G ` [ K V V L =.,.<.7.p.1.<.,.*.N c m A A y   + + # y y a a m u a m m m a p i i y p t p d d d = = = = - > 2 ; ; G , ; % ; G E , f f > - G E f H *   k h   * = p = = * f k k k K K G g 1 = p [ [ k > > ; 2 = s y m s f G T G , s V A %.N M N y j g f d d f H K k k d > g g > , g g g ! R R 9 4 4 Z.}.{.G.XX;XXXwXwX%XI.U.0X0X|.G.G.XXXXXXuXSXZXSXGXSXwXpXsX0XH.g.,.,.Z R.*X3X;X0X0XoXXXU.G.G.XX}.}.}.}.}.Z.W T O.i.i.{.| < < R q 9 R / ( O.| J J ` _ G G G j H [ j O O O s s s J J I J J j j s I 5.e.5.I I [ 5.P P P ,.,.1.1.1.1.V m N ,.,.M x i t t t t p - p h h h a c m M M ",
"c c B B h l l l k k k d t t a h , < : & : 1 1 < 9 9 Y Y Y G g f f f p f f > - - - - ; ; 1 1 < 9 6 6 : 1 G Q Q g U U < 1 3 ! 6 6 2 2 > f f p p p - d f f > > > d * - d f d d - - * d - - f f - f g d p t t y c $.v v x N m a B a M v N N N N M N N *.*.*.*.A N *.,.*.*.N A A ,.,.m A ,.,.1.1.1.1.3.,.,.,.N A k.T.1.,.*.A ,.,.1.1.3.3.d.g.K.0.3.P I J J J K I I I ..T ~ Q | Q T ; 1 , 3 , , G Q G G , , , ; 2 & & 4 4 % 5 w 8 5 & & 9 R Y 3 Y T T < 1 T T : 1 T ( ( ^ ^ ~ ^ 9 : 1 < Y W H f j [ y.4.6.f.f.7.,.,.,.V V K f p p j V y y y s s t t t a a a p a j j f f f p - , 1 ; ; ; , , , g , ; 2 2 G , ; 2 > G H * - - - f f f f f O = K * = p * p * p f k d * * = = 2 % % 2 k K j d > , 1 ; * p a s f G 9 q 4 1 s s x v x x a s g , > f f f d d d j d > f , > g g g , Y R R q 9 ].+.~ O.XXqXiXyXwXpXXXI.U.XXXXG.XXXXXXXX;XwXyXGXGXGXZXmXuXiXeXH.0.1.N M p.k.K.^.I.;X0X0XqXqXfXoXfX}.Z.A.Z.}.Z.~ X.{.{.g ; < T 9 9 : : 4 3 Y E f g H g f d = = p [ s O O i s a s s ` I = O f j t j P P K p = = O j j s a m m V V L j p a L L N y = = = = = * * * d a a m m M M M ",
"Z A D D D D k U k k h t = i i p > 1 1 1 < < 3 Q Y X.+.o.' E  .i.F.r. . . .[ ` K k j d - * ; H o.@.@.9 Y t.:X:X&X X.Xo.U ! 9 2 % : < , d p p h j d f g g , > > > > , > > * * - > * H f - , - = g , , f f a y y c @ x @ x m a V B N N N N N N N N N *.N N *.A N *.,.,.1.1.,.,.P A P ,.1.3.0.0.3.1.,.1.d.1.N N j.3XK.K.k.d.d.d.3.3.d.0.0.d.g.g.3.3.e.Y.e.I I e.w.[ ..| A.| o.Q W ; , J , ; , J W - , - - G , , 3 9 0 0 2 & 8 8 q & & q q 9 T ( ( q R & 3 ( ^ R R q ( / / R q 8 4 q 9 9 T Y G G E ' 6.6.6.] ] L L L f j f f f g f f j a y t s p = = = = = - - f , > f , 1 < T 3 1 1 ; G W W W < ; 2 % G , ; > , g f - - - g E , ; G =   K j   * p O = = j [ _ d = = = O 2 ; ; ' 9.a = j g , 1 g f = s t , 3 q 4 4 4 s + + + + + s J G , > g H f - * = d d > > > , E E g > , 3 9 T ^ ^ T O.;XqX%X^.pX-XpXqXqX0X0XXXXXXX0X0XpXwX;X*XtXHXGXcXAXiXuXiXK.0.1.M M <.*.*.K.^.eXeX0X0X0XXXG.}.}.}.Z.~ ].OX{.R 2 ; 1 Q < 9 T q 8 : & % 1 G W , g g g f * * j j p p j j t s V ` , = = * = - J K K J - = - f J G f s p p s p f p - - p f a a a i * = = = = * * t t u c M M $.$.",
"Z M Z S S h h k C C h = + m A L { W E ' ' Q Q X.' `  .F.|.i.r.r.L..XL.J.J. X@X Xz.C d C t r.XX{.oX_.' } _.aXBXtXaX:X.XoX|.1 1 2 ; , = - = = h h * f g > > d l > > g g , > ; = ; > E E Y E > 2 , 1 1 , g f V V + + y y y B K j a V m x P m N m x ,.A ,.m m A Z A P ,.,.L 1.1.P L 0.f.g.g.K.K.K.g.j.^.K.3.N N g.*X3X^.^.K.Y.Y.K.Y.Y.Y.d.d.d.Y.0.3.e...[ I w.w.w.e.I J ` | O...J s J J - J ..I J - - f f J - , O.T R q 2 % 8 0 & 2 & 2 4 & 8 ) / / 0 2 q ) 0 R / 2 q w w q 7 q w ) w 8 q 0 : T +.| o.6.{ _ ] { ] _ j _ H f , f J  .I j t s H H f - ; = - J ` J , 1 3 9 ( ) ) ) 0 & T Y Q E G > % 1 1 Y 1 , , > H - f = H { f > G - = = j j     * = = h C j p d f p * - 2 ; E ' K a a K g 2 1 , f K = - ; & & & & 3 - + + + + + j ` G E ' '  . .} H j d - > f g g g k d - f G G G G G G J [ e.0.g.K.E.%X-X;XXXXX;X0X0X0X0X0XuXyXtXcXzXbXbXSXuXuXZX0.7.,.M v -.<.<.T.3XpXpX0X;X0XoX}.}.G.A.A.Z.}.}.}.+.9 Y Q Q Q ~ 9 4 8 0 R : 2 G | E ; g E g > = E k d p p h h j k , < g g , > f H `  .` - = , J W Q ' > * > - f G W , 2 > f f p t t t t t t t h h h B A *.-.-.:.:.",
"b c c Z B u u B i h L 4.f.m.M.v.y.t.r. .} } ' ' _ |.qX:X|.u.r.9.z.L.L.L.@X=X7X7X&Xy.B B h 6..XaX Xr._..XaX&X$X$X+X=X:XdX:X_.{.{.O.t._ y.y.y.] t d = = d d = = * , g g > > g g , g E g g E G , < 3 < < G K j V 1.A 1.1.L K V j K j K K L t j B V j V 5.5.L I P L P 1.0.q.l.g.g.H.K.K.K.K.E.*X3X3X3X5XpX3X3.+ A ^.NX^.K.T.T.K.K.Y.Y.Y.Y.Y.K.K.Y.3.e.....e.Y.H.H.w.j p j I w.F.5.[ K [ 5.Y.P.F.e.[ ] K f K G G O.+.T T : & 4 & 2 & 4 & 4 & 0 C./ w 7 & q ) q 8 w q q 7 5 5 7 w e e e q w ) 0 0 ( R E _ _ _ { r.r.6.{ _ f j  .t. ...P K f J H H G f = - H | | ~ T 4 9 0 ) ) w r 0 8 4 3 T Y G < 1 Y T ~ Q ! G G E H f f ` ..g f g - * = d H - = * = = h K j = = = t j k g , G f t i u C g > , g d j H G 3 & & & & 3 f V N m N V I | | | o. . .{ ` H E g d > > > ; ; d * = - - - ; = _ I [ e.5.1.3.d.g.H.P.P.%XXX;X;X;XXXU.%XuXcXtXtXAXBXtXmXuXiXSXg.1.*.M v %.*.,.T.pX3X;X^.^.U.XXXXXXU.A.A.A.Z.G.{.+.! Y Q W W Q Y T q R 0 : 1 T X.Y 2 , < g g g o.> * * - d d d f Y ! ( X.Q Y E W Q Q g 2 2 g Q Q Q ! ; > G E Q Q 3 1 % ; ; * = p a t t a h h h a B Z M M b $.$.%.",
"&.M b m m m A 4.=X7X8X8XxXvXnX5X=X&X.Xu.r.J.&X:X:XBXJXSXaXaXtX8XxXcXtXtXtXtX8X8X=X$XV u B *.v.HXtX:XaX:XCX9X9Xb.$X$X9X9X7X:X:Xi.r.i.i.aXHXIXHXCXtX7X&XXXXX&X:X:XF.i.O.' W | o.' E | ' g g g g g T 1 G | J [ 0.s L P m V I I K K  . .K G - H k - j f H H H K H [ 5.q.e.0.q.0.0.g.5.g.^.3XcXZXmXuXrXpXpXmX*XI I g.3X3X-X^.T.^.^.I.Y.Y.Y.K.U.^.I.Y.U.w.w.Y.Y.Y.g.3.5.P I 5.w.l.0.0.5.L.P. X@XH.l.0.0.I K [ H f E Y T : 2 & 4 : 2 & 8 & 4 5 0 C.e r 7 7 r ) w 8 w C.C.C.e w e '.'.C.e e ) ) w w w 9 ' { [ { 9.y.q.5.q.u.q.q.q.9.9.J.u.u.w.t.t..._ H - J  .O...Q 3 : 8 q w r 7 7 q 8 4 4 T 3 3 < 1 T ^ ( +.Q 3 G g H , E ` J g G G , - % - H - = * *  .[ j p t t t t d f , , < - i a y V H g Y G d - f G T R R q 3 f J P 1.P P 5. .| r.o.o. .{ { ` E E g f , > - ; * d p p h j j p s t s V L ,.P 1.d.3.0.0.g.H.P. XXX0X0X;X-XyXZXbXZXxXBXyXSXiXyXyX7.1.<.*.M %.*.,.T.3X^.K.I.Y.Y.G.XXG.G.A...| | O.X.+.! G E g g E G Y T 0 q 4 9 ^ ~ 9 < Y ! ! ! Y Q , > ; ; ; ; > g ! R R R ! 3 Y Q O.' G , < T Q Q Q 3 1 Y Q ! Q 9 T 9 < < , ; - d V B a u u i i + i x c M $.%.$.$.",
"a.s.p.h.M.#XjXDX8X8X9X5X5XjXnXjXDXHXLXHXJXZXaXtXBX:X&X:XtXxXxXxXHXHXAXBXrX3X#X@X9X9X4.c Z &.s.HXGX9X9XtXHXCXCX9X+X$XHXCX$XJ..Xy.i..X&XVXHXPXHXCXHXSXtX@X X@X+Xz..Xi.i.r.t.t.F.r. .i.i. .o.r.r.o.| W , f f O O P V ,.5.5.L B V 5._ W W O.| t.` , f - - f _  ...t.K 5.5.9.u.l.g.K.*X3XrXrXrXuXuXuXtXzXpXcXmX3X^.H.K.^.^.^.K.K.^.U.U.U.U.U.^.^.^.^./.I.P.XXP.-XpXK.f.1.1.,.,.,.A L 1.E.@X@X#X@X%XL.g.K.H.w.[ _ W < T 4 1 4 ^ ( R T 4 & & & q e e e e r r e ) e / '.C.'.'.C.e S.C.S.) e e e q q r 0 g E _ ` 9.u.l.l.z.L.z.l.L.@X@X@X@X@X%X&X XF. .` I [  . .` J 3 4 w q r e e ) e r q q q 9 9 4 & q ( +.].R 3 ! G G , Q G % ; < < , 2 = - > % % > g  .k = = = t t t * > 1 1 , > a a t h g G Y Y , - - , G Q ^ Q G g j P 1.1.5.w.9.[ 6.{ { { {  .' ' E g , , , > - - p p p h j h a a i y x N m x x m 1.<.1.1.5.w.u.Y...Y.G.Y.H.H.L.@X:XtXSXJXyX7X*X1.<.<.-.b $.N *.K.E.H.w.w.e.e.e.G.` ......` W J J W G g f d - f , 1 < q q q ^ ( R R ! R Y 9 9 < : 9 9 3 < < 3 ! Q ) ( ( ( @.Q Q X.Y , ; < Q X.X.( ! < < ' ' W Q < 1 1 : < , - p h a Z S S A S 8.v.j.h.h.h.s.2.>.>.",
"FXFXvXxXjX8XxXVXBXBXVXDXGXHXKXKXHXGXDXVXBXtXBXAXSXBXaXSXGXAXAXGXLXHXGXSXSXBX8X7XxXjXf.Z x :.a.kXxX9X9XCXDXDXtX=XVX9XHXHXHXJXCX=X+X7XCXHXKXIXIXIXIXHXHXHXHXVXjXtX&XL.&X:XBXaXBXaXSXSXaX:X:X7X7X&X:X:XaXwXZXUXIX,.1.,.A N Z V L q...` `  .f f f W - - f f G H f f [ [ K ] q.J.L.@X3XyXmXcXrXrXyXcXrXAXcXpX3X*XpX*XpXI.K.^.^.^.^.^./././.^.^.^.^.*XU.U.0X0X-XyXcXT.j.=.A *.<.7.,.,.7.#X#X+X@X@X#XL.L.@XP.w.[  .| | 3 q ^ ^ R ^ ( ( & : 5 8 8 r e e e e r r e '.e ) e e ) e ) C.'.'.e e r r q 7 q 0 9 ! Q W _ [ e.w.q.L.E.l.l.E.E.K.#XE.@X@X XJ.e.e.5.I 5.w.e.J J G 9 8 0 ) C.'.C.e w q q q w w 8 q w ) '.8 : ^ 9 < Y X.3 % 2 & 2 % % ; ; % % 2 g G = * p d p t p j f Y : 2 1 g p i t p > < : < < > f f , > f f j V j V L 6.w.l.u.q.6.6.6. . .' Q ! E G , , > > d d f f h h a a a u m x c c c x @ @ *.,.,.P L P I I I O.t. . .[ 9.z.y.u.J.H.0.5.7.M $.%.:.v v M N x.g.w.e.5.[ [ [ I J J ` I J J J J g f d p p * - - 1 < T q q ( ( R R R : 2 2 : 9 9 4 9 / ( ( ( ) ) ].) ( ) +.+.o.X.i.X.Q Q Q T Y g , > > ' ` ` o.' Q Q | O.t.z.J.L.#X2X9X2X$X+X$X4XW.m.p.-.2.n.6XMX",
"jXkXbXDXVXVXAXAXHXHXHXHXGXGXHXHXVXCXGXHXHXHXJXHXVXSXSXAXAXHXHXDXBXcXxXxXxX8X2X$X9X2X8.x . -.N.4X,XVXVX9X$XCXxX$X,X,XCXCX8X2XCXCXCXCXHXPXKXIXKXIXKXHXHXKXPXKXKXHXGXVXSXSXIXPXIXIXIXIXIXHX8X8XVXJXaXBXBXSXPXPXIXIXIXPXKXIXIXKX,X8.L j j  .K K K [ K K [ V a j a C f H ` r. X Xl.e.%XwXZXZXyXyXyXcXrXcXcXcX3X^.3XpXeXeXpX^.Y.^.0X/./.0XpXpX0X/.^.*XU.0XyXuXwXyX3Xg.n.&.x M <.p.*.N k.#X#X$X$X@X@Xl.K.l.H.u.t.| G | Q ( +.( 0 R R 3 : 9 8 q 7 7 e e e `.e r e e e e C.e w w C.'.'.C.q q r w e q q w / ( ~ T 3 G G J K J.@XL.E.@X@XE.#XR.K.l.l.q.0.0.0.0.0.w.w.I J J 1 & 0 ) e e e r 7 7 q r ) C.e e r r q & & 9 4 : R ^ 4 & : : & 2 2 2 % % 2 < < ; > , g k k C K K f Y : & 9 ! j p h d < 9 : 9 ! G g f d p h B V V V A ,.q.z.L.l.l.l.q.q.r. .` Y < < < , , g f k K E _ K C V A A M M v x x c c y y v v $.A A V j j J _ H E [ { [ 6.r.{ [ [ 0.g.h.<.%.:.>.n n x x 0.5.e.e.[ I [ I f I I I J j j K J d f p t a t * d g G T q 4 q R q 0 R 9 4 4 9 ( ( / / / / / ) ) ) ]./ 9 9 R ~ o.o.E G g G E Q | o.{.|.|..X.XXXqXqXXX|.|..X&X=X8XrXjXjXvXVXDXGXDXVX4XjXkXvXvXkXlX6X",
"bXDXGXGXGXAXAXAXAXAXAXbXbXbXAXGXKXHXDXVXVXDXGXHXDXVXBX8XCXJXHXAXHXSXAXSXBXtX7X=X$X+XZ . . ;.n.hX4X4XjXjXxX9XVXHXCXCX8X8XDXCXHXCXGXVXHXPXKXKXFXIXKXIXIXHXHXKXKXHXHXHXHXjXPXHXGXGXHXKXIXPXCXCXIXIXIXPXIXIXPXPXIXKXIXIXPXKXKXIXIXIXLXHXHXIXPXGX#X0.,.,.L y + m N V { E - - [ J.:XaXBXZXBXrX3X3XrXyXyXcXtXSXSXcXcXeXpXmXmX^.3.Y.^./.0X0X0X0X^.^.^.^.*XeXiXiXiXcX3XE.2.v @ x M M @ y 8.W.+X#X#X@X=X=XL.l.L.J.|.G.Y ~ {.Z.Z.) R q q 1 3 ^ 0 0 7 & r r r r r r r e e e w w 8 q ) C.) q 7 7 r ) ) w 0 / w r w q q 0 T W `  .t.J.:X7X=X#XT.m.h.d.0.5.5.0.d.g.d.0.1.1.P s G 4 T ) e r r 7 5 7 e e S.S.r e r 7 & 7 8 & q 0 R 8 & : 0 r 7 7 & & % % : 9 : 2 Y g - * d k C d ; : 8 0 R Y f C k f ! R 8 9 R ! g k C L 1.<.=.*.N S 6.q.x.E.E.R.m.v.y.y. .E < < 1 1 < G E _ [ { J E _ K C A A M -.*.b x z i . . @ @ # c N A V j H E J E { { { { ] C _ ] d.j.p.-.:.>.>.#.n z + L [ ` I K I K J s J I K J j j V j p j a t B a p j W Q ~ R 4 8 q 9 q ( ( ) ) ) ].'.].].) e e ) '.'.].+.^ R ~ +.D.|.XX.X{.F.{.{.|..X.X:X$X$X$X=XtXwXsXaXaXtXtXBXbXVXDXCXCXCXVXvX8X9XvXvXkXkXkXvXDXGX",
"DXDXVXBXBXBXAXSXAXGXHXGXbXvXbXDXDXDXDXVXGXHXHXDXHXSXAXHXHXSXHXHXHXGXAXGXSXBX9X2X+X$XZ . x ;.s.4XvXCXHXkXGXxXGXCXCXGX8X9XVXCXIXHXPXGXHXKXFXkXlXKXKXGXGXKXKXKXKXKXGXPXHX2XPXKXKXKXPXHXKXPXKXKXIXPXIXIXIXIXIXIXPXGXHXIXIXKXPXIXPXPXHXGXvXGXVXPXKXHXGXvX6Xh.p.h.=.u h f d j ] q.q.l.8XtXBXBXBXZXZXbXwXtX3X3XrXcXAXcXLXpXyXSXpXY.Y.eXeX0XU.U.^.^.*X^.uXuXwXwX-XE.l.j.$.v $.$.M v c ,.f.E.l.q.5.K [ { i.u.u.9.F.XXO.X.Z.( +.X.1 % 2 & T ( 0 0 8 & 7 7 r 7 7 7 r r r 7 5 q w / C.C.e 7 7 7 q w ) w w ) e e e w w w 0 3 X.+.D.i.` = = L 1.1.7.d.0.0.0.d.0.j.g.,.P 0.0.P J 1 : q w q 7 & 5 r S.e e r 7 7 r 5 % 7 8 % : ^ / & % : w w r 0 9 8 & & 9 9 : 4 2 , , - p V K f > : 0 ) / 2 % f f , T ^ 9 9 R Y ` _ K L L ,.,.A a ,.6.5.y.+X#XM.T.v.f.q. .E G 3 < 3 Y Q ' ` [ { .. .9.5.,.,.A c v v v z + z y c n @ . + c *.,.L a K K K _ C C { ] _ [ 5.7.d.<.<.n #.#.X z z i L [ G f H H j f f s j K K V V a t p j p t j j d G ' o.Z.Z.R q 0 q q ) / ].C.) OXOX].[.}.[.OXOX[.].+.Z.].}.}.{.{.|..X.X.XF.|..X.XJ..X8X9X2X8X8XtX8X:X7X7XtXxXnXkXjXkXkXjXjXjXjXvXCXCXCXDXDXDXDXDXDX",
"GXHXGXAXGXGXVXGXHXHXbXVXDXbXbXbXVXVXDXGXGXGXGXGXGXGXGXGXDXVXGXGXHXHXDXGXHXvX4XjXxXM.+ + x ;.s.M.jXPXCXvXjXjXvXDXCXVXCXxXDXKXKXVXBXHXJX8X2X2X5XxXVXVXHXPXKXHXHXHXPX2XLXHXPXHXGXDXKXKXPXKXKXKXKXGXkXjXHXGXKX4XGXKXPXKXPXIXIXKXGXDXxXCXCXCXCXVXGXHXKXHXDXCXkXkX4Xj.A m u m L f.v.v.x.$XxXcXcXBXZXAXcXxXrXrXxXcXBXBXAXtXyXZXBX7X*X*XwXeXeX0X;X;XP.P.wXZXtX%X@XK.,.m $.n $.:.v v =.<.,.q.[ ` | ' | T G | O.t.t.G.+.^ ^ Z.X.H | ; 3 ^ ( ) 4 5 w 7 7 r 7 e e 7 q e e q w w ) C.C.C.e 7 7 7 e '.'.) ) ) ) r 8 q & 0 7 : ) ( ^ T J J J I ,.,.,.0.0.1.5.q.q.l.L.R.E.E.K.9.J T q 5 & 8 w ) ) e e e 7 2 % r e e 7 & q R 3 Q T 3 3 3 q q w ( X.T 9 R ( R 8 4 3 1 , f K P ,.1.j G G T 9 & 2 3 T Y Y Y T T T J G j f p t p f C p ] q.5.7.x.#X#XE.H.g.I K .._ g J G J E ` ' ` K q.q.q.f.v.=.x M v z @ . @ z z @ v @ @ n @ @ v -.-.c M =.A S L a u h V L 4.S Z ,.c x *.+ + Z i C r.k f K C t i h B t i a V V h p d f f j G f f ! ~ ^ +.) w w w w r / [.[.C.].OXoX{.O.O.{.oXoXXX:XoXoX{.{.D.F..XXXXX.X.XJ.z.z.J.L.2X8XjXxXkXjXjXjX8X8XjXjX8XjXjXkXvXxXvXCXvXvXVXGXGXGXGXGXGXGXGXDX",
"VXAXBXBXGXPXPXPXGXPXGXDXDXbXVXbXVXVXDXDXGXGXGXDXGXHXHXGXGXVXVXDXDXGXGXGXGXvX4XkX6Xa.+ x b =.p.M.4XKXDXDXvXxXvXDXCXxXxXxXDXGXHXHXtXBX7X*XrXAXHXPXPXPX2XBXHXDXPXbXHXL.LXSXHXGXIXGXKXGXHXKXKXKXKXKXkXHXHXCXHXHXHX$XCXCX2XxX2XCXxXVXCXCXCXkXjXkXCXCXkXkX4X4X4XhX4Xj.h.<.N M *.=.8.a.p.v.x.l.E.2XbXGXHXGXVXCXvXxXxX8XVXBXVXSXBX7X*X*XrXuXyXyXwXyXwXwXwXtX7X=X#Xd.x + #.#.#.n @ *.p.1.m 5.` ' ~ R ~ ~ Z.Z.D.G.t.D.+./ q +.O...Y.J W ^ T T 4 q w q w e e ) ) ) e ) / w / / e e e e e e r e `.'.'.) w 8 & 5 8 0 7 w 0 / & 5 q ^ X.O.G.Y.5.L K L P K L [ u.J.H.l.l.L.R.J.A.Z.( ^ w w ) ) C.w r 7 5 2 % w e e '.) / T 1 1 1 < T ^ ~ ( ( ( ^ ~ ( ^ w w w / q 3 J I P P P P j J G G 0 4 5 w q 0 ^ ~ W W W W J _ ` ` _ H G G = f C B m ,.<.1.V P I K K [ [ J G G G H _ K H K 4.k.k.p.N + . c @ @ z v v v z @ @ @ n n #.n @ #.. @ #.v @ x c i i t a h V B B ,.m m m + i m u L _ d * f h h h D u u B L C t * * d f G E J G T ~ ^ R ) ) ) C.) ) '.'.[.[.( ^ ].{.{.r.9.r.y.y.y.z.r.i.F.t. .9.|.:X:X7X8X9X7X7X9X8XDXVXbXvXvXxXkXxXvXvXkXxXvXDXGXGXGXbXzX8X8X8XzXbXGXGXGXGXGXGXGXGX",
"GXGXGXAXVXBX8XR.R.xXVXDXGXGXHXGXDXDXDXDXDXDXVXDXDXGXHXGXGXVXVXVXDXDXDXCXCXkX4XkX,X7.z c M *.p.W.>XGXkXCXbXvXCXCXxX8X8XjXkXkXVXGXHXJXxX8XxXBXVXGXHXPX5XxXHXGXPXGXLXGXPXLXLXPXHXHXPXKXKXKXKXFXFXFXPXIXIXGXxXCXDXjX8X8X2X8X2X9X8XxXCXCXkXjXjXjXkXkXkXkXjXkXkXkXjXM.k.=.m c c y c Z Z S ,.,.1.4.7.0.d.k.v.E.2X2X2X2X2X8XxXBXBXBXBXVXtXcXcXcXyXyXyXrXSXtX=X*XR.1.N A M v v v M ,.7.L K w.t.O.X.~ +.Z.+.A.D.t.O.D.Z.X.( Z.o.`  .J J | T T G ~ ~ ^ ) ) ) / w e w w w w w w e e e r r r 7 r e e ) ) r 7 q q 8 / ) ]./ : 0 0 0 q 3 G G J 9. .K H k k G G H 9.J.J.L. X%XXXO.( ^ 0 / ) C.C.'.) w 8 5 & 2 8 e e '.C.w 0 : 1 1 T ~ ( ) ) ) / 9 T 9 4 4 w w q 4 3 G ` [ I P P J G 3 4 q w 8 q w ^ ^ T T G T T G G G < , > - - f K K L ,.<.p.k.j.P P P P P s K K H J j j j j V i y + c + x c M M M b x @ + + . @ @ . X X @ @ X #.n @ x c + . + i t u a V A ,.k.i i +   i a m C f l k f t i i = a a C 5.[ C k H  .` ..| H G ! T ^ 9 ^ ) Z.Z./ ) ) ].].].^ +.oX|..Xz..X:X X.X XL.i.i.z.z.J. X=X7XtXCXVXVXvXxXvXCXDXvXkXkXkXvXvXvXDXvXxXxXvXvXvXkX1X1X2X8XxXbXVXDXDXGXGXGXGXDXDXGX",
"GXGXHXHXAXGXvXE.>XbXDXDXDXVXDXbXDXDXDXDXDXDXDXVXCXVXVXDXVXVXVXDXDXCXjX4X4X4X4XkXkX7.x c M Z <.M.2XvX#XjXvXDXDXvX8X8X8X8X4X4XjXxX=X7XtXVXVXxXcXAX2XxXHXvXGXHXjXDXAXx.8Xf.f.0.9XR.7.a.h.p.p.M.hXkXkXjX4XDXCXkXkXCXxXjXGXxXGX8XCXkXCXkXjXjXkXCXkXkXkXCXjXkXkXjXjXM.7.,.A Z b x x c A Z Z Z A ,.1.1.7.7.7.f.j.k.7.1.f.L.$X=X9XxXVXVXbXAXbXcXcXcXtXrX3XK.0.7.1.N N ,.*.v v *.,.A A P P w.t.O.O.~ +.+.| O.D.D.D.G.D.Z.Z.D.o.J H - J | ` ` | O.| Q X.^ ^ q 4 8 8 8 q w q w / e w 7 7 7 7 r r 7 r e e e & / C.].].) 0 & R w w q 4 4 G W ~ | ' E G Y G , g ` t.t. .` H f T 3 4 4 q / ) ) w w w 7 8 5 2 & '.r e / w / ^ q R +.Z.( 0 w w q 4 4 4 & 5 4 5 & & : 3 J H I K J G T 4 4 q r q q w q 4 : : 3 T T ^ T 3 : 1 < G E j j B V A *.-.<.N N P V 3.l.0.] ] P K V V V L 4.x.7.,.,.A <.=.x b &.<.n.W.>XW.M.h.n.a.2.>.2.>.:.$.$..   . i i i O +     + + y m m Z u u m y i i = > l f t t h L h D L C k k _ {  .H _ ` G W O.o.~ T ^ ( ].Z.^ ^ Z.}.{.].Q ' |.F. X.X&XBX9X9X8X7XBXaXtX7X7X9X=X+XxXvXVXVXvXkXkXkXjXjXjXjXkXvXxXkXjXjXxXCXDXDXvXxX1X1X5XzXxXxXxXxXDXGXHXGXDXVXVXDX",
"GXVXDXVXvXGXHXVXGXHXDXDXDXvXbXDXDXDXDXDXDXVXVXDXbXbXvXvXxXvXvXCXvX8X>X#X#X5XkXkXvX=.z y x x N p.,XjX+XjXvXCXDXvX4XjXkXjX8XjXjX9X2X7XBXVX8X#XR.E.DXbXPXjXnXvX*.7.7.L.T.+Xc.+X8.f.x.W.+XM.j.m.!.m.j.+XM.8X9XxXkXjXjX9XDXjXGXjXDXVXxXkXjXkXvXCXvXvX9X8X4XjXjXjXjX>X<.7.<.&.M M c z z i i y m N N N N N =.<.p.j.f.f.p.f.d.7.f.x.c.x.k.d.k.0.0.d.0.0.L V A P A N N N A m m ,.,.A m P j P j G _ W ~ Q J H H W W W W J H W O...| , s K I I [ e.` J | G R 0 q 4 q w w q 0 w w 0 q 7 7 7 e r r r r r e '.0 Z.}.fXoXQ ! Q ( ) ) R 4 & & 5 9 R R 9 4 9 9 : 1 3 T Q | o.o.| T T ~ ~ / w w w q w ) / / / q q e 7 ) C./ / R R ) Z.+.0 5 7 7 5 & 4 q q 5 2 & 4 & 4 3 3 G G , , 3 q q 8 r r r r q 4 & 2 : 3 T T 3 4 : < 3 G G G H V m m m x # x m N d.E.@XK.*XIXBXBXVXVXVXAXSXGXGXGXPXPXKXKXIXPXPXGXkX5XhXvXFXFX<XkXFXMXMXMXMXlXhXGXMXm.7.p.=.u m Z m m ,.8.8.p.m m y m A u i i f =   * C C u   B 4.5.h * f _ { _ > f H g ' O.` | T Q | {.D.W R }.{.+.D.' g |. XaX:X$XBX9XtXVXxX2X9X8XtXvXVXDXDXvXvXvXvXvXnXkXkXkXkXkXkXjX4XjXjXvXvXvXjX4XW.m.j.nXxXnXjX5X8XjXxXVXDXGXGXDXVXDXDX",
"VXBXCXxX8XzXvXxXVXDXbXGXHXDXDXGXbXbXbXbXbXbXCXCXVXbXxXxXjX8X8X8X,X#XW.#X,XkXbXjXjXM x x m x x A x.2X>XVXxXjXvXkX,X8XjX5X8XjX8X#X2X#X2X8X3X2X5X3X5X8XnX5XnXnX!.W.2Xx.2XT.c.v.2XR.+Xx.+X8XkX2XE.v.W.4X,XjX2X8XjXjX4X4X4XxXjXxXkXCXvXvXvXvXvXxXkXjX8XjX8XxXxXxXCX4Xp.p.<.M c M b z c c c Z A N x y A A A *.=.=.=.=.<.,.=.N Z A =.A =.,.,.N A ,.,.,.A A ,.,.A A A s a V m m V V V P P P p j ` _ ` I [ ..' W W W | ..J J O.O.| G s j P L P w.e.`  .' W W ^ ^ ( ) ^ 8 9 T R / / w w r e r 7 r r r e '.]./ ^ fXsXo.O.oX+.+./ 0 q q w C.w / 0 8 5 5 5 & 4 4 : 3 Y T T G | Z.{.{.].) w w ) C.].C.C.) w / r 7 ) ) 8 5 4 0 q R R 8 5 5 5 & 5 5 8 q q & & 4 : 3 T T T T 4 : 4 q 8 8 7 7 7 7 8 5 & : 3 T T 9 9 9 3 3 G G , - s a m m N M M M =.m 7.8XHX9Xy.=XCXVXGXHXKXPXKXKXKXPXIXIXKXHXPXPXPXPXPXPXIXPXHXDXvXGXKXKXKXPXPXKXPXGX5XM.m.W.2XxXHXHXDXxXjX2X+XW.jX8X9X8XxX8X7XtXy.9.] j i   O m i u i = t _ { _ _ g G _ E ` ` , G J J ! D.D.W W i.|.i.i.{ 9.aXtXBXtX$XJXCXVXDXvXVXCXkX5XjXvXnXjXvXnXkXnXMXMXvXnXvXvXkX8X5X4XjXkXkXvXvXvXkXkXvXbX8XnXvXnXjXjXnXxXbXVXDXDXDXVXDXDX",
"jXxXxXvXVXvXxXvXvXGXVXDXGXbXvXjXvXvXbXbXvXbXvXvXvXxXxXjX8X9X9X2X#X+X,X5X4XvXCX5X2Xc N c m c y m 8.m.W.CXvXjXvXjX,X4X5X2X2X2X2X#X2X#X#X2X2X8XvXxXVXVXjXjX5X>X,X>X,X8X$X2X$X+Xx.E.$Xx.f.T.R.T.E.$XW.M.x.jXCXCX8X>X4X8X4XCXjXCX8XxXvXvXCXCXvXvXkXkX8XjX9XjX8X8XxX2Xa.s.<.Z Z *.=.&.M c x x c b M *.M N N M M M *.=.N A A A A A =.=.<.<.=.N N A ,.L 1.P P A s s N N s P V V P P s V P I V P ] L [ [ [ [ W Y G J ` [ [ j | ^ ~ G f V P 3.1.0.w.e.t.t.` ` ..O.+.~ W T T ^ X.+.+.) / / w q 7 7 r e r r 2 2 ; D.:X' {.dXdXoX].w q w e S.'.e q 7 7 q 8 8 & & 4 R X.Z.Z.Z.O.D.{.}.].( ) ) ) ) ) / ^ ^ 4 q w w w q 4 & & 9 : 4 8 8 8 8 7 8 q 5 & & 4 : & 2 & 3 q 0 R R R q 0 q 5 5 7 & & 7 q 8 3 3 T T T Y 3 , 1 , , , - = = y a x m M M N Z 2XVX$X@X8XVXHXHXHXHXPXIXIXIXPXIXIXKXIXPXIXKXIXPXPXKXKXKXKXHXHXPXPXKXKXGXHXKXKXKXjXhXGXHXvX7X2XCXGXHXGXHXHXGXHXHXCXVXCXvX9XE.2X7X$X=XCXGXCXv.i u i     t D D h j k H _ ` ..` H f H J H t.F.W J F.XXJ.&XL.L.BX9X8XxX$XHXDXDXVXvXDXbXjX4XkXDXbXhXnXnXnXnXvXvXvXnXjXjX4X4X4XjXvXbXbXbXvXvXkXkXvXvXjXvXVXVXvXxXjX5XvXvXvXvXvXvXvXvX",
"8XjX5X8XvXjX8XVXvXGXvX8XjXvXDXDXvXvXvXvXvXxXkXkX5X9X8X8XxXjX8X9X2X2XjXjX4XvXvX2X,Xc A c c i i u 7.f.f.xXVXDXGXjX8X4X4X4X,X#X#X,X#XE.>X2X#X5XxX8XjX>X#X2X2X2X5X5X>X>X$X2X$XR.#X+Xv.L.$X$XR.E.@XR.#X8X9X,X+X>XjXxXjX9X4X9XkXxXCXDXkXvXFXFXCXCXCXCXjXjX8XCXxXxXVXjX;.&.b M Z Z &.=.<.<.p.a.a.<.-.*.c M N N M N *.=.*.=.,.<.=.Z N =.*.*.M c x N A L 5.V P P s N P P P P P 1.0.N + y + m a A L V L 5.0.0. .| Q W K L 5.p Q T ^ T f j K 5.P 0.u.e.e.t...` | O.O.W W o.t.O.| | X.+.+.+.) / q 8 0 / q & 9 Y 2 H &Xi.J.t.oX+.0 7 q e e e e 7 5 7 e ) w w 8 8 9 0 ^ ~ X.O.D.D.D.Z.X.( ( Z.) ) ) ( ( ( 9 ^ ) R 0 0 / 0 2 & : : & 8 q 8 q q 8 q 8 & % 2 2 2 & 4 4 4 4 q 0 0 ^ q 4 8 q 8 5 0 R T G G G G G T J E ` 9.F.H.w.5.q.f.f.7.,.=.A m A x.9XSXIXPXDXHXDXCXxXkXxXCXCXCXnXMXT.bX1XGXjXPXHXHXGXVXxXjXjXxXxXvXCXDXGXHXHXHXKXHXHXDXvXGXHXvXVXKXKXKXHXHXHXKXHXDXKXHXHXGX9XVXGXKXIXPXKXKXDX4Xv.v.v.0.V i u ] _ { _ k G j f f f ` ` K F.|.` K  X9.] SXSXl.7XCXvXDX#XGXDXDXDXDXbXDXGXbXkXvXvXvXnXvXvXvXnXkXkXkXkXjXjXkXvXCXbXvXvXvXvXvXbXbXvXkXxXvXxXxXvXDXDXDXVXvXxXxXjXjX8X8X",
"5X8XjXjXjXjXjXjXjX8X8XjX8X8XjXvXvXbXCXbXxXkXkXvX,X#X2X$X#X+Xc.+X2X8X8X8XvXVXjX>X!.<.m m m y i y S 8.8.VXCXDXbXvXjXkXjX5X>X#X#X#XW.W.#X#X2X8XjXjX4X2X2X,X,X,X2X4X4X,X$X$X,X,X$X#X#X+XE.@X@XE.E.#XjX4X4XjXjX4X8XjX4X4XjXkXkXvXCXCXkXbXDXDXDXDXDXVXvXVXCXxX2XVXxXDX&.&.&.z <.=.c ,.p.#X,XW.W.W.m.n.s.<.M c *.*.=.<.=.-.<.<.<.=.*.M Z *.A m u u V L I 0.e.e.e.w.g.g.V I d.A 1.3XAXGXbXQ.c c + <.*.N P I 9.` O.J 5.V I K ! X.( 3 f j J K I I e.e.e.[ [ [ [ [  .e.[ [ F.I.F.t.t.D.D.o.O.X.^ R R R 9 : G E  .u.&XHX&X` E Y 4 0 7 5 e e e 8 7 r w 0 0 q 9 2 T ~ 3 D.F.{.G.t.O.O.Z.].].].Z.].X.( ].Z.~ Q ( R ( ( T 3 T 9 T T q 8 4 4 q 0 q 4 : : 1 3 3 < < ( ( ^ 9 ) ) ) +.Z.R / / 9 / ( O.t.t.t.9.t.|.|.u.J.ZXtXtXtXcXVXcXCXxX#Xv.,.m m +XAXHXJXGXDXCXCX8X8XjXxXxXxXvXDXnXAXnXjXGXVXvXPXGXGXDXVXvXxXxXxX9X2X9XkXCXDXDXGXGXHXHXGXAXBXAXHXbXDXGXKXHXHXHXHXHXGXGXHXHXGXGXHXPXPXPXKXPXKXKXKXFXM.#XvXvXkX$XA K ] ] ] [ C j K [  .[ { 9.I.[ [ *X*Xq.l.tXK.$XxXxXGX>XGXKXCXFXDXvXDXvXDXDXkXbXjXvXvXnXnXnXnXnXnXkXkXxXxXvXvXvXvXvXvXvXbXCXbXvXkXvXvXvXvXvXvXvXbXvXkXjX8X8X8XjX8X",
"8X8X8X8X8XjX8X8XjX4X5X5X8X8X8XxXxXxXkXkXkXjXjXjX#X+X9X7X$XR.l.+X9XjXxXvXGXGX5Xh.7.Z u a a y y a V L L 2XvXCXvXkXvXbXxX4X2X,X,X#X#X#X#X#X2X2X5X5X5X4X2X2X2X4X5X5X4X4X,X$X$X,X,X#X=X$XE.@X*X=X3X8XjXjXjXjXjX4X9XjXjXkXvXCXDXCXCXCXCXbXvXvXbXDXVXvXHXvXxXGXDXVX#X>X  b -.M b p.,.f.W.#X+XW.W.!.M.M.x.a.p.M M.m.m.=.p.p.2.2.p.p.a.a.<.<.=.B a a V L L s = s 5.H.H.5.1.V d.3.IXPXAXzXMXPXKXnX$.v + +   + = H f j V K t - , T ^ 3 , f J G J J `  . .[ I P [ [ [ I P I 5.w.H.u.t.t.t. .{.i.| G , , g G ` .XLXJXSXtX7X&X.X|.+./ 0 & 5 7 & 5 0 0 q R ^ T 9 < , W | |.F.t.t.t.t. .| +.{.}.Z.].+.+.{.D.o.| T 3 R ^ G T X.+.Z.X.^ ( ( ~ ~ ( Z.( ^ ^ Q ~ | | Q 3 T ].( ].].].X.O.Z.+.+.+.+.D.F.|..X:X:X&X&X.Xq.*XxX2X5XbXGXDXDXVXCX8X@X6.C V tXJXJXBX9X9XtXCXxX8X8X8XtX8X8XjXVXDXvXxXbXbXjX8X9X8X8X8X8XjXxXxXxX8X9X8XjXjXjXkXDXVXCXvX8X3X7XxXVXGXKXKXKXHXHXHXHXHXHXHXGXDXDXHXKXKXKXKXKXKXKXKXPXGXFXDXGXIXPX+Xq.] V V L ] ] 9.q.l.l.l.u. Xu.u.#X#X3X2XAX5XE.1XvXHX5XGXKXDXGXGXDXGXvXVXvXjXbXvXvXxXvXxXvXvXvXvXkXkXkXxXxXvXvXvXvXvXvXbXCXbXvXvXvXvXvXvXvXxXvXxXxXkXjXjXjXjXjXjX",
"5X5X4X4X4XjXjX4X4X4X,X,X2X2X2X4XjX8X4X8XjXjXjXjX,X+X2X2X@XL.+XtXGXGXGXVXkXxX5Xh.,.A m B a i t a V V V f.CXxXvXkXbXvXkX5X,X,X#X$X#X#X#X#X,X2X2X2X2X2X2X2X,X2X2X4X4X4X2X,X>X$X#X,X2X>X>X2X8XrXtXxX8XjXjXkXjXjXjXkXvXCXCXDXDXDXCXCXDXDXDXCXCXDXGXDXGXGXDXvXjXxXh.Z @ X $.b M M 8.#X#XT.E.#X#X#XW.M.j.p.<.@ p.k.M.h.m.M.!.>X>X~.M.m.>X+Xm.v.6.L L ] e.] K J I e.5.I 1.P K.5XGXDXMXHXGXGXGXIXIXUXUXIXIXxXt t p [ K a 5.[ W 3 1 2 < Q 3 3 3 3 J ' | ` I [ e.5.[ [ [ 5.I 5.0.5.I P e.u.u.|.&XXXi. .G.|.sXtXSX8X=Xv.v.l..X:X(./ ( q 8 w 9 : : < 3 Y Y 1 G ' , _ i.XXJ.t.9.t.t.i.{.XX{.X.X.+.+.+.D.D.O.o.T G T W T O.{.{.}.O.~ O.{.Z.+.X.~ Q Q ~ o.+.D.D.+.! O.oX+.Z.].Z.D.G.{.o.| i.O. X:X-X=X7X&XL. XH.j.zX5X6X5XbXFXMXvXzXxXtX X[ j h  X&X9XtX8X8XtX8XxX8X9X8XtX8X9X7X1X1X5X8X5XxXvX2X2X5X9X8X8X8XjXjXxX8X9X9X8X8X8X8XjX8X8X8X3X2X3X9X8XjXkXvXxXjXjX8X9X9X8X8X2X#X,XjXKXKXKXKXKXKXKXKXKXKXPXKXFXKXKXHXHXHXSXxX2XL.c.L.u.L.L.J.q. XH.L.2X#XGXzXVXbXx.+X9XVX>XkXDXvXFXvXvXDXCXvXkX9XvXxXvXxXxXjXkXjXxXxXjXkXkXkXxXvXvXvXvXvXvXvXbXbXbXvXvXvXvXvXvXkXjXjXxXkXkXkXkXjXjX8X",
"2X,X>X,X5X4X4X5X4X,X>X,X2X,X,X2X4X8X8X9X9X8X8X9X8X7X9X=X&X=X7XSXBX8XxXvXvXDXjXp.<.=.A V m t t p j h h B xXxXvXkXxXkX4X,X,X,X,X$X+X#X#X#X2X2X2X2X2X2X,X,X,X,X,X,X9X4X9X2X,X#X#X,X#X2X9XjXxXzX8X8X8XjXkXkXkXkXvXCXCXCXbXvXvXvXCXDXkXbXCXkX8XjXvXCXDXvXGXHXVXW.m z $.. v 2.p.=.7.R.*XK.R.#XE.W.R.h.k.,.+ c *.k.h.W.M.m.h.m.W.~.,X6Xm.W.+X$X$X@X@X XL.L.P.H.w.5.I I d.,.Q.m.5X6XGXMXGXMXkXFXhXhXhXMXbXVXVXcX@XK a t j g G < 4 9 9 9 3 3 4 4 G W W H J I I P I I I [ 1.1.3.1.I P 3.e.w.H.J.H.u.H.&XtXtX7XtXGXjX9XL.z. X:X|.+.( R ( X.O.G G X.| E G g - ` j { u.@X:X@XJ.i. .` o.F.i.W Q o.O.O.i.G.i.i.o.| W G Q Z.{.Z.{.+.~ O.D.{.O.| +.D.O.O.i.i.O.t.| O.|.{.O.D.}.F.F.F.F. ... .9. XL.*X*X*XL.L.=X@XT.bX5XbXbXzXjXvXvXzXvXBX X[ H k C 5.&XaX8X8XxX9X8X8X8X8XtXtX8X8XxXxXBXcX8XrXvXzXrXzXxXxX8X8X8X8X8X9X9X9X8XjXjX8X9X2X2X5X8X8X8XxX8X4X5X4X2X2X9X9X8X8XjX8X9X,X5XkXFXGXKXKXKXKXKXKXKXKXKXKXKXKXKXKXHXHXPXHXxX=XL.f.f.l.z.q.] J.l.L.8X#XDX8X5XrXc.2X2XVX2X4XbXvXDXkXxXCXVXVXvXjXjXjXxXxXxXjXjXjXkXxXkXkXkXvXvXvXvXbXvXvXvXvXvXbXvXvXvXvXvXvXkXkXjXjXkXkXkXkXjXjX5X4X",
",X>X>X>X6X4X4X4X2X,X,X4X2X,X,X,X4XjX8X4X,X$X$X$X=X=X7X$X+X$X&X=X7X2X5X2XQ.>X!.*.=.A m m a a p a h t u i $X8XxXjXkXkXjX4X2X2X2X$X+X+X#X,X2X2X,X$X,X$X,X,X,X2X2X2X9X8X8X9X2X,X2X2X#X4XjXxXjX8X8XjXkXvXvXvXvXvXCXDXDXCXCXvXvXCXDXDXDXDXDXCXkXkXxXxXkXDXxXp.*.k.7.M + @ . M c ,.7.0.@XE.#X*XE.E.T.p.m x . Z =.7.*.<.m.j.h.n.M.M.M.W.#X#X#X$X#XE.z.y.L.L.L.@X%XE.w.3.L x.T.m.vXkX6X<XkX~.W.kXkXvXvXDXzX8X8XVXAX7X7X:XE g ; ; 3 R q & 4 8 4 3 3 T T J J J J J J I ` [ 3.1.1.0.g.0.1.I P P 0.@XtXZXcXtX8X7X2XGXGXKXCX=Xz.J.|.{.W Y O.W E k t.XXF.` ` r.9.i.y.z.6.R.8X+X@X&X X9.[  .t.O.o.O.t.t.t.t.F.i.O.O.| W Q | X.~ +.+.o.o.Z.{.D.o.i.F.i.t.F.G.O.t.t.oX&XF.J.J.F.F.J..Xi.J.J.9.L.=X2XbXDXDXCXVXSX7XT.bXzXAXbXzXhXvXbXxXCXtXJ.` H _ ] 6.=XCX9X9X8X9X9X9X8X8X8X8X8X8XtXxXrX7X3X*X#X3X2X5X8X8X8X8X8X8X8X8X8X8XjXjX8X9XrX9X5X9X9X9X5X8XjXjX4X9X9X9X8XtX9X2X2X2X2X,X4X5XkXvXFXGXKXKXKXKXKXKXKXKXKXPXKXGXKXGXGXHXHXHXxXE.l.f.q.5.K J.J.L.xX2XrXrX2X@XL.8X9XVX8X5XvXbXDXvXxXvXVXbXvXvXxX8XxXxXnXnXxXvXvXvXvXvXvXvXvXvXbXbXvXvXvXvXbXbXbXbXvXvXvXkXkXkXkXkXkXkXkXkXjX5X6X,X",
",X>X>X>X<X,X>X>X>X>X>X,X,X#X#X#X>X4X9X,X$X$X$X$X$X$X&Xz.z.&X&X@X7X=X9X8X2X#Xh.M =.A m a a j h p j h a i x.8XjX8XkXkXjX5X4X2X2X$X#X#X#X,X,X,X#X$X#X$X$X$X$X2X2X2X9X8X8X8X5X2X5X9X4XjXxXkXjXxXbXDXCXFXCXCXCXFXDXFXCXFXDXDXDXDXDXCXxXjX2X>X>X>XW.v.h.p.h.7.p.=.c @ $.@ -.x p.+ 1.1.1.q.P.@XE.L.g.1.m =.=.m M c Z =.*.=.p.n.m.h.h.h.x.x.R.E.#X$X@X@XL.K.L.@X=XE.g.1.,.#Xm.xX>XjX~.hX<X4XhX4X>X6X5X5X5XzXQ.vX1XtX:XaX{.+.Q < 1 & 7 7 5 4 q q T T T G W W J J W W ` ` I I I 3.0.0.3.I 1.P V P 3.g.E.*X2X#X2X8XGXvXjXv.L.z.&X:X' J  .f J.z. X:XXX X:X7X:X=X=X9Xc.2XvX#X=X=X&X XJ.J.F.F.F.F.F.i.9.t.z.t.o.D.D.o.~ T T ( X.X.O.O.O.G.{.|.r.i.9.9.|.|.F.|.|.&XXX.X7X Xu.P.tXwXJ..X%XL.tXVXxXDXbXbXCXBXtXz.K.cXcXxXnXbXvXvXnXxX7X Xy.H d k ] y.=XjX8X2X8XjX8XjXxXrX8X8X8XrXtXrX3X8XcXrX2X8X#X1X2X5X5X5X8X8X5X9X8X8X8X8X9X9XrX8X9X8X8X8X5X8X5X2X5X9X9X9X9X9X8X9X9X9XjXjXjXjX4XhXkXkXDXKXKXKXKXKXKXKXKXFXGXKXPXKXKXKXKXHXvXR.v.q.q.0.K J..XL.7X9X2XcX7Xl.c.xX2XCX9X2XvXxXbXkXvXxXvX9X5XxXjXjX5X5XjXkXkXvXvXvXvXvXvXvXvXvXvXvXvXvXvXbXCXVXCXbXvXvXkXkXkXkXvXvXkXkXjXhX5X4X,X>X",
">X>X<X<X>X>X#X#XW.W.>X>X+XW.+X#X#X2X4X,X$X2X2X$X=X&X@Xy.z.@X@X@X@XA     m 7.p.,.=.,.A V B C j h j V h a ,.9X5X5X4XhXjX5X2X,X,X$X$X$X$X2X2X2X2X=X=X=X$X=X2X2X2X2X9X8X8X8X9X9X8XjXkXkXjXjXjXvXDXDXvXvXkXkXvXFXDXCXCXFXDXDXDXCXbXvXxX8X2X#XW.E.m.f.j.h.m.<.p.p.<.v X X 2.-.5X+ P V 5.0.e.q.l.q.4.4.m =.=.c c x c M x + + z b *.a.!.R.W.W.+XW.R.T.L.E.@X#X@XT.f.7.7.$XR.#X$X5X#XbX,X4X4X4X<X#X,X8X2X2XvX<XDX6XrX X|.! | O.O.Q 8 7 7 5 8 q q 0 ^ T T G T T T G G 3 J I I I P I e.0.1.1.3.0.3.N + + m T.R.M.p.<.=.,X8X7X=X:X:X9.H I t &Xy.6.y.z..X@X&X=X$X9XxX8XHXGXGXxX=XL.J.J..X XXX.XF.|.F.9.t.u.9. .D.D.O.+.^ T +.X.^ X.O.O.O.F.&XqXwX.XJ.XX.Xi.F.t.u.@X7XBX@XR.7XtXuX@XJ.&X7XBXGXDXDXvXDXDXAXSXtXH.&XBXrXxXBXVXxXxXBX*Xu.i.{ f k V f.#X9XjXjXjXkXjXnXxXjX8XzXrXrXrX3X7X3X@X@X@X#X2X2X5X5X4X5X5X8X,X9X8X9X2X2X9X8X8X5X5X8X8X8XjXzX9X9X9X9X8XtX8X9X8X9X9X9XjXjXjXjX4X8X8X4XjXCXGXHXIXGXFXKXKXKXKXKXGXKXPXPXFXGXDX>Xf.7.q.q.K J.L.l.@X2X#XtX2Xz.l.BX7XxXxX9XDXCXDXvXvXxXxX>X#X5X5XjX4X5XhXkXkXnXnXvXvXvXvXvXvXxXkXkXkXkXvXvXbXCXbXvXkXkXkXkXkXkXkXkXkXjXhX5X4X4X,X>X",
">X>X,X<X>X#X>X#X#X>X>X>XW.W.#X4X8XjXjX9X2X9X=X+Xz.y.z.6.6.6.C S u m A ,.,.m m ,.M =.A A V C H j d j a h u 2X>X2X,X5X8X4X4X2X2X2X2X2X2X9X9X8X8X9X8X9X8X9X9X9X9X9X9X9X8X8X8X8X8XjX4X5X2X2X5XkXkX5XjXjX4X4XkXCXDXvXCXCXvXvXvXkXkXxX2X8X9X#Xx.v.x.m.W.h.!.m.n.*.M -.%.N.2.!.6XbXBXGXHXrXl.5.0.0.x.9XE.m.a.vXDXDXk.=.a.<.M c + + M <.<.p.m.!.W.W.E.E.Q.R.K.x.f.7.7.d.x.xX9X2XjX4X4X2X,X#X,X4X>X#X,X2X3XrX1XhX>X*X X{.O.| | t.{.+.0 7 8 q q q q T T 9 T ~ X.X.^ T T T J [ e.[ I 5.5.1.3.,.A ,.1.,.N N + x . Z @ z c c f.8.4.4.V i a u =Xy.y.&X@Xz.L.=X7X8XVXVXCXDX4XDXCXxXtXtX:X X.X X|.z.J.F.9.t.i...o.+.| O.Z.X.R X.Z.~ | D.G.o.F.uXSXBX&XJ.&X XJ..Xu.J.aXAXtXd.f.T.L. X&XJ.:XJXBXxXDXbXbXGXbX7XBXBXL.H.tXtXBXcXzXxXxXVX+X] i. .> f 7.R.+X#X5XjX5XkXjXjX5X5X5XrXzX8X8X3XBXrXg.K.rX3X2X5X8X8X8X8X8XjX2X8X8X2X#X,X2X9X9X9X8X8X8X5X5X8X8X9X9X9X9X8X8X8X8X8XjXjXjXkXkXjX8XjXjX8X9X8XkXvXbXKXPXGXvXDXKXKXKXKXKXKXFXKXGX2Xp.7.f.y.L l.J.u.L.@XE.#X@Xz.u.JX=X9X8X2XVXvXbXvXVXvXVX2X#X5X5XkXjXjXnXvXvXMXvXvXvXvXvXxXkXkXkXkXjXjXkXvXvXvXvXkXkXkXkXkXkXkXjXjXjXhX5X5X5X4X<X,X",
"<X<X,X<X>X#X#X#X,X+X#X4XjX4X,XjXhXlXjX8X9X&Xy.] { [ ] ] C V S S S L L L ] V N L A <.1.,.P j f f g f t = B R.8X>X2X,X,X4X4X4X4X,X2X9X,X$X,X,X,XjXkXjXjXjX9X9X9X9X8X9X9X9X8X9X2X$X,X2X,X9XhX5XkXkXjX5X,X,XjXvXCXvXvXvXkX4X8XkXjX4X,X#XW.R.T.T.R.T.Q.h.!.M.a.s.-.s.2.s.M.<X,X2X8XjXVXVXPXPXx.k.x.m.M.>X5X4X,X,XjXMXDX5XhXDXkXp.M M <.,.,.,.<.p.p.p.k.7.,.<.h.W.2X8X4X>X#X2X5X4X>X#X4X,X>X,X,X>X>X>X#X*X2X*X@XL.F.F.O.' | {.|.{.(.(.+.R : : R q 8 q 0 ^ ( ^ R T T W 3 W ' ..e.H.w.1.1.1.1.,.,.A N m m c c n @ . z v n &.&.c z z x u $X.Xz. X Xz.z.$X7X8XBXVXxX8X8XkXkXkXDXGXjXR.c.@XJ.z.z.`  .F... .Q X.X.~ Q Q o.{.G.t.9.:XaX:XuX&X7XBXtXP.L.%X:X:XP.J.BXBX%Xz.0.l.7XBXJ.l.BXxXAXxXVXDXVXVXVXAXBXxX@XL.SXcX8XcXcXxXxXxXL.q.i._ f d 4.R.W.>X4X4XxXkXvXjX5X8XjX8X8X8X9X3XxX9XL.R.3X2X#X2X5X2X8XjX9X2X8X2X9X8X4X2X2X2X8X8XjXjX8X4X4X4X8X8X8X9X9X8XjXxX8X8XjXjX8X8XjXjX8X8X8X8X8XjXjXjX5X8XjXkXxXCXHXPXHXKXGXFXFXFXDXMXp.h.j.f.q.z.J.l.@XK.E.@X@Xl.l.BXrX9X8X@XGXKXjXVXxXjXbXDXxXvXDXVXvXxXkXnXvXnXvXMXvXkXjX5XhXjXkXkXkXkXjXjXjXkXvXvXjXkXnXxXkXjX4X1X5XjX5X5XhXjX5X<X",
">X>X>X>X>X#X#X#XW.#X2XjXkXjXjXhXM.n.p.=.S C V d C K _ ] L 4.4.6.,.L C C K h s N *.<.,.,.L J , , g f d t V x.9X8X9XjXjX9X4XjXkXkX2X2X,X,X4X4X,X<X6X4X4X4X4X4X8X8X8X9X2X2X2X2X$X$X$X2X,X4X4XhXkX4X4X5X,X>X4XjX8X5XjXkXkXjXjXjX5X>X+XW.R.m.T.T.T.T.R.m.M.M.a.2.s.a.2.2.M.<X4X4X4X4X4XW.#XvX8XvX5Xm.M.W.>X>X~.W.>X4X>X4X6X>X5XDXkXM.j.k.7.<.<.7.p.p.x.m.R.>X5XjX8X5X5X,X>X>X>X>X>X,X4X>X>X>X>X>X>X2X2X=X*X@XL.J.z.i.t.o.t.{..X|.i.i.i.X.R R / R q 0 w / ( ^ R 3 3 3 ^ ~ ~ W ` e.w.0.1.1.1.1.,.L V N m c b b v z X X X n n X . . . . o o i 4.v.f.0.f.0.v.c.M.m.M.+X<XlX>Xn.a.M.>X,X2XL.@X{ i.` f t.| , , G Q O.F.|.XX.X:X7XBXwX*XtXtXR.2XrXrX*Xl.P.yXL.L.aX7Xe.5.q.*XaXSX@Xz.BXxXVXzXDXVXbXbXvXxXbXAXE.g.BXBXbXBXbXVXAXBXL.u.u._ f k 1.R.W.#X,X4X8X4X5X2X2X5X8X8X8X8XVX8X8X8X2X9XjX#X#X>X9X8X8X9X>XW.#XW.+X,X,X4XjXjX9X4X9X9X4X,X,X,X4X8X4X4X9X5X9X9X9X8X8X8X8X8X8X8XjXjX8X8X8X8X8X8XjXjXjX8X8X8XjXvXvXCXvXDXFXFXGXFXn.j.h.v.7.q.l.J.=X%X*XP.l.5.5.=XL.@XtX#XvXVX9XCXvXnXvXbXjX8X8X9XxXjXjXxXvXvXvXvXjX8X5X4X4XhXhXhXhXhXjXjXjXkXkXkXvXxXkX8X5X4X4X4X4X5XjXjXjXjX4X>X",
"6X,X>X>X>X+XR.x.m.+Xm.7.=.*.Z x *.*.*.A S 4.5.] _ ] ] ] 4.4.4.4.5.] C K K a y V ,.<.,.1.1.K f , Y > > h B 6.+XjX,X2X2X,X,X4XhX4X4X,X9XjX8XhX4X<X4X4XjXjXjX4X9X9XjX8X2X,X,X2X2X2X2X8X9X4X8XjXjX6XjX8X9X5X9X4X8X9X9X8X8X9X9X9X>XW.W.W.W.E.R.R.R.R.T.#Xm.x.s.&.s.s.2.s.M.<X4X5X5X4X4X,X>X>Xj.m.!.>X!.W.W.W.W.W.W.W.W.4X,XM.M.,X,XW.>XW.M.m.m.!.W.>X#X>X2X8XjXjX8X5X5X6X1X,X>X>X>X2X>X>X>X>X>X>X,X2X1X*X#XE.L.z.l.u.r.r.i.z.J.z.y.r.O.+.( R R 0 q 0 4 q 0 ^ ^ R ~ W ~ ~ | | ` _ I I I P P P P P P P A Z Z &.$.n @ X X n n X X @ z X z z z b &.;.s.a.N.M.>X>XM.M.M.M.N.M.M.M.>X9X2X+Xz.6.y.y.j ..`  .J f G ..t.XXuXuX7XyXwXtX7X=XcX7X3X=X3XxXtXL.w.@Xl.L.BXwXl.w.l.%X7XtXz.g.cXcXAXCXbXxXxXDXDXvXxXBX2XK.tXcXxXzXzXbXxXtXl.5.6.j * d 4.!.W.#X>X>X2X>X>X>X>X5X9X9X5X5X8X2X2X8X8X8X5Xx.9X>X2X8X2X2X2X#X#XW.W.#X#X,X8X8X8X8X8X9X9X2X2X2X2X9X8X8XjX8X8X9X8X8X8X8XjXjXjXjXjXjXjX8X8X8X8X8X8XjXjXjX8X9X9X5X8X5X4XDXFXFXGXMX4XW.h.f.A l.L.L.L.L.E.L.g.0.q.2X@XL.8X2XVXHXVXVXVXvXjXjXjX2X#X5XvXxXxXbXVXbXvXvX4X5X4X4X4X4X5X5XhXjXjXjXjXjXjXjXjX8X6X,X,X,X2X4X8XjX5X<X,X4X5X5X",
">XW.!.M.m.x.f.8.8.f.f.4.1.p.v.h.;.7.s.p.8.8.4.L ] 4.6.5.4.4.] L 5.5.L L K s a 1.<.1.<.1.5.P f , g 1 > f p V v.#X,X#X$X2X8X9X4X>X4X,X9XjX,X4XkXhX,X4X4XjXjXjXjXjX,X>XW.W.#X#X,X,X9X8X5XjXjX5XjXhX,X2X2X2X4X9X4X8X8X4X2X#X+X#X+XW.W.#X#X#XE.R.R.R.T.#Xm.p.<.&.;.;.s.a.M.6X4X5X4X>XM.W.W.!.m.n.n.!.W.W.W.W.>X>X>X>X>X>X>X>XM.h.m.>X!.W.W.#X>X>X,X,X>X>X>X#X#X>X,X2X1X1X4X4X4X,X>X>X!.W.Q.>X,X>X>X>X>X>XQ.E.E.R.L.L.L. X@X X X@X XJ.o.O.~ Y T 0 0 R R ^ ^ ^ T 9 T ~ +.~ ~ | Q J J J J J J J J K P P 4.A m c c n n n n #.#.n #.#.#.n z n n @ n #.#.#.B.a.N.M.M.M.M.M.N.M.~.M.<X4X,XM.=.8.S y.[ 9.9.K f p [ u.l.&XJXLXyXrX@X7X8X2XxX2X3X#XL.#XtXwX@XJ.u.J.BXyX&X*XL.H.7XtXH.q.tXrXrX8X>XQ.>XzXGXGXGXGX3XE.rXrXxX5X2X2X8XtXl.] 6.K f j 4.W.W.W.W.W.>X>X2X2X2X2X5X9X2X2X5X2XjXxX9X9X8X2X2Xv.x.E.T.#XxXxX8X,X,X,X#X#X2X,X2X5X5X9X5X9X5X4X9X8X8XjXkXkXjX8XjXjX8XjXjXxXjXjX8X8X8X8X8X8X8X8X8X8XjXjXjXjX8X8XjX9X8XDXFXFXKXhXjX,Xp.7.B +X@Xl.R.K.E.E.g.1.0.@X@Xd.E.E.5XxXVXvXvXvX8X8XjX2X2XxXvXvXvXvXvXvXvXxX5X4X4X4X5X5X5X5XjXjXhX4X4X4X4X4X,X1X2X4X1X,X>X>X5X5X4X>X~.<X4X4X",
"h.k.a.f.v.f.0.6.,.8.q.q.7.7.8.8.p.k.f.0.8.8.6.4.4.4.5.5.6.5.] ] 6.5.5.L V s N 7.<.1.<.,.5.[ j f 9 : < > t B 4.f.$X,X2X2X2X4X4X,X4X#X,X4X>X6XkXjX5X4X4X4X4X4X4X4X<X6X6X4X6X5X5X2X2X2X2XjX8X>X5XkX2X2X9X9X9X9X8X8X2X,X+XR.m.W.E.W.#X>X#X#XR.T.m.m.m.m.m.7.p.p.&.;.a.a.M.~.>X,X,XW.M.R.m.m.>X~.W.W.M.M.W.W.W.W.>X>XW.W.M.M.!.W.!.m.M.!.W.>X>X#XW.!.W.Q.>X>XW.W.W.W.W.Q.>X>X,X,XQ.!.W.W.Q.#X>X>X>X>X<X<X1X1X1X1X#X#Xc.E.R.l.c.R.+XL.i.+.~ 3 T R ^ ( ( ) ~ R 4 4 ~ X.D.| G G G G G Q W G G G J J J j L B i i i $ z n n #.#.#.#.#.#.v n #.#.#.#.>.>.#.#.#.#.>.>.2.N.N.N.a.s.a.M.W.m.s.S B.S 6.6.6.K q.P e.rXHXAXBXAXtXrX8X*XxX3XR.5X8X*X3X*X@X=X-X%XL.u.u.wX7X=X7X@XK.=X7XL.l.tXxXxXzXDXVXzX5X2X9X5X2X#X@XxXxXBXxX9X#X3XxXL.] 9.9._ j 8.W.#XW.W.M.>X,X4X4X2X2X2X5X5X5X,X,X2X#Xm.T.2X8X8XE.E.#Xm.+X8X8X8X2X5X5X1X>X1X>X#X#X1X>X2X2X2X5X8X4X4X8X8X8X8X9XjXjX8X8XjXjX8X8X8X8X8X8X8XjXjXjXjX8X8XjXjXjX8X9XkXjXjXvXCXHXKX>X,XW.p.f.A x.f.6.E.x.x.T.d.A 0.E.T.f.#X>X>X#X8XjXjXxXjXjXxX2X2XxX8X8X8X8XjXjXjXjX4X4X4X4X5X5X5X5X4X5X5X5X4X4X,X,X4X4X6X4X,X#X!.M.M.W.2X2X,X#X!.M.",
"p.p.p.f.v.v.q.6.4.4.6.q.q.7.7.f.7.f.f.f.f.v.v.f.4.4.6.6.6.6.[ ] 5.q.5.L h s V 7.1.1.1.L 1.L j g q 9 3 > * V ,.L v.2X8X$XW.2XjX4XjX>X>X4X4X4X4X,XkXjXjX4X4X,X,X,X<X<X6X4X4X2X>X>X8X5X2X8X2XR.>X2X2X2X2X2X2X2X2X2XW.+XE.W.E.+X+X#X,X>X#X#XR.T.m.x.T.m.m.<.2.2.@ $.2.2.s.n.m.W.>X!.#X>X>Xn.m.n.M.~.M.M.W.W.!.!.W.W.W.W.!.m.n.m.m.h.W.W.>X>X#XQ.W.#XW.Q.#X>XW.W.W.W.#XQ.W.W.>X,X>XQ.>X>XQ.!.!.#X,X,X<X<X>X>X>X>X>X#X>X2X,X#X>X2X9X=XF.O.! 3 T T ^ ( 0 0 9 4 4 3 ~ Z.A.~ G G ^ ~ ^ ^ ~ T 3 3 3 3 G f k d i i i y z z n n n n #.#.#.#.:.:.#.#.#.#.#.#.:.:.:.>.>.>.>.>.;.>.B.a.a.B.:.&.B.c f.4.4.4.L VXPXGXGXAXzXcXDXVXxX5X*XxX2Xg.*X8XrXtXrX7X3X%XL.L.5.e.7XwX=XwX*X@XL.=XP.q.tXAXAXDX8XVXVX8X2XzXbXcX3X7XxX8XcXxXcX8X2XtXl.L 5.6.C t ,.#X<X#XW.M.>X4X4X4X2X,X2X2X5X5X9X9X9X2X2X2X2X8X2X#X2X9X,X>X2X#X8X2X5X8X2X1X>X#X#X#X#X>X>X1X2X2X2X2X2X4X8XjXjXjXxXjXjXjXjXjX8X8X8X9X8X8X8X8X8X8XjX8X8X8X8X8X8X8X4X8X5XjXvXGXKX6X4X!.<.p.Z A S c.Q.m.j.x.7.L j.E.2X7.=.x x N m.>X5XkXvXCXBX8X2X9X2X2X9X2X9X8X8XjX,X,X6X4X4X5X5X4X,X4X4XjXjX5X4X,X>X>X>XQ.W.!.R.T.h.M.W.W.W.R.m.h.",
"h.v.v.v.l.y.q.q.l.q.6.6.6.5.0.f.q.y.v.f.f.p.7.,.p.6.6.6.6.6.[ ] ] q.5.V a m A 1.1.7.1.L I P K E 0 8 < > - j L S 6.c.$X$X$X9XkXkXkXjX4X4X4X>XW.#XW.#X,X,X2X4X2X5XhXhXhX4X6X6X2X2X#X2X#X#X#XR.E.l.W.m.m.m.R.T.R.E.T.W.+X+X#X#X#X#X2X>X#XW.R.R.T.T.T.R.h.<.<.n   . v v -.2.a.M.W.!.M.m.!.M.>XW.M.a.M.!.W.W.W.W.W.W.W.M.W.>XM.n.M.<XM.T.!.!.R.R.!.W.>X#XW.W.W.W.>X>X>X>X>XW.W.>X1X,X1X2X>XW.W.>X>X>X~.Q.!.!.W.Q.#X#X#X#XW.W.#X>X>X$Xt.| J G T T T ~ ~ ^ T 9 3 T ^ ~ ..W J W X.) ^ q w q 4 4 3 9 3 3 f d d h F u y i z n n #.#.#.#.#.n n #.#.&.#.#.#.n #.:.>.B.B.>.>.>.>.>.>.&.b &.>.:.8.Z 8.=.+ DXHXbXbXDXGXGXAXbX8XxX2XK.2X*XK.*X*X3X7X3X7XtX7X=X&X5.5.:XtX7XwX*X@X*XtX3Xq.3XBXvXvXxXVXDXbXxXxXxXrXcXtX8X2XxX8XbXVXxXtXy.4.y.6.C h =.+X4X,XW.M.>X4X,X4X4X2X2X5X5X5X>X,X,X5X8X5X2X2Xk.v.R.#X2X2X,X#X8X2X5X5X6X1X1XQ.1X1X1X1X1X1X2X2X2X,X,X5X8XxXxXxXjXjXxXjXjX8X8XjX8X8X8X8X8X8X8X8X8X8X8X8X8X8X8XjX5X4X2XjXvXvXFXjXkX,X<.M c c B x.R.W.m.j.<.,.f.<.p.A *.<.k.-.-.M ,X4XjXvXxXxX8X=X=X2X2X2X9X9X9X2X,X,X,X,X4X4X5X5X,X2X4X4X4X,X>X#X!.!.R.R.M.R.!.!.M.M.m.x.x.m.m.x.",
"f.f.v.y.f.q.q.9.5.6.6.q.y.y.q.q.q.q.0.7.0.f.f.p.7.8.8.6.9.9.{ { ] q.5.h a S ,.1.4.7.5.I [ [ I ` q : & 1 * p C L B a L +X9X$X+X,XjXvXjX,XW.a.a.#X#X#X,X>X+XM.x.v.k.k.p.1.1.7.0.d.7.l.l.l.L.@X@Xq.m.v.v.m.E.+X$X$X+X+X+X$X#X#X#X,X>XW.R.m.T.T.T.T.j.W.p.<.;..   . . @ $.-.p.m.W.W.W.M.>Xm.M.n.~.M.M.M.M.!.W.>X>XW.>X!.M.M.!.!.M.h.!.W.Q.W.!.R.T.T.W.W.W.>X>X>X#XW.W.>X,X>XW.#X>X,X>X4X4X1X,X,X>X!.>XQ.R.T.W.>X>X,X#XW.!.W.>X#XW.E...Q W Q | T T X.~ R R ~ Z.D.D.D.t...J G R / / w 8 5 5 5 q 0 T T , > > f h t i i z z n v v v b $.n $ $ $ $ . $ z b b #.#.&.:.:.:.#.#.n n #.:.:.&.;.;.;.Z . i PXCXGXGXFXbXDXDXbXVX3X*XK.#X@XE.7X=X=XtXrX=X=X-X=X@Xl.9.&X:X-XwX*X@X=XBX7Xq.2XVXVXVXVXzX5X8XxXxXzX8X3X3X7XrXAX8XxXbXBX9X7.,.y.5.V V Z +XhX4X#Xm.#X,X2X5X4X4X2X5X5X2X5X5X>X,X9X8XjXVX#X2X2X#X>X>XW.R.5X1X2X5X1X1X6X1X1X1X1X1X1X1X2X5X5X2X2X5X9X8X5X2X9X8X8X8X9X9X8X8X8X8X8X8X9X5X5X5X8X8X8X9X2X2X2X2X8X8X4XjXvX5XjXvX6X4X7.. c A c m A p.k.k.<.1.h.Z A m A <.p.M $.M !.R.#X2X2X8XtX$X#X=X2X=X2X2X,X#X,X,X,X,X4X5X5X5X2X>XW.M.m.m.m.M.W.W.W.W.W.W.!.R.m.m.M.m.m.T.x.j.",
"v.v.v.y.f.q.6.6.q.q.9.q.y.y.9.6.6.5.5.q.7.0.p.7.7.q.q.6.9. . .t.t.] V L L S L ,.4.q.5.K I 9.[ , : 8 8 3 Y E k d d p a V 4.f.m.M.M.4XW.<.=.,.=.<.,.8.<.8.p.4.A =.=.,.,.,.,.,.,.1.q.w.0.L 5.z.q.L 7.p.v.+X#XW.R.+X#X#X#X>X,X,X>X#X#X!.m.M.R.W.T.m.T.m.k.h.v . z n $.-.-.M *.h.!.M.!.!.!.M.M.!.W.W.W.!.M.M.!.W.W.>X>X!.M.m.M.M.M.M.M.M.!.W.!.!.!.!.W.~.>X>XW.~.W.W.!.W.#X>X#X#X>X>X>XW.1X4X>X>XQ.#X>X#X#XW.W.#X#X#X4XR.#X5X>X>X1XL. .Q G G Q W T ~ +.~ ~ A.Z.D.}.}.|.G.|.| +.w q w 7 r 7 5 w w 9 q < ; > > d h u i y z + z v x $.&.b z $ $ $ $ $ $ n n b b $.$.b b n n n #.#.#.#.#.&.:.&.-.+ DXGXVXbXFXGXGXbXxX8X3X3XE.L.3X*X@X:X-X3X*X=X7X3X=X=X%Xu.5.&XwX7XwX*X@X=XZX7X@XBXVXzXVXbXbXxXzXzXcXxX9X3XCXbX8XxXxXxXCX8X$X0.6.q.6.L B =.<X4X>X>X+XW.,X4X4X4X4X4X4X4X5X2X#X#X>X5X8X2X#X+X#X>X>X#XW.+X#X5X5X5X6X1X#X*X1X1X2X2X2X1X1X2X6X>X2X5X5X2X2X5X8X>X5X8XjX8X5X5X5X8X8X9X9X8X9X2X,X9X8X8X8X5X5X5X9X8XjXjX5X5XjXhX6X4X<X8.z . Z c *.M <.s.p.p.7.,.=.N =.M c *.=.&.$.h.m.R.#X9XCX8X+X*XE.@X2X2X=X2X2X4X,X>X>X,X>X#X#XW.m.x.v.x.m.W.W.W.W.W.W.W.W.W.R.R.T.m.x.v.j.f.f.",
"v.v.v.y.f.q.q.6.q.q.6.6.6.6.q.q.9.6.6.q.q.q.f.f.7.q.5.[ 9.r.o.i. .k p j V h L e.] K I  . .` K E ( w 4 1 Y E g g d d d a a m M M c M A <.8.B i B A A 8.p.8.4.<.A ,.1.1.A V 5.u.J.] 5.5.5.q.H.l.4.,.<.h.+X,X>XW.+X,X>X>X>X>X#X#X#X!.!.W.#X>X#XW.m.m.h.p.2.x @ #.$.*.*.&.M *.7.m.>X!.R.M.M.M.M.M.M.M.M.M.M.M.!.W.W.W.!.M.M.M.M.M.m.!.!.W.W.W.W.W.W.!.W.>XW.W.W.W.!.W.W.W.W.W.W.Q.Q.,X!.W.>XW.W.W.R.x.T.E.#X#X#X#X#X5X#X,X5X#X,X1Xl.K J G G W G G Q ~ | A.D.G.D.D.U.G.F.|.Z.R 0 q ) e '.) w ) C.q & : 1 , , d d t i . i x Z *.<.M x z z z z z $ $ $ n n b #.#.#.#.#.n n b #.&.#.#.:.:.n n . >XbXDXVXGXGXVXnX5X2X#XR.=XK.z.&X XJ.&X&X3X#X*X=X*X@X%X%Xl.q.&X:X*X%XK.l.l.7X=XL.8XBXvXBXxXzXxXxXvXxXvXbXxXCXxX9XrXcXCXCXxX$Xf.0.q.6.L B &.M.<X>X+XM.j.M.4X4X4X,X,X>X,X,X>X>X#X#XW.W.#X#X2X2X2X>X#X#X#X1XQ.*X*X*X*X*X1X2X*X1X1X1X*X*X1X1X>X2X2X2X2X2X5X8XW.#X2X5X9X8XjXxX8X9X5X5X5X5X5X4X2X2X5X5X5X5X5X9X5X5X5X5X4XjX6X>X6X>X&.z c =.b M $.<.<.*.=.N x x m N M M &.$.-.k.W.T.W.2X9X2X$X=XL.l.c.#X=X=X2X2X,X>XW.>X#XW.W.+XW.T.x.x.x.c.m.m.+XW.W.W.#X#XE.T.m.x.l.x.v.l.l.f.",
"v.v.v.v.y.y.q.6.q.r.9.6.6.9.y.y.y.u.y.9.q.q.7.q.q.9.[ [  .o.o.t.i.E p h V a a V 9.9. ... .t.t.o.: & & 1 R ~ Y < > > d d h m N M m u m 4.0.A u A m m 8.8.A =.7.Z A m A q.L.y.] C K L 5.q.l.z.l.q.8.<.7.j.!.W.>X>X>X>X>X>X>X>X>X,X#X>X>X>XQ.W.m.j.j.p.p.M @ z %.&.;.&.M &.*.*.p.#XW.W.R.M.!.W.!.M.M.M.M.M.M.M.!.W.W.!.M.!.!.M.m.h.M.M.!.W.!.!.!.!.!.~.>XW.W.~.W.W.Q.W.!.W.Q.>X>X>XQ.M.M.W.>X>X,XW.#X#X+XW.T.W.#X,X5X>X2X3X*X2X@Xq.k G G G G , G | W | D.XXoXXX|.G.XX0XoXXXA.Z./ C.C.].) 8 8 q & & 9 : : , - > d t h u i i + 1.u c c n n n n z n n n #.#.#.#.n #.#.n b $.&.&.#.#.:.>.:.$.:.<XFXbXHXGXVXzX3X*X*X#XE.*XL.z.@XL.u.&X%X*XE.E.@XL.L.@X Xq.q.@X&X@XP.H.l.L.tXtX*X2XxXxX9XbXxXxXVXvX8X8XvXVXvXjX9X8XvXCXjX8Xx.p.q.6.4.L B b n.>XM.M.h.s.h.,X,X,X,X,X>X>X>X#X#X#X#XW.#X>X2X#X>X>X>X#XW.#X#XQ.Q.Q.#XQ.Q.#X#X#X#X#XQ.Q.Q.#X1X1X1X1X1X2X2X5X5X1X2X2X5X2X5X5X8X5X5X5X2X2X2X5X4X2X2X5X5X2X5X5X5X2X2X5X8XjX8X<XM.W.W.b v b &.b n -.<.-.$.*.*.N M c c m A N x ,.!.M.h.j.R.m.k.v.+X2X@X#X9X2X2X=X#X,X>X>X>X>X>X+X#X#X+XW.m.c.c.c.x.#XW.T.T.W.+XT.x.l.l.v.l.l.l.l.f.",
"v.v.v.v.y.y.y.q.9.9.r.6.6.6.q.y.y.z.u.9.q.q.6.9.9.9.[ `  . .' ' X.o.r.{ j t = p f J |  .O.O._ , 1 : 4 R +.+.R 9 : < , d a m M M B B a u B V h i B A ,.A m A =.m a S 6.q.] V K 5.6.6.q.l.l.l.g.j.a.7.<.p.h.m.!.>X>X>X,X>X>X>X>X,X,X>XQ.R.x.j.j.j.h.<.2.@ @ n %.&.*.M Z =.=.Z =.p.!.!.!.T.M.M.!.W.M.M.M.!.!.!.W.W.W.W.!.!.!.!.M.m.m.M.M.!.M.M.M.M.W.>X>X~.~.>X>X~.#XW.!.!.W.>XW.W.W.W.W.,X>X,X8X5X8X9X2X+XR.E.#X2X2X2X2X2X#X*XL.[ g G G G G G W O.O.| W ..G.XXXXXXXXXXXX}.D.Z.+.^ ^ w w / R 4 8 ( ^ 9 : 1 ; > f h t i i t O 6.= i Z b v v v n n #.v #.#.#.#.n n n c c b b b n n #.n #.n N.p.vXbXVXBXxX3X*X*X=X=X*X=XP.L.@XJ.l.%X@X*X@X@X@XL.P.@XP.0.u.@X&X@XP.L.L.L.-XtX7X7XBXVXzXbXbXbXbXxX9X5X8X8X3X8XxXxXVXGXxX#X8.8.p.,.S S c b s.M.m.h.s.s.j.M.#X,X4X4X2X>X>X#X#X#X>X5X5X>X+Xm.E.#X#X#XW.W.W.#X#X#X#X#X#X#X#XQ.#X#XQ.Q.Q.#X#X>X#X#X1X2X2X1X1X5X8X8X5X5X2X2X2X5X5X9X5X2X2X5X9X9X8X9X5X5X5X4X4X5X2X5X9X5X,X#XM.M.>X&.&.v z b v $.&.M v M N M M m m m A M x N h.m.m.M.m.k.p.f.v.v.6.v.@X2X9X9X2X5X4X5X5X5X2X>X#X#X+X+XR.R.L.c.c.#XE.T.c.L.L.l.l.l.y.q.q.y.l.y.q.",
"v.v.v.l.v.y.y.y.6.9.9.9.9.9.9.r.6.y.y.9.9.y.9.9.9. .` ` o. .E Y | o.O. .9. .H * , , G ~ ~ , , G X.( T 9 0 0 8 8 : : 3 g C A *.*.S 4.4.S ] y.6.h t L V i A A x c m 6.6.B u C 6.6.4.,.,.,.,.=.=.<.;.<.2.p.a.h.h.h.!.W.~.>XW.!.W.!.W.!.m.h.k.k.h.x.p.<.<.@ v b :.&.&.Z A *.=.A =.A k.x.R.!.!.m.M.M.!.M.M.!.M.!.!.!.>XW.!.M.M.M.M.M.!.W.W.W.W.W.W.W.W.~.>X~.~.>X>X>X>XQ.W.W.W.!.m.h.>X4X4X5X#XW.8X5X2X2X9X4X5X2X,X>X>X2X2X=X*X*XK.L f g g g G G G ` X...| O.G.|.XXXXU.U.U.G.U.D.Z.+.Z.^ 3 9 4 : 0 +.( R 9 3 , g k k * t h h = 6.* a m c c c c c x b v v v v $.#.v z c i + $ z z @ @ z . X ;.<XDXHXxXxXrX2X#X#X*X*X@X=X@XE.%XL.H.=X%X=X=X2X=X*X=X=XP.w. X=X=X%XP.L.L.@X@X-X7X8XxXbXzXzXxXvXxXxXxXxXrXvXjXvXVXxXxXjX,Xx.=.8.f.,.=.A c c p.M.M.s.8.p.a.n.M.+X>X>X>X>X>X>X>X>X2X5X2XW.m.!.W.#X#X#X#X#X>XQ.Q.#X#X1X1X1X1X#X#X#X#X#X#X#X#X#X#X#X1X2X2X#XQ.1X2X2X5X5X5X5X5X5X9X8X8X5X2X2X2X8X9X5X5X5X5X5X5X2X2X2X2X>XM.M.M.>X<X&.&.$.n &.:.&.-.$.M M M x x m N m N N M c *.k.h.h.h.p.7.7.7.8.4.f.E.2XxXCXvX4X5XjXjX9X2X>X+XW.W.R.R.L.L.c.c.E.E.T.l.l.l.z.c.l.l.y.y.y.y.y.q.",
"v.v.v.l.l.l.y.y.y.y.y.y.u.u.y.r.9.9.u.u.{ {  ._ ` { ' ' o. .E Y X.+.o.o.t.F. .f | ~ R 4 2 ; W O.T Y : & 2 & & & 5 8 R ' 6.8.2.<.B h h h h K K h i ] a i =.A + m 4.V u B L L B u u y y @ + + @ @ v b $.*.*.*.-.<.2.s.h.n.M.m.m.m.m.n.h.k.p.7.p.k.,.<.v + v b :.$.Z A A Z A ,.,.A ,.p.m.#X~.W.M.M.M.M.M.M.M.M.M.M.W.!.M.M.m.M.M.!.W.W.~.W.W.W.W.~.!.W.~.W.W.~.>X~.Q.W.Q.>X>X#XW.M.!.4X1X5XW.T.8X4X2X2X4X4X5X4X2X,X>X,X1X*X2X*Xl.[ f G G G E G , f , H ..t.t.G.I.XXXX;XoXG.U.O.D.A.X.T : 2 & T ^ 9 ( 0 R R ! E E g k k k h = _ - k p t t a B B u i x y y c Z *.$.c c i . + z $ X X X . . *.KXVXvXbX8X3X2X*X=X=X=X*X*X@X@X=XL.L.7X-X=X=X3X3X3X7X-XJ.w.&X=X&X=X@XE.L.7X=X=X7XrXrXxXzXjXbXbXxXxXbXcXrXxXxXxXjX5X2X2X#Xx.8.x.v.8.8.Z M x :.s.h.s.;.-.;.j.j.j.m.m.M.W.>XW.>X2X,X>XW.#X>X,X>X>XW.W.W.>X,X1X#X#X#X>X>X#X#X>X#X#X#X#X#X#X#X#X#X>X2X2X1X#XW.W.Q.#X2X5X5X5X5X2X5X9X9X5X2X2X2X2X2X2X2X4X5X2X2X5X2X5X5X>Xm.m.W.>XM.n v &.&.:.;.2.s.2.;.<.;.A N m A N m *.*.N x $.v $.<.1.=.,.7.1.L 4.0.f.m.E.W.>X,X4X4X,X>X+XW.c.c.c.c.c.c.c.L.l.l.l.l.f.q.l.L.z.l.l.l.y.y.y.r.",
"v.v.v.v.l.l.l.y.z.y.y.y.u.y.y.9.y.6.u.i.K `  .g E ' ` ' o.| E E 9 +.oX{.{ H ' i.3 ^ ^ & 2 3 W , , 1 1 & : & 7 r r q q Y K A $.v B t p h t h K D h C a i A m y Z 8.B u B u   + A c c v x n v n @ # @ @ @ @ v v $.v v %.-.2.s.a.a.a.a.p.p.1.<.<.<.,.p.. + v z :.$.Z A A Z Z S ,.,.S 8.k.M.W.W.W.!.M.M.M.M.M.M.M.M.M.M.M.m.m.M.!.W.W.~.W.W.W.W.W.W.W.~.~.~.W.~.>X>XW.W.>X,X1X1X,X,XT.,XW.1X>XW.kX,X4X,X>X>X<X,X6X6X6X1X>X>X2X#Xl.[ g Y Y Y E G , f G J J ; = f  .G.G.U.U.G.G...O.W 1 4 ^ +.Z.}.].3 0 4 4 9 ! Q Q g d k k _ H H > > g > * > f f p t t t t a V B m u u i i c c z X X . z . -.kX,XQ.8X3X3X3X3X3X7X7X3X=X=X=X3XE.E.rX3X2X2X3X3X7XtX-XH.e.&X&X&X=X@X@XL.@X&X*X=X7XtXcXVXxXvXbXvXzX8X8X8X>X2X2X2X8X8X8XxXf.8.c.8.4.8.m Z b v :.p.B.;.;.-.p.s.a.a.h.j.M.!.R.W.>X>X#X>X2X5X2X,X>X>X#X#X>X>X2X2X1X#X#X#X#XQ.>X#XQ.Q.#X#X#X#X#X#X1X1X1X1X>X#XQ.Q.#X#X1X1X2X1X2X2X2X2X2X2X2X2X2X2X>X,X2X2X2X2X2X#X2X9X,Xm.m.W.M.s.z n &.>.&.>.;.2.;.;.<.<.A N m A A N A A N N v # v *.<.,.<.f.1.,.8.7.p.x.#X#XW.>X>X>X+X#X#X+Xx.x.x.l.l.x.L.+Xc.c.l.l.l.y.l.l.u.l.z.u.y.r.r.r.",
"v.v.v.l.l.l.u.y.y.6.[ [ { 9.6.[ 9.K r.t.k ' i.Y ! Q ! ! ' Q E Y ( ( +.{.i.| ' o.( q & & q R Y 1 3 3 : & 8 8 8 e w q : , g C A A p > E E g ' o.` _ C h u i i a L B A B i i M m + x M $.v #.#.n @ n @ @ x v v v @ z @ @ v $.:.-.&.2.<.<.,.<.<.<.1.p.m.. z v @ -.$.Z A A S A Z A =.,.=.,.p.h.!.W.!.M.M.M.M.M.M.M.M.M.M.M.M.M.M.W.W.W.W.W.W.W.W.W.~.~.~.>X~.~.>X>X>X>X>X,X>X>X>X>X>X>X4XR.,X,X#XjXW.#XW.#X<X4X5X6X>X6X1XQ.#X2X@Xq.[ g Y G , g g J I  .[ I j s f f - J ....U.I.I.t.J G.D.F.D.O.( ( R 4 2 2 2 3 Q | ` E g - > f g ' o.X.Y 1 ; 1 , , , - - d d d p = = = = t u i $ . . . @ + M M.!.5X#X3X7X7X7X3X3X3X2X7X7X8X8X@X@XrX3X8X8X7X7XrXBX7XH.w.:X=X%X=X@X@Xz.@X7X=XE.E.#X1X2XzXzXxXbXzX2X2XjXxXVXxXjXxX8X,X2X8.8.v.=.A 4.u Z Z y y Z *.<.s.p.-.<.s.h.j.n.M.m.W.!.!.W.,X,X>X>X>X>X2X6X6X2X1X>X2X*X#X#X*X1X1X*X#XQ.Q.Q.#X#X#X#X#X#X>X>X1X1X1X2X#X#XQ.#X#X>X1X1X2X>X>X>X1X2X2X2X2X2X1X,X2X2X1X>XW.R.#X4X,Xm.h.n.n.s.$.$.&.>.#.s.2.s.2.;.<.<.Z m m A Z N N m N *.M *.&.x c =.<.=.<.,.<.7.1.f.T.R.+X#X>X#X#X#X,X,Xc.c.l.l.l.x.R.@X$X+XE.L.L.z.l.y.q.y.l.y.9. .r.r.",
"q.q.6.5.] ` } ` ` f ` } } { K k H f E ' g 1 3 9 : 9 9 9 Q ! < Y T X.Z.Z.O.o.| ~ T ^ 8 R 0 & 4 2 4 8 4 8 R ( R T 9 < < g g f f g 9 8 8 6 6 8 R Q E _ K h d k E _ B b v n z n x v M M $.b v v v v v z x v v b b v b n n n n n @ n v *.<.=.;.p.s.;.. . @ z n v $.:.Z Z Z A =.=.*.&.&.&.*.<.2.k.m.W.M.M.!.!.!.!.!.M.m.M.M.M.M.M.!.W.Q.W.W.W.W.W.~.~.~.~.~.~.>X>X>X1X>X#X>X2X>XW.#X2X>X>X>X#X#X$X#X2XR.E.#X#X~.~.<X<X,X>X2X+X&X&X9.{ , 3 G G J J J s 5.e.[ [ K f f , 1 1 ; J ..w.e.-XP.9...o.O.R ) R q T ~ ~ +.D.O.G.XX; ; , , D.o.O.+.{.Z.^ 9 T T G 3 ! T , % % ; 2 2 % % -     a   x o Z m ,X2XT.2X=X7X7X7X=XtX*X7X-X7XwXrX*X@XwXrXzXcXzXzX3XrXcXg.0.tX=X=X-XL.P.l.E.@XE.E.T.E.1X5X2X8XxXjX8X8X5X1X#X2X#XT.#X#Xv.7.A ,.S A ,.A c u i a u i A ,.7.m.M.a.s.s.N.n.N.M.n.M.M.~.<X<X<X<X4X2X2X2X2X2X1XQ.3X2X3X*X*X2X*X3X2X2X#X#X#X#X#X#X#X#X,X2X#XE.#X2X*X*XR.1X8XQ.W.1X1X#XQ.Q.Q.#X1X1X1X2X2X2X6X1X*X#X6XQ.m.<XW.s.s.N.N.2.#.:.#.>.>.2.>.B.2.;.&.b c c m m Z Z m m N c c M M M v M *.<.<.<.<.7.7.8.0.f.c.+X>X>X2X8X2X#XT.z.l.z.l.l.x.+XW.m.x.l.L. Xz.6.6.6.q.r.r.o.o.o.",
"6.6.[ ] _ ` ` E E > g g E { E k _ d g W ! < : & & 8 6 9 R R 9 R ^ X.O.+.~ T ^ ( R 0 R R 0 8 & & & q 0 w ( +.+.O.| ' E E E G G 9 : 5 7 7 7 w / ( ' ' _ k k E Q ' V Z M c c c b b c c M M M M M M M b b b b b b v #.#.v #.#.n #.n @ x v z z v z . @ z n n n v %.&.&.Z *.*.=.*.&.M %.M %.*.*.<.2.a.!.!.M.m.n.h.m.m.m.m.m.m.m.m.M.!.Q.Q.Q.Q.Q.~.~.<XW.Q.~.>X>X>X>X#X>X>X>X>X#XQ.>X4X,X#XW.#X$X#X#X@X@X#X>X>X>X~.~.<X>X>X2X@X&X.X{ W G W W J J J J j s s s K H f J G , 3 W ..J F.5.yX%Xe.e.| | X.X.+.Z.~ T Z.+.O.J O.O.O.D.O.| ' ' | R ( ~ T 3 3 3 4 T T T 1 % O % 1 2 % % 1 - = i     . 5XjX8X1X*X3X3X7X=X7X7XtX7XtX7X7X7X7X@X@XrXtX3XzXcXxX3X2XtXK.L.rXE.@XrX-X-XL.@X#X#XR.K.L.x.f.3X2X#Xm.m.R.#X>Xd.K.T.f.p.8.1.1.,.,.V B B a u t = * * t B V 8.W.n.s.2.;.s.s.a.N.N.M.M.M.n.n.~.hX,XQ.W.T.j.f.T.1X+XR.#X#X*X3X*X*X*X*X*X#X#X#X#X+X#X>X1X2X#XQ.#X2X2X5X>X1X1XT.Q.Q.1X*X1X1X1X2X6X5X1X1X1X1X>X>X*X1XQ.Q.!.>XM.2.s.a.a.>.#.:.:.;.:.-.:.:.%.v z n c Z B m B V N Z A m m N N M c c M N N *.,.1.<.7.8.7.S f.#X2X>XR.R.$XE. XL.y.q.q.f.k.p.v.x.v.y.y.q.q.6.6.] ] _ ` Q Q ",
"5.5.[ ] _ _ H g G > g g E o.} k j p p E ' Y 1 : : 9 9 9 R R 9 Q X.O.Z.O.~ T T ^ 0 8 ) 0 q 0 & 8 7 w ) ) X.+.O.D.i.O.o.' ' ' ' Q q q q r e e / ( Y E k d f G Y E _ ] S C C C C C V V C C C C C S Z M M M M b b b $.#.#.#.#.#.#.v v b b v b b v x b v z @ @ n b $.b b Z &.*.M M M M N N M M M *.<.<.2.p.a.a.h.m.M.m.m.m.m.m.M.M.W.R.R.R.M.M.T.W.W.W.W.>X>X>X>X#X#X#X#X#XW.W.Q.~.W.!.T.m.x.R.#X#XT.#X#X>X,X>X~.~.>X>X>X=X+XL.r.H W | +.O.~ J J J K I I J ` ` G G , f J ` ` ; t.f XXLXG.| |.O.W t.XXO.T W G X.O...J A.XXF.W J % , G < 4 3 3 3 3 : 1 3 : 1 1 1 ; ; 1 2 & 3 ; O = O + + W.W.jX5Xf.#X#X@X=X=XtX7X=X3XtX7X9X2X=X@X@X7X2X9XQ.T.1X8XcXcXL.5.L.q.L.-X*XP.0.7.f.f.7.p.v.k.*.x.f.8.8.7.p.f.k.j.f.f.f.7.0.7.L A S B F h u t t = * d k D h S m.v.a.p.<.;.;.p.a.s.a.a.s.2.a.M.4XjX4X4XkXhX>X<XvXjX2X9X2X2X3X2X3X*X2X1X*X#X#XQ.Q.1X1X1X1X*X#X*X2X2X8X2X1XW.T.>XW.#X#X>X1X1X1X2X2X2X2X1X>X#XQ.#X#X*X5X2X#Xm.s.n.N.a.;.n b b :.:.;.$.b v z + z m A A B V S V V V B V N N N N M m m c N N A ,.,.4.4.0.4.1.7.p.p.j.E.L.@XL.q.q.z.x.7.A 4.8.6.] L 4.4.8.4.L C C _ E E ",
"[ { { _ _ H k f g g k g E ' E > t j j k ` G , < 9 9 9 9 R 9 9 R T | O.X.^ q 4 & 0 q / 0 q 0 6 q q ) ) ( ( ^ ~ o.D.D.t.o.o.O.O.X.( / e e e / / R ! W ` H H E W Q } } } _ _ _ } } ` } { { { ` _ K A =.=.*.M M M $.$.b M $.$.$.#.#.b b M &.&.&.&.:.$.b v z n v b b b $.*.*.*.M N N m c m N N N *.=.*.<.p.p.p.s.p.2.a.a.p.p.s.a.h.h.x.x.x.h.h.h.m.m.!.!.W.W.W.W.E.R.#X2X2X2X4X4X>X!.W.W.!.M.Q.5X4X#XW.+X>X>X>X>X>X>X>X#X+XL.u.[ _ | +.Z.Z.~ J J J K j H f G J G G - - s J J -  ., W D.oXt.t.t.[ e.j | O.{.| J W ..' ..O.| f J J G = 1 & : 3 9 3 : : 2 3 ! G ; % % ; 1 % 2 % - p   i   R.xXjX2XR.d.rX8X=Xl.#X2X2X8X#X7X9X7X8X3X=X2X@X$Xm.j.v.f.f.l.7.#X8X2X2X7X@XL.q.f.p.7.=.<.p.p.=.a.8.p.h.m.v.h.j.m.k.k.7.1.8.4.B B D D h D h t t > g U _ C d h L 8.8.8.7.4.;.;.p.2.;.;.;.s.n.N.n.M.n.M.<X<X>XM.M.4X4XjX5X1X1XQ.2X2X2X2X1X#X#X#X#X1X*X*X*X*X1X1X2X2X2X2X5X#XQ.5X#X2X2X2X2X2X,X1X2X1X2X2X2X1X>X1X>XE.2XE.f.4.8.n.h.s.;.b #.n Z v $.b M Z b b M M Z =.A S L C j k j V Z Z Z A A M N m m m m m A L ,.f.,.Z =.7.p.7.4.6.u.q.] ] q.q.,.4.4.4.5.6.6.8.8.4.4.,.] ] _ ` E ",
"k _ _ H k k k k g k k g > g g = t C j p k E , < < : : 9 8 8 9 R T O.Z.( ^ / 0 5 q 0 7 q 0 8 R q / C.) / ( ~ ~ o.i.D.F.i.D.{.i.+.( ( / / / ) ( ( ! ' o. .{ } ' ' E E E E ` ' ' ' ' ' ' ' ' ' W H ,.<.<.,.=.*.=.=.M M M $.*.&.$.&.*.Z Z *.*.M M *.-.*.$.$.*.*.-.&.;.2.s.p.<.A Z Z N m m B B m Z A *.=.<.p.a.a.s.2.s.s.s.p.p.s.a.a.j.v.x.j.h.h.h.m.m.m.x.x.x.x.x.x.L.@X#X#X>X,X>X!.M.~.W.M.!.<X<XW.W.W.#X>X>X>X<X,X>X#XR.z.y.[ { i.^ ( ( ~ ~ Q H H H { { {  .X.~ , ; f J J W ' ~ 3 ; qXdXG.H.g.5. X..f J t...O...F.XX....` J t.J ; , 1 1 3 T 3 3 G G Q | W | O.| , T 1 G ' ` p   V ,.#X6XxXK.T.3X2X#XR.j.7.<.v.2X#X2X2X2X8X9X$X2XR.m.f.p.8.,.=.A S u m u m A L 0.v.s.<.*.&.=.=.<.7.a.s.8.s.h.h.j.M.j.h.x.f.A V S V B D l l l d * * > g E E k f p t V S S =.=.*.=.4.s.B.;.s.a.a.s.-.>.:.:.:.B.s.s.;.;.j.jXvXjX5X1X5X2X2X2X2X*X*X*X*X*X*X*X*X2X2X3X2X5X1X1XzX5X#X2X#X>X>X#X#XE.W.E.W.R.+X>X,X,X>X>X#X>X4XW.a.s.a.M.N.>.>.#.:.n n X $   . $ b &.=.=.,.S V S ] k f g k V V A A L ,.A A m m m m m m B V L 4.7.1.=.,.7.8.6.6.[ _ _ ] L D 6.] L 4.6.8.8.,.=.,.,.,.C k k U ",
"d g k d d d d d d f d > > < E g t a t = k ' E : 9 < 9 R 9 8 q T T | ~ ^ ( ) ) w q w & 8 0 9 ( q ) C.) ) +.+.O.+.i.i.F.{.{.D.O.o.X.( / @./ / ( X.Y ' r.r.{ { { { ` ' ` } ' ' ' ' ' ' ` ' ....` ` 5.4.1.1.1.,.,.,.*.M N *.=.*.*.*.=.=.=.=.=.=.*.=.-.*.-.-.<.<.<.<.s.s.a.p.7.1.,.L L K V V V B m m m m m A 8.k.h.h.p.p.s.p.p.p.s.p.p.f.j.j.k.k.j.x.x.x.v.v.l.l.l.l.q.y.l.l.x.R.E.W.M.~.~.M.M.M.!.M.#X#X#X>X>X>X<X<X>X2XL.l.9.K _ ! 9 0 R ^ | | ` H G  . . .' E < % ; J W W J ; J ; ` O F.t.u.P.1.w.t.G |.t.G.I I.-XwXY.I.u.; I - > 3 1 1 3 G G G W ' O...` D.XX|.W J J W J I e.5.5.x.d.2XR.g.2XA N <.<.m.<.=.a.R.m.j.j.v.m.x.v.m.f.0.*.*.=.7.8.A Z =.Z c c c Z *.*.&.b b &.&.b :.;.-.&.&.:.-.;.;.;.s.s.p.8.=.=.4.S D D h d U U U E , < Y Y g U k t C D D S A V S 4.B.B.B.B.8.8.;.:.:.B.B.>.>.B.s.B.-.h.hXvXkXjX5XnX5X5X2X2X2X=X*X*X*X*X*X*X2X3X5X3X2X#XQ.4X>Xm.M.j.M.m.j.v.v.v.j.v.x.c.R.R.m.j.h.a.h.n.s.;.;.s.a.>.>.>.#.#.n :.:.;.v.h.h.a.s.<.=.Z A u h C f d g k C V V V A A Z Z m m m m m a y y a L 1.A N ,.7.q.q.[ _ ` _ K K L L L L ] S A S =.<.=.=.A h h g U ",
"> , > > > g k k d f > k E E X.Q d * * > G ! Q 9 R 9 R ( 9 9 R T Y 1 1 4 0 w r r 7 r q q q 0 R 0 / ) ) ( C.Z.+.D.i.o.t.{.{.o.X.X.| X.X.( R R ^ X.| o.t.i.u.l.l.u.u.u.y.y.q.q.q.q.q.e.9.e.w.u.w.e.0.0.7.7.7.1.,.,.,.A A =.=.A A =.A *.=.=.=.=.=.=.*.*.=.=.<.<.<.<.<.p.p.8.8.5.5.{ { _ H K C k j V S A B B Z A =.=.=.=.=.=.=.=.=.=.,.8.p.f.p.p.f.v.v.v.v.v.y.y.y.y.y.y.y.l.z.l.E.#X>X,X<X~.~.~.~.~.>X>X~.W.~.~.>X>X>X2Xl.q.[ k H , : 6 q R | ' _ k k _ _ { o.` Q U < Y ^ T ; O = O K s IXJX:XtXSXuX&XH e.9.qXuXLXsXJ.5.Y.I...J = - , , 4 3 G W W W W |.XXG..... ...J 3 ; f Y.aXyX5.1.d.d.P m A N 1.p.n a.p.n.6XM.<.<.4.<.8.4.=.p.<.*.*.8.Z z z . b b z z v b b b v ;.>.>.>.:.#.$.$.$.&.:.:.:.:.&.$.&.$.v b =.B.S B h h * d U } } } , > U E g E U d C D D D V V V S B D D S =.=.=.=.b &.:.:.:.:.:.&.;.p.M.M.~.,X,X8XjX5X1X*X2X2X=X*X*X1X3X3X3X3X5X5X1X6XR.M.m.h.j.f.m.j.h.v.x.x.v.f.f.f.p.8.8.<.<.<.h.n.2.s.s.2.a.2.>.>.#.#.#.s.N.M.B.B.B.B.B.8.8.8.A u u k k g < g j V j j B B V V V V V m a a a a i u m A 1.7.,.V K k k H g f k K L L 4.4.S Z A <.*.Z m B h k g < ",
"; 2 2 ; g { r. .k k g ' ' E ~ < Y 1 < Q 3 : 9 9 9 : 9 R 9 9 Q ! Q 1 2 9 / 0 q e r 7 / q q R 9 R 0 ) ) ( X.( X.+.O.' X.i.D.| Q X.` | o.| ' ' o.O.o.r.r.u.J.L.L.l.L.c.l.x.l.l.l.l.x.g.g.g.x.K.j.g.g.g.d.d.d.0.5.,.,.L A A A Z N Z =.<.<.=.=.,.=.*.*.*.*.=.=.,.<.<.p.p.8.8.5.[ [ { _ H g g k k k k h j j V V V A S A ,.,.,.,.L S L S 4.0.q.p.f.f.v.0.q.f.y.y.9.6.{ [ [ { r.q.6.q.l.E.!.!.W.W.!.!.~.>XW.W.!.W.W.~.#X#X=Xq.[ { ` o.Q % 2 : Y E E k d h t * k k * g W ^ q ~ Q 2 , - p H K 5.[ yXXXZXSXaXtX:XJXt V P yXcX%Xw.w.I.s = - > , G J J ` | | G.XXXXXX&X0X%XY.G.G.;XSXiX-XwXE.K.,.K.j.m L 1.x x   h.;.&.p.;.s.8.7.7.s.8.,.s.=.s.=.&.z n &.n $.&.n b $.n n b &.n #.#.#.#.>.>.&.#.>.>.#.#.&.&.#.#.:.&.b =.Z u B F d * - U U l > > 2 g W U > > = * * t B D V V V B h B D S S Z B =.Z c $.:.:.&.&.b b ;.a.W.hX5XjXkX6X>X#X*X2X=X*X*X3XrX5X3X5X5X6XQ.8XW.h.j.h.x.c.p.8.8.8.0.0.8.,.8.8.4.,.,.8.f.j.h.a.;.>.>.>.2.2.>.>.#.>.>.N.a.s.s.b.s.s.s.s.8.4.,.u t k k g g , f f f f j j V V 1.L V a p a V L L h t a V A L 5.K _ E G g g g k h B B B B u c m y i i t k E < & ",
"& 1 2 1 E } ` _ k g g Q | Q Y 9 : q / 0 6 & & 6 q 9 : 6 ! Q Y T T 9 9 0 / w q 7 7 7 r 8 8 R ^ ^ R ) ^ R X.X.R T ~ o.X.X.X.Q E '  .` { r.r.` { r. .r.u.J.E.E.R.T.R.R.R.Q.W.W.W.Q.W.T.m.m.!.T.T.T.K.H.g.g.g.g.g.q.d.0.1.,.L L A A A =.,.1.,.,.=.=.A N m N A ,.<.7.<.7.4.L ] { ` E g Y g g g E E f k k h p h D V u u m B B S L S V S S S S S ,.8.0.8.8.6.6.6.{ 6.6.} { { { [ { q.y.f.v.v.j.h.m.M.~.>XW.W.W.>X>X>X>X$X@X6.C _ E Q G 2 % ; ' t.i.r.] ] ] D D C C k E ~ R 3 1 ; ; > > k H _ K f = = p s t y A ,.L m y q.E.yXw.L.tXH.P.s G | f >  .XXqXsXuXsXuX;XuXsX;XSXiXuXuXyXmXmX3XE.f.K.K.A y m m z . . z &.<.-.s.n b =.8.s.8.;.:.&.$.n n n n v n #.#.#.#.#.#.#.#.n X n #.#.#.#.#.#.#.#.#.:.:.:.#.#.:.:.&.&.Z u i i F t * * * = 2 ; % E E ; = = * = p d t h V j p k k k _ K h h D F B Z Z b b b b Z &.c n ;.>XhX4XkX4X1X5X8X7XrXyXE.^.K.K.5X1X6XzXj.k.k.j.f.8.,.=.A S 4.8.8.8.] S S ] L ] 4.4.4.8.7.=.;.;.-.:.>.>.>.#.n &.s.a.s.s.b.c.v.s.p.p.s.s.8.D B h k g < > g f f H K K L ] K K j p a K K j _ d t a S S V f k d , , ; 2 = = i i i u u u u B a S D h U Y : & ",
"! 9 : < ! Q E U g g > 2 1 3 6 & 0 0 / 0 8 5 7 8 8 9 6 6 ! ! ! Q R R R R 0 q q r 7 r w 8 4 q ^ ^ ^ ( ( ( +.( ^ Q Q ~ ( X.X.X.( o.t.r.9.t.q.9.u.J.J.J.J.L.E.Q.Q.Q.Q.R.T.R.T.T.W.Q.!.~.Q.T.k.2.k.T.*XR.K.H.l.g.g.g.g.d.0.1.,.L L ,.A =.=.=.=.,.,.,.,.,.A A ,.,.1.4.,.4.5.5.[ ` E g , g , > g E E g g g d t d j h t u a h h h C C D S S S A B B V S S S ] ] ] } { } ` ' } } } [ 6.6.q.y.x.x.h.h.n.m.M.W.<X>XW.M.W.$X=X@X[ k k Y Y , < 9 Q o.t.z.z.y.q.b.q.6.q.6.C k G G 3 1 ; ; < E i.i.t.{ K K K V A m m N =.*.Z N m N R.*X7X*X5.@XK s s f t.;X-X0XsXuXZXZXuXyXyX;XuXiXsXsXiXiXyX3X*Xg.K.K.L m A =.=.v &.b b v .   . $ z z c b Z &.&.#.b n n v #.#.#.#.#.#.#.#.#.#.#.n n n #.n n n n #.#.#.#.#.#.#.#.#.v v c B u t = t t - > - * > ' g k g > d > - = = * p h h V k g g E ` _ C C L C D V B c B Z *.Z Z &.Z &.;.-.b M.4XjX#X1XcXcX*XR.3.j.j.2XjX5X6Xd.<.A A A A B B i i u F h h h d h C D h D S V V ,.V S ,.;.;.-.&.:.:.Z Z 4.s.f.b.f.M.m.h.a.a.s.p.4.S B k k g , < f , f g H H K K j j f p j ` [ K d - j K ] C C K f > , < : < < > i i u u t u h h ] D = = G @./ w ",
"( R : : Y Y < Y g < < > < R Q R w r r r q 8 q q 0 @.R q 9 3 3 T R @./ / 0 8 8 w q w w q 4 9 / ( +.+.+.( ( +.Z.+.R ( Q R ( +.X.X.O.t.u.l.H.L.E.@XP.L.H.z.K.K.R.R.R.L.c.T.T.T.T.W.T.Q.R.j.d.1.2.T.R.K.g.g.l.K.K.K.K.l.q.7.4.1.,.,.,.,.,.,.,.,.1.7.7.7.1.1.1.1.1.1.L L L ] ] K f d d l < > > g g d > d d - d h h t = i i i i t h h B V V h i O i t t h h k U U U E E E ` } { { [ ] 5.q.v.f.k.p.s.p.a.h.m.!.W.+X+XE.z.J.{ k U g Y 3 ~ +.i.o.r.u.z.y.c.c.b.8.8.8.8.6.C g f Y ! @.(.{.+.+.' g V 4.<.Z *.M x x x c M Z N ,.W.2X3X*XL.%X5.[ e.F.:XuX-X:XwX;X;X;X^.;X-X%X0XuXZXiXuXyXiXwX*XK.K.K.1.L 7.p.h.a.M.m.M.M.8.*.Z c n z z c b &.$.#.n n v v v v #.#.#.#.#.#.#.v n n n n n z z n n n n n n n n v n v n z c F F t = - d l k g g E } k ` E E ` d = * = = - - = = - H E ' ' ' _ _ ] K C V h h V S L c A Z Z Z &.:.*.&.&.M N 7.#XxXAXx.0.1.1.1.<.,Xm.<.<.p.x.R.y.S u a t t t t d j k d C k h D L D h C d t h h D D B F D B u h C _ ] b.c.c.v.m.j.p.8.S V V k g g g G , 1 , f G G f j J f s > f , - ; > > f H K k K ` g , < < : < : 2 = t t t t l k l d f > , Y 0 0 0 ",
"( 0 : & 9 9 9 R 3 & : Q X.Q Q X.0 r r w 0 0 0 0 / ( ( @.R 9 3 9 / / / 0 q 8 q 0 0 0 0 8 : 8 q 0 ^ 0 ( ( ~ X.].+.( +./ 9 R ) ( ( o.F..X X@X@X#X@XL.H.l.l.l.l.x.x.l.l.c.E.@XE.L.L.T.K.j.j.x.j.j.T.j.g.f.g.K.K.R.E.R.K.x.f.q.7.4.1.1.1.1.,.,.1.7.0.0.7.7.7.5.4.4.,.I P K L K h d h h k h d d f f d > g g f d h h u u a h a u a h h h B h u i O = t t d l k k g g g k H _ } { [ [ { L ] 4.7.7.p.p.s.p.p.h.m.W.+XL.l.5.i.r.} E < Y R X.+.X.' t.z.z.v.M.m.f.8.b.8.8.v.v.L d f } @.@.0 @.R , * u A ;.:.<.-.$.v v #.&.-.<.m.W.#XQ.*X3X@Xj 0.H.J.wXyXwXSXyX;X%X;X%X;X0X0XpXuXiXuXpXuXuX-XE.H.H.x.7.1.p.f.s.s.s.8.4.8.=.b Z b c n z c c b b v v v v v v v $.$.$.Z b b b b c c b b c c c v c n n n n n v b b b b c B D h t > l < g E E E ` d g } } E E > > g g H E H > - - > g g g g f f d j j h h h V V V D V B c c c Z =.p.b b <.p.=.,.x.d.1.W.p.=.<.=.*.M c m B A V u i h d d * * > d g * g k l k k h f k > d l t F D D C ] C d l E E E 5.b.8.8.f.0.4.L V C C H J J Y T < , , G J G G f f , G J W Y G G < 1 > g H k g g > < 9 9 : 6 6 1 - h d > > U U g > g , 2 2 6 R ) ",
"/ / 9 0 ( @.R / 9 6 q +.(.~ ! Q ) ) ) ) / 0 / @.R ( ) ( ) ( R 0 0 w 0 0 8 8 8 9 q q 9 4 4 4 4 & : 4 ( Z.Z.].]./ ( +./ 0 / ) / R +.{.XX%X@X#XQ.E.L.H.J.L.P.J.z.H.q.y.l.L.@X+XL.L.E.R.l.K.#XQ.R.Q.E.R.T.T.R.R.R.R.R.R.T.K.x.v.f.7.7.7.7.7.1.4.5.7.7.5.5.5.5.5.4.1.P P K ] L B a B V V B h h j j k k U C C D B V B B A S A B B B h B h F u t u h h d d l l g g g g k k _ ] ] _ ] 6.] S S =.<.p.s.s.s.h.m.v.p.8.8.6.6.i.o.' ! < 9 ! ( ( Q ' i.u.l.L.v.x.v.v.v.f.8.8.f.*.u l { (.(.( 9 < * = + z z n @ @ @ @ X @ @ n s.2.s.>X,XR.1X*XP 0.5.L P.yXrXcXyXpX3XtXuXwXpXpXrXwXpXpX-XpX-XI.K.g.H.l.f.8.p.p.v.c.f.,.*.*.Z c c c c c b M M M b b M Z M b b b Z b Z b m Z Z B c h B B B F c F B c y u c b b c Z B V h l C _ U Y g , < ! E g g g k E d > > > Y T Q ( X.~ Q Y > - d f d d g g d j h h h j C V j h h h B B c c c $ n $.;.7.7.=.*.A p.=.=.h.*.<.x <.*.m u u h D C d d d d > > > > g E E E E d d H E E ' } k d k C ] 6.} l k E E E ] 4.L S ] ] C j k H _ ` W ! ! ! T T T ^ Q Q W W W W Q | | Q T 9 & : Y Q ' G ; % % 2 9 9 : q R ! E E E 3 6 9 9 6 9 ! 1 % 1 ~ X.( ",
"q @.( ) (.) 0 0 0 ( +.+.+.(.+.Q +.(.(.+.( R R 0 @.) +.) (.) / 0 0 q q 8 8 9 8 6 6 < 4 9 R ^ 0 q : 4 9 R R R q & q / w w / e 8 7 ^ +.G.J.L.K.R.#XL.H.J. X XJ.H.J.y.q.y.l.L.L.E.+XL.E.E.E.E.T.K.E.E.Q.Q.Q.Q.R.R.T.T.R.R.E.E.R.m.l.x.x.x.l.f.q.q.q.0.7.5.5.5.5.5.5.P I 5.5.1.A M M b Z Z B V C L ] _ } ] ] S S S S Z *.*.S A A V B V h F u F D D C d d l l < < < g j h D C C C S ] 6.,.=.=.<.p.s.p.a.k.a.8.4.S L L r.o.g G ! ! @.R ( +.X.o.t.{ ] z.v.x.v.v.x.v.b.v.a.s.S u * * 2 % 2 % = O . . . X @ n #.n #.n n X n . . $.<.=.<.j.d.K.g.5.E.ZXcXrXwX3X3X3X-X%X/.*X*X^.*X3X3XpX;XH.K.H.K.K.v.f.p.s.8.b.4.=.S Z *.c Z Z Z Z &.&.*.*.Z &.*.&.Z Z Z A Z B B B B B B B l l k h h h h F h u u u B V B u h h h d l E | X.~ R 3 Y Q ! < , } E g ; ; 1 1 Y T ( ( ( R R 9 < d k U k C } { ] C j h h C K K K d d h D S A b c v $.v @ z M M x c x Z . b &.z ;.b Z A A B h F t g k _ W E ! Y Y X.X.X.o.' d d ` ' ' ' E * * D 4.S ] C h E ` E E _ ] D h C k f g g G E W W Y G 3 Q R ^ ~ Q T ! Q ~ | X.^ T 3 : & 4 0 ( ( ! < > 1 1 : 9 q : : q 9 Y Y Y 9 8 8 q 0 q @.Y 1 < | ~ Y ",
"& / ) ) (.) e 0 8 / ) ( X.+.X.Y X.X.X.X.( @.! 9 R ( ( / / / q 8 8 7 8 8 6 9 6 < < < 9 R ( ) ) ) Z.{.].Z.C.( / / 8 q q q r 8 5 8 q R o.F.L.K.R.*XL.l.F.|.|.F.i.z.z.y.y.c.R.+X+X#XR.W.W.R.R.x.j.W.R.R.W.R.T.T.R.R.T.R.R.E.W.W.W.W.E.E.E.R.K.x.l.l.g.q.e.e.0.0.0.5.5.0.5.1.=.*.$.$.b $.$.Z A A ,.5.] ] ] ] 4.=.=.=.<.8.p.8.8.8.4.=.D D B B h D D k d d l g < < 1 > h u u V L S S L 4.8.8.7.<.2.<.;.p.<.=.,.4.6.] K { ' , < Q @.( ( ( ].+.X.t.{ L q.y.x.v.f.l.l.l.c.8.h.b.B O = t * * t F B Z Z b n X X X X X X X X n n @ @ *.<.7.x.1.0.g.0.T.zXcXtX3X3X*X*X^.P.P.*XE.T.^.3X-X;X%XI.K.K.l.f.f.8.8.8.4.8.L S B c A c Z Z M M M M M Z *.=.S S A A S L V B B h h V D k k U g g U E k f k d p d h h h a t f k g g Y Q ( R q 9 R ^ T < < E U U g ! 3 & R ( +.].) 0 9 q R k ] C l l ] ] C C j h k K ] ] K H k k h h B B c Z $.$.&.&.&.M b + Z :.*.;.z &.&.b Z B u h h l k H E ' ' Q Q R R Q Q Q ! Y > > k { K k h i i A 8.,.4.S S [ [ ` [ C _ C k E g , < , 3 3 3 3 G 3 3 9 9 T T 3 3 T ~ Q ~ ^ T q ^ ( / / / @.R Y T Q X.R 9 0 0 8 & 5 8 6 6 8 7 7 7 7 e / ) R < < g U ` ",
"& 0 ) / ) (.(.).w ) (.(.+.X.! g E E ! | X.X.X.R 6 R R q 0 0 q 7 5 7 7 8 6 9 3 3 T T T R R R 0 0 R Z.{.].{.C.0 0 0 0 8 7 7 7 7 r w ( D.XX%XR.R.#XR.l.i.F.F.t.t.F.z.x.x.+X#X$X+XE.#X#XR.R.Q.W.!.Q.Q.Q.Q.R.T.T.R.R.R.T.T.T.R.R.R.R.Q.E.E.L.K.x.l.l.z.l.w.w.e.e.0.0.w.w.5.A M $.:.%.#.%.%.&.*.*.,.6.] C S L 4.4.;.;.<.2.8.8.s.s.8.4.S ] ] L C D D l d l l g g 1 1 > t + + B 4.4.,.L =.4.p.s.p.;.-.-.=.<.7.4.,.L ] 6.k } E Q @.R @./ ( ].X.Q F.J.9.q.0.v.x.c.L.l.q.8.8.v.f.F   + i O i B S =.4.s.;.b #.#.#.X X #.n n X X @ . $.=.*.j.7.N x + N g.K.K.K.*XpX-X;X^.I.^.3X*X2X3X^.H.K.I.g.w.5.L ,.S Z *.S 4.V V B u S A m N Z *.*.*.*.*.S S S S S S S L S C D D C C C _ E Y G Y E ' ' E k f f f h h h d * g E E G 3 9 9 & : 6 0 R 9 < Y g g E E Q 9 : (.( ) ) w 7 & 8 X.{ b.6.D l C C l h F h C ] [ K j f H ` _ ] 4.B.=.&.;.;.:.-.2.;.M <.n :.:.:.&.;.&.:.*.A S S 6.6.{ {  .o.X.X.Q Q ( Q ( R < G G g k K V C L L =.,.=.*.*.A A K V f H k _ _ E W Y < < < < 4 : 3 T T T 3 3 T 9 3 : T ~ ^ ( ^ 8 4 0 ) ) / w 0 9 Q +.+.+.( 9 q / / e ) ) R 0 0 r r 7 7 e r 0 ! X._. .l * "
};
